;FLAVOR:Marlin
;TIME:748
;Filament used: 2.20261m
;Layer height: 0.32
;MINX:123.68
;MINY:128.68
;MINZ:0.32
;MAXX:176.32
;MAXY:171.32
;MAXZ:19.84
;TARGET_MACHINE.NAME:Artillery Sidewinder X1
;Generated with Cura_SteamEngine 5.11.0
M140 S55
M105
M190 S55
M104 S210
M105
M109 S210
G28 ; home all axes
 M117 Purge extruder
 G92 E0 ; reset extruder
 G1 Z1.0 F3000 ; move z up little to prevent scratching of surface
 G1 X2 Y20 Z0.3 F5000.0 ; move to start-line position
 G1 X2 Y200.0 Z0.3 F1500.0 E15 ; draw 1st line
 G1 X2 Y200.0 Z0.4 F5000.0 ; move to side a little
 G1 X2 Y20 Z0.4 F1500.0 E30 ; draw 2nd line
 G92 E0 ; reset extruder
 G1 Z1.0 F3000 ; move z up little to prevent scratching of surface
M82 ;absolute extrusion mode
G92 E0
G92 E0
G1 F1500 E-2
;LAYER_COUNT:62
;LAYER:0
M107
G0 F9000 X127.175 Y131.838 Z0.32
;TYPE:SKIRT
G1 F1500 E0
G1 F1800 X127.86 Y131.233 E0.10823
G1 X128.655 Y130.642 E0.22554
G1 X129.566 Y130.085 E0.352
G1 X130.453 Y129.648 E0.4691
G1 X131.377 Y129.289 E0.58649
G1 X132.328 Y129.012 E0.70379
G1 X133.224 Y128.831 E0.81205
G1 X134.697 Y128.693 E0.98725
G1 X135.311 Y128.68 E1.05998
G1 X164.304 Y128.68 E4.49348
G1 X165.192 Y128.692 E4.59865
G1 X166.181 Y128.753 E4.716
G1 X167.085 Y128.886 E4.82421
G1 X168.123 Y129.133 E4.95057
G1 X169.063 Y129.449 E5.06801
G1 X169.969 Y129.845 E5.1851
G1 X170.84 Y130.319 E5.30253
G1 X171.665 Y130.868 E5.41989
G1 X172.438 Y131.486 E5.53709
G1 X173.155 Y132.169 E5.65436
G1 X173.761 Y132.853 E5.76258
G1 X174.397 Y133.712 E5.88916
G1 X174.874 Y134.492 E5.99743
G1 X175.318 Y135.376 E6.11458
G1 X175.709 Y136.369 E6.24097
G1 X175.987 Y137.321 E6.35842
G1 X176.168 Y138.216 E6.46655
G1 X176.307 Y139.697 E6.64271
G1 X176.32 Y140.33 E6.71769
G1 X176.319 Y159.42 E8.97843
G1 X176.308 Y160.186 E9.06915
G1 X176.255 Y161.098 E9.17734
G1 X176.115 Y162.078 E9.29457
G1 X175.869 Y163.117 E9.42102
G1 X175.554 Y164.056 E9.53831
G1 X175.192 Y164.895 E9.64652
G1 X174.685 Y165.834 E9.7729
G1 X174.182 Y166.597 E9.88113
G1 X173.518 Y167.434 E10.00765
G1 X172.89 Y168.097 E10.1158
G1 X172.092 Y168.805 E10.24213
G1 X171.358 Y169.349 E10.35033
G1 X170.515 Y169.87 E10.46769
G1 X169.56 Y170.347 E10.59411
G1 X168.637 Y170.707 E10.71143
G1 X167.761 Y170.966 E10.81961
G1 X166.696 Y171.18 E10.94826
G1 X165.303 Y171.307 E11.11391
G1 X164.67 Y171.32 E11.18889
G1 X135.544 Y171.319 E14.63814
G1 X134.808 Y171.308 E14.72531
G1 X133.819 Y171.247 E14.84266
G1 X132.915 Y171.114 E14.95087
G1 X131.877 Y170.867 E15.07722
G1 X130.937 Y170.551 E15.19467
G1 X130.031 Y170.155 E15.31176
G1 X129.16 Y169.681 E15.42919
G1 X128.335 Y169.132 E15.54655
G1 X127.562 Y168.514 E15.66375
G1 X126.845 Y167.831 E15.78102
G1 X126.239 Y167.147 E15.88924
G1 X125.603 Y166.288 E16.01582
G1 X125.126 Y165.508 E16.12409
G1 X124.682 Y164.624 E16.24124
G1 X124.291 Y163.631 E16.36763
G1 X124.013 Y162.679 E16.48508
G1 X123.832 Y161.784 E16.59321
G1 X123.693 Y160.292 E16.77067
G1 X123.68 Y159.658 E16.84577
G1 X123.681 Y140.504 E19.11408
G1 X123.691 Y139.839 E19.19284
G1 X123.754 Y138.812 E19.3147
G1 X123.887 Y137.908 E19.42291
G1 X124.135 Y136.869 E19.54941
G1 X124.424 Y136.002 E19.65763
G1 X124.848 Y135.023 E19.78398
G1 X125.283 Y134.22 E19.89213
G1 X125.872 Y133.328 E20.01872
G1 X126.441 Y132.613 E20.12693
G1 X127.175 Y131.838 E20.25334
G0 F9000 X127.758 Y132.498
G1 F1800 X128.443 Y131.893 E20.36157
G1 X129.178 Y131.35 E20.46979
G1 X129.957 Y130.873 E20.57797
G1 X130.775 Y130.467 E20.68611
G1 X131.626 Y130.133 E20.79438
G1 X132.502 Y129.875 E20.90252
G1 X133.398 Y129.694 E21.01078
G1 X134.716 Y129.573 E21.16752
G1 X135.33 Y129.56 E21.24025
G1 X164.293 Y129.56 E24.6702
G1 X165.141 Y129.571 E24.77063
G1 X166.053 Y129.624 E24.87882
G1 X166.957 Y129.757 E24.98703
G1 X167.846 Y129.968 E25.09523
G1 X168.713 Y130.256 E25.20342
G1 X169.551 Y130.619 E25.31157
G1 X170.355 Y131.053 E25.41977
G1 X171.118 Y131.557 E25.52806
G1 X171.833 Y132.125 E25.6362
G1 X172.496 Y132.753 E25.74435
G1 X173.102 Y133.437 E25.85257
G1 X173.646 Y134.171 E25.96077
G1 X174.123 Y134.951 E26.06904
G1 X174.53 Y135.768 E26.17714
G1 X174.865 Y136.619 E26.28544
G1 X175.124 Y137.495 E26.39362
G1 X175.305 Y138.39 E26.50176
G1 X175.427 Y139.716 E26.65946
G1 X175.44 Y140.33 E26.73219
G1 X175.439 Y159.408 E28.9915
G1 X175.429 Y160.135 E29.07761
G1 X175.376 Y161.047 E29.18579
G1 X175.244 Y161.951 E29.29398
G1 X175.034 Y162.84 E29.40216
G1 X174.746 Y163.707 E29.51035
G1 X174.384 Y164.546 E29.61856
G1 X173.95 Y165.35 E29.72676
G1 X173.447 Y166.113 E29.83499
G1 X172.879 Y166.829 E29.94322
G1 X172.251 Y167.492 E30.05137
G1 X171.568 Y168.098 E30.1595
G1 X170.834 Y168.642 E30.2677
G1 X170.055 Y169.12 E30.37594
G1 X169.237 Y169.528 E30.48419
G1 X168.387 Y169.863 E30.59239
G1 X167.511 Y170.122 E30.70057
G1 X166.615 Y170.304 E30.80884
G1 X165.284 Y170.427 E30.96714
G1 X164.67 Y170.44 E31.03987
G1 X135.557 Y170.439 E34.48758
G1 X134.859 Y170.429 E34.57025
G1 X133.947 Y170.376 E34.67844
G1 X133.043 Y170.243 E34.78664
G1 X132.154 Y170.032 E34.89485
G1 X131.287 Y169.744 E35.00304
G1 X130.449 Y169.381 E35.11119
G1 X129.645 Y168.947 E35.21939
G1 X128.882 Y168.443 E35.32768
G1 X128.167 Y167.875 E35.43582
G1 X127.504 Y167.247 E35.54397
G1 X126.898 Y166.563 E35.65219
G1 X126.354 Y165.829 E35.76039
G1 X125.877 Y165.049 E35.86866
G1 X125.47 Y164.232 E35.97676
G1 X125.135 Y163.381 E36.08506
G1 X124.876 Y162.505 E36.19324
G1 X124.695 Y161.61 E36.30138
G1 X124.573 Y160.273 E36.46037
G1 X124.56 Y159.658 E36.53322
G1 X124.561 Y140.517 E38.8
G1 X124.571 Y139.852 E38.87876
G1 X124.625 Y138.94 E38.98695
G1 X124.758 Y138.036 E39.09516
G1 X124.97 Y137.147 E39.20339
G1 X125.259 Y136.28 E39.31162
G1 X125.622 Y135.442 E39.41977
G1 X126.057 Y134.639 E39.52793
G1 X126.561 Y133.876 E39.63622
G1 X127.13 Y133.161 E39.74443
G1 X127.758 Y132.498 E39.85258
G1 F1500 E37.85258
;MESH:cube_calibrationtest.stl
G0 F9000 X165.653 Y139.347
G0 X165.653 Y160.653
G0 X164.46 Y160.665
G0 X164.46 Y159.46
;TYPE:WALL-OUTER
G1 F1500 E39.85258
G1 F1800 X164.46 Y140.54 E42.09318
G1 X135.54 Y140.54 E45.51804
G1 X135.54 Y159.46 E47.75865
G1 X164.46 Y159.46 E51.18351
G0 F9000 X164.46 Y159.26
G0 X163.68 Y158.68
;TYPE:WALL-INNER
G1 F1800 X163.68 Y141.32 E53.23937
G1 X136.32 Y141.32 E56.47948
G1 X136.32 Y158.68 E58.53534
G1 X163.68 Y158.68 E61.77546
G0 F9000 X162.8 Y157.8
G1 F1800 X162.8 Y142.2 E63.62289
G1 X137.2 Y142.2 E66.65458
G1 X137.2 Y157.8 E68.50201
G1 X162.8 Y157.8 E71.5337
G0 F9000 X161.988 Y156.988
;TYPE:SKIN
G1 F1800 X161.988 Y143.008 E73.18928
G1 X138.008 Y143.008 E76.02912
G1 X138.008 Y156.988 E77.68471
G1 X161.988 Y156.988 E80.52454
G1 F1500 E78.52454
G0 F9000 X165.665 Y156.988
G0 X165.653 Y139.347
G0 X161.108 Y139.335
G0 X161.108 Y143.888
G1 F1500 E80.52454
G1 F1800 X158.823 Y143.888 E80.79514
G1 X161.109 Y146.175 E81.17808
G1 X161.109 Y147.419 E81.32541
G1 X157.578 Y143.888 E81.91677
G1 X156.334 Y143.888 E82.06409
G1 X161.109 Y148.664 E82.86389
G1 X161.109 Y149.908 E83.01121
G1 X155.089 Y143.888 E84.01943
G1 X153.845 Y143.888 E84.16675
G1 X161.109 Y151.153 E85.3834
G1 X161.109 Y152.397 E85.53072
G1 X152.6 Y143.888 E86.95579
G1 X151.355 Y143.888 E87.10323
G1 X161.109 Y153.642 E88.73682
G1 X161.109 Y154.886 E88.88414
G1 X150.111 Y143.888 E90.72607
G1 X148.866 Y143.888 E90.87351
G1 X161.086 Y156.108 E92.9201
G1 X159.841 Y156.108 E93.06754
G1 X147.622 Y143.888 E95.11404
G1 X146.377 Y143.888 E95.26148
G1 X158.597 Y156.108 E97.30807
G1 X157.352 Y156.108 E97.45551
G1 X145.133 Y143.888 E99.50201
G1 X143.888 Y143.888 E99.64945
G1 X156.108 Y156.108 E101.69604
G1 X154.863 Y156.108 E101.84348
G1 X142.644 Y143.888 E103.88999
G1 X141.399 Y143.888 E104.03742
G1 X153.619 Y156.108 E106.08401
G1 X152.374 Y156.108 E106.23145
G1 X140.155 Y143.888 E108.27796
G1 X138.91 Y143.888 E108.4254
G1 X151.13 Y156.108 E110.47198
G1 X149.885 Y156.108 E110.61942
G1 X138.888 Y145.11 E112.46127
G1 X138.888 Y146.355 E112.60871
G1 X148.641 Y156.108 E114.24213
G1 X147.396 Y156.108 E114.38957
G1 X138.888 Y147.599 E115.81456
G1 X138.888 Y148.844 E115.962
G1 X146.152 Y156.108 E117.17856
G1 X144.907 Y156.108 E117.326
G1 X138.888 Y150.088 E118.33414
G1 X138.888 Y151.333 E118.48158
G1 X143.663 Y156.108 E119.28129
G1 X142.418 Y156.108 E119.42873
G1 X138.888 Y152.577 E120.02001
G1 X138.888 Y153.822 E120.16745
G1 X141.174 Y156.108 E120.55031
G1 X138.888 Y156.108 E120.82103
G0 F9000 X139.929 Y156.108
G1 F1800 X138.888 Y155.066 E120.99546
G1 F1500 E118.99546
G0 F9000 X134.335 Y155.066
G0 X134.347 Y139.347
G0 X160.067 Y139.335
G0 X160.067 Y143.888
G1 F1500 E120.99546
G1 F1800 X161.109 Y144.93 E121.16997
G1 F1500 E119.16997
;MESH:NONMESH
G0 F300 X161.109 Y144.93 Z0.64
G0 F9000 X165.665 Y144.93
G0 X165.665 Y159.46
G0 X164.46 Y159.46
;TIME_ELAPSED:45.519574
;LAYER:1
M106 S89.2
;TYPE:WALL-OUTER
;MESH:cube_calibrationtest.stl
G1 F1500 E121.16997
G1 F3300 X164.46 Y140.54 E123.41057
G1 X135.54 Y140.54 E126.83543
G1 X135.54 Y159.46 E129.07604
G1 X164.46 Y159.46 E132.5009
G0 F10500 X164.46 Y159.26
G0 X163.68 Y158.68
;TYPE:WALL-INNER
G1 F3300 X163.68 Y141.32 E134.55676
G1 X136.32 Y141.32 E137.79687
G1 X136.32 Y158.68 E139.85273
G1 X163.68 Y158.68 E143.09285
G0 F10500 X162.8 Y157.8
G1 F3300 X162.8 Y142.2 E144.94028
G1 X137.2 Y142.2 E147.97197
G1 X137.2 Y157.8 E149.8194
G1 X162.8 Y157.8 E152.85109
G0 F10500 X161.988 Y156.988
;TYPE:SKIN
G1 F2700 X161.988 Y143.008 E154.50667
G1 X138.008 Y143.008 E157.34651
G1 X138.008 Y156.988 E159.0021
G1 X161.988 Y156.988 E161.84193
G0 F10500 X161.109 Y156.108
G1 F2700 X161.108 Y154.997 E161.9735
G1 X159.997 Y156.108 E162.15957
G1 X158.753 Y156.108 E162.30689
G1 X161.108 Y153.753 E162.70131
G1 X161.108 Y152.508 E162.84874
G1 X157.508 Y156.108 E163.45167
G1 X156.264 Y156.108 E163.59899
G1 X161.108 Y151.264 E164.41025
G1 X161.108 Y150.019 E164.55769
G1 X155.019 Y156.108 E165.57747
G1 X153.775 Y156.108 E165.72479
G1 X161.108 Y148.775 E166.95291
G1 X161.108 Y147.53 E167.10035
G1 X152.53 Y156.108 E168.53698
G1 X151.285 Y156.108 E168.68442
G1 X161.108 Y146.286 E170.32948
G1 X161.108 Y145.041 E170.47692
G1 X150.041 Y156.108 E172.33041
G1 X148.796 Y156.108 E172.47785
G1 X161.016 Y143.888 E174.52443
G1 X159.771 Y143.888 E174.67187
G1 X147.552 Y156.108 E176.71838
G1 X146.307 Y156.108 E176.86582
G1 X158.527 Y143.888 E178.91241
G1 X157.282 Y143.888 E179.05984
G1 X145.063 Y156.108 E181.10635
G1 X143.818 Y156.108 E181.25379
G1 X156.038 Y143.888 E183.30038
G1 X154.793 Y143.888 E183.44782
G1 X142.574 Y156.108 E185.49432
G1 X141.329 Y156.108 E185.64176
G1 X153.549 Y143.888 E187.68835
G1 X152.304 Y143.888 E187.83579
G1 X140.085 Y156.108 E189.88229
G1 X138.888 Y156.108 E190.02405
G1 X138.888 Y156.06 E190.02973
G1 X151.06 Y143.888 E192.06828
G1 X149.815 Y143.888 E192.21572
G1 X138.888 Y154.815 E194.04576
G1 X138.888 Y153.571 E194.19308
G1 X148.571 Y143.888 E195.81477
G1 X147.326 Y143.888 E195.96221
G1 X138.888 Y152.326 E197.3754
G1 X138.888 Y151.082 E197.52272
G1 X146.082 Y143.888 E198.72756
G1 X144.837 Y143.888 E198.875
G1 X138.888 Y149.837 E199.87133
G1 X138.888 Y148.593 E200.01865
G1 X143.593 Y143.888 E200.80664
G1 X142.348 Y143.888 E200.95408
G1 X138.888 Y147.348 E201.53355
G1 X138.888 Y146.104 E201.68087
G1 X141.104 Y143.888 E202.05201
G1 X139.859 Y143.888 E202.19945
G1 X138.888 Y144.859 E202.36207
G1 X138.888 Y143.888 E202.47706
G1 F1500 E200.47706
;MESH:NONMESH
G0 F300 X138.888 Y143.888 Z0.96
G0 F10500 X134.335 Y143.888
G0 X134.347 Y160.653
G0 X164.46 Y160.665
G0 X164.46 Y159.46
;TIME_ELAPSED:65.400432
;LAYER:2
M106 S178.5
;TYPE:WALL-OUTER
;MESH:cube_calibrationtest.stl
G1 F1500 E202.47706
G1 F4800 X164.46 Y140.54 E204.71766
G1 X135.54 Y140.54 E208.14252
G1 X135.54 Y159.46 E210.38313
G1 X164.46 Y159.46 E213.80799
G0 F12000 X164.46 Y159.26
G0 X163.68 Y158.68
;TYPE:WALL-INNER
G1 F4800 X163.68 Y141.32 E215.86385
G1 X136.32 Y141.32 E219.10396
G1 X136.32 Y158.68 E221.15982
G1 X163.68 Y158.68 E224.39994
G0 F12000 X162.8 Y157.8
G1 F4800 X162.8 Y142.2 E226.24737
G1 X137.2 Y142.2 E229.27906
G1 X137.2 Y157.8 E231.12649
G1 X162.8 Y157.8 E234.15818
G0 F12000 X161.988 Y156.988
;TYPE:SKIN
G1 F3600 X161.988 Y143.008 E235.81376
G1 X138.008 Y143.008 E238.6536
G1 X138.008 Y156.988 E240.30919
G1 X161.988 Y156.988 E243.14902
G1 F1500 E241.14902
G0 F12000 X165.665 Y156.988
G0 X165.653 Y139.347
G0 X161.108 Y139.335
G0 X161.108 Y143.888
G1 F1500 E243.14902
G1 F3600 X158.823 Y143.888 E243.41962
G1 X161.109 Y146.175 E243.80256
G1 X161.109 Y147.419 E243.94989
G1 X157.578 Y143.888 E244.54125
G1 X156.334 Y143.888 E244.68857
G1 X161.109 Y148.664 E245.48837
G1 X161.109 Y149.908 E245.63569
G1 X155.089 Y143.888 E246.64391
G1 X153.845 Y143.888 E246.79123
G1 X161.109 Y151.153 E248.00788
G1 X161.109 Y152.397 E248.1552
G1 X152.6 Y143.888 E249.58027
G1 X151.355 Y143.888 E249.72771
G1 X161.109 Y153.642 E251.3613
G1 X161.109 Y154.886 E251.50862
G1 X150.111 Y143.888 E253.35055
G1 X148.866 Y143.888 E253.49799
G1 X161.086 Y156.108 E255.54458
G1 X159.841 Y156.108 E255.69202
G1 X147.622 Y143.888 E257.73852
G1 X146.377 Y143.888 E257.88596
G1 X158.597 Y156.108 E259.93255
G1 X157.352 Y156.108 E260.07999
G1 X145.133 Y143.888 E262.12649
G1 X143.888 Y143.888 E262.27393
G1 X156.108 Y156.108 E264.32052
G1 X154.863 Y156.108 E264.46796
G1 X142.644 Y143.888 E266.51447
G1 X141.399 Y143.888 E266.6619
G1 X153.619 Y156.108 E268.70849
G1 X152.374 Y156.108 E268.85593
G1 X140.155 Y143.888 E270.90244
G1 X138.91 Y143.888 E271.04988
G1 X151.13 Y156.108 E273.09646
G1 X149.885 Y156.108 E273.2439
G1 X138.888 Y145.11 E275.08575
G1 X138.888 Y146.355 E275.23319
G1 X148.641 Y156.108 E276.86661
G1 X147.396 Y156.108 E277.01405
G1 X138.888 Y147.599 E278.43904
G1 X138.888 Y148.844 E278.58648
G1 X146.152 Y156.108 E279.80304
G1 X144.907 Y156.108 E279.95048
G1 X138.888 Y150.088 E280.95862
G1 X138.888 Y151.333 E281.10606
G1 X143.663 Y156.108 E281.90577
G1 X142.418 Y156.108 E282.05321
G1 X138.888 Y152.577 E282.64449
G1 X138.888 Y153.822 E282.79193
G1 X141.174 Y156.108 E283.17479
G1 X138.888 Y156.108 E283.44551
G0 F12000 X139.929 Y156.108
G1 F3600 X138.888 Y155.066 E283.61994
G1 F1500 E281.61994
G0 F12000 X134.335 Y155.066
G0 X134.347 Y139.347
G0 X160.067 Y139.335
G0 X160.067 Y143.888
G1 F1500 E283.61994
G1 F3600 X161.109 Y144.93 E283.79445
G1 F1500 E281.79445
;MESH:NONMESH
G0 F300 X161.109 Y144.93 Z1.28
G0 F12000 X165.665 Y144.93
G0 X165.665 Y159.46
G0 X164.46 Y159.46
;TIME_ELAPSED:84.868715
;LAYER:3
;TYPE:WALL-OUTER
;MESH:cube_calibrationtest.stl
G1 F1500 E283.79445
G1 F4800 X164.46 Y140.54 E286.03505
G1 X135.54 Y140.54 E289.45991
G1 X135.54 Y159.46 E291.70052
G1 X164.46 Y159.46 E295.12538
G0 F12000 X164.46 Y159.26
G0 X163.68 Y158.68
;TYPE:WALL-INNER
G1 F4800 X163.68 Y141.32 E297.18124
G1 X136.32 Y141.32 E300.42135
G1 X136.32 Y158.68 E302.47721
G1 X163.68 Y158.68 E305.71733
G0 F12000 X162.8 Y157.8
G1 F4800 X162.8 Y142.2 E307.56476
G1 X137.2 Y142.2 E310.59645
G1 X137.2 Y157.8 E312.44388
G1 X162.8 Y157.8 E315.47557
G0 F12000 X161.988 Y156.988
;TYPE:SKIN
G1 F3600 X161.988 Y143.008 E317.13115
G1 X138.008 Y143.008 E319.97099
G1 X138.008 Y156.988 E321.62658
G1 X161.988 Y156.988 E324.46641
G0 F12000 X161.109 Y156.108
G1 F3600 X161.108 Y154.997 E324.59798
G1 X159.997 Y156.108 E324.78405
G1 X158.753 Y156.108 E324.93137
G1 X161.108 Y153.753 E325.32579
G1 X161.108 Y152.508 E325.47322
G1 X157.508 Y156.108 E326.07615
G1 X156.264 Y156.108 E326.22347
G1 X161.108 Y151.264 E327.03473
G1 X161.108 Y150.019 E327.18217
G1 X155.019 Y156.108 E328.20195
G1 X153.775 Y156.108 E328.34927
G1 X161.108 Y148.775 E329.57739
G1 X161.108 Y147.53 E329.72483
G1 X152.53 Y156.108 E331.16146
G1 X151.285 Y156.108 E331.3089
