;FLAVOR:Marlin
;TIME:751
;Filament used: 2.20311m
;Layer height: 0.32
;MINX:123.68
;MINY:128.68
;MINZ:0.32
;MAXX:176.32
;MAXY:171.32
;MAXZ:19.84
;TARGET_MACHINE.NAME:Artillery Sidewinder X1
;Generated with Cura_SteamEngine 5.11.0
M140 S55
M105
M190 S55
M104 S210
M105
M109 S210
G28 ; home all axes
 M117 Purge extruder
 G92 E0 ; reset extruder
 G1 Z1.0 F3000 ; move z up little to prevent scratching of surface
 G1 X2 Y20 Z0.3 F5000.0 ; move to start-line position
 G1 X2 Y200.0 Z0.3 F1500.0 E15 ; draw 1st line
 G1 X2 Y200.0 Z0.4 F5000.0 ; move to side a little
 G1 X2 Y20 Z0.4 F1500.0 E30 ; draw 2nd line
 G92 E0 ; reset extruder
 G1 Z1.0 F3000 ; move z up little to prevent scratching of surface
M82 ;absolute extrusion mode
G92 E0
G92 E0
G1 F1500 E-2
;LAYER_COUNT:62
;LAYER:0
M107
G0 F9000 X127.175 Y131.838 Z0.32
;TYPE:SKIRT
G1 F1500 E0
G1 F1800 X127.86 Y131.233 E0.10823
G1 X128.655 Y130.642 E0.22554
G1 X129.566 Y130.085 E0.352
G1 X130.453 Y129.648 E0.4691
G1 X131.377 Y129.289 E0.58649
G1 X132.328 Y129.012 E0.70379
G1 X133.224 Y128.831 E0.81205
G1 X134.697 Y128.693 E0.98725
G1 X135.311 Y128.68 E1.05998
G1 X164.304 Y128.68 E4.49348
G1 X165.192 Y128.692 E4.59865
G1 X166.181 Y128.753 E4.716
G1 X167.085 Y128.886 E4.82421
G1 X168.123 Y129.133 E4.95057
G1 X169.063 Y129.449 E5.06801
G1 X169.969 Y129.845 E5.1851
G1 X170.84 Y130.319 E5.30253
G1 X171.665 Y130.868 E5.41989
G1 X172.438 Y131.486 E5.53709
G1 X173.155 Y132.169 E5.65436
G1 X173.761 Y132.853 E5.76258
G1 X174.397 Y133.712 E5.88916
G1 X174.874 Y134.492 E5.99743
G1 X175.318 Y135.376 E6.11458
G1 X175.709 Y136.369 E6.24097
G1 X175.987 Y137.321 E6.35842
G1 X176.168 Y138.216 E6.46655
G1 X176.307 Y139.697 E6.64271
G1 X176.32 Y140.33 E6.71769
G1 X176.319 Y159.42 E8.97843
G1 X176.308 Y160.186 E9.06915
G1 X176.255 Y161.098 E9.17734
G1 X176.115 Y162.078 E9.29457
G1 X175.869 Y163.117 E9.42102
G1 X175.554 Y164.056 E9.53831
G1 X175.192 Y164.895 E9.64652
G1 X174.685 Y165.834 E9.7729
G1 X174.182 Y166.597 E9.88113
G1 X173.518 Y167.434 E10.00765
G1 X172.89 Y168.097 E10.1158
G1 X172.092 Y168.805 E10.24213
G1 X171.358 Y169.349 E10.35033
G1 X170.515 Y169.87 E10.46769
G1 X169.56 Y170.347 E10.59411
G1 X168.637 Y170.707 E10.71143
G1 X167.761 Y170.966 E10.81961
G1 X166.696 Y171.18 E10.94826
G1 X165.303 Y171.307 E11.11391
G1 X164.67 Y171.32 E11.18889
G1 X135.544 Y171.319 E14.63814
G1 X134.808 Y171.308 E14.72531
G1 X133.819 Y171.247 E14.84266
G1 X132.915 Y171.114 E14.95087
G1 X131.877 Y170.867 E15.07722
G1 X130.937 Y170.551 E15.19467
G1 X130.031 Y170.155 E15.31176
G1 X129.16 Y169.681 E15.42919
G1 X128.335 Y169.132 E15.54655
G1 X127.562 Y168.514 E15.66375
G1 X126.845 Y167.831 E15.78102
G1 X126.239 Y167.147 E15.88924
G1 X125.603 Y166.288 E16.01582
G1 X125.126 Y165.508 E16.12409
G1 X124.682 Y164.624 E16.24124
G1 X124.291 Y163.631 E16.36763
G1 X124.013 Y162.679 E16.48508
G1 X123.832 Y161.784 E16.59321
G1 X123.693 Y160.292 E16.77067
G1 X123.68 Y159.658 E16.84577
G1 X123.681 Y140.504 E19.11408
G1 X123.691 Y139.839 E19.19284
G1 X123.754 Y138.812 E19.3147
G1 X123.887 Y137.908 E19.42291
G1 X124.135 Y136.869 E19.54941
G1 X124.424 Y136.002 E19.65763
G1 X124.848 Y135.023 E19.78398
G1 X125.283 Y134.22 E19.89213
G1 X125.872 Y133.328 E20.01872
G1 X126.441 Y132.613 E20.12693
G1 X127.175 Y131.838 E20.25334
G0 F9000 X127.758 Y132.498
G1 F1800 X128.443 Y131.893 E20.36157
G1 X129.178 Y131.35 E20.46979
G1 X129.957 Y130.873 E20.57797
G1 X130.775 Y130.467 E20.68611
G1 X131.626 Y130.133 E20.79438
G1 X132.502 Y129.875 E20.90252
G1 X133.398 Y129.694 E21.01078
G1 X134.716 Y129.573 E21.16752
G1 X135.33 Y129.56 E21.24025
G1 X164.293 Y129.56 E24.6702
G1 X165.141 Y129.571 E24.77063
G1 X166.053 Y129.624 E24.87882
G1 X166.957 Y129.757 E24.98703
G1 X167.846 Y129.968 E25.09523
G1 X168.713 Y130.256 E25.20342
G1 X169.551 Y130.619 E25.31157
G1 X170.355 Y131.053 E25.41977
G1 X171.118 Y131.557 E25.52806
G1 X171.833 Y132.125 E25.6362
G1 X172.496 Y132.753 E25.74435
G1 X173.102 Y133.437 E25.85257
G1 X173.646 Y134.171 E25.96077
G1 X174.123 Y134.951 E26.06904
G1 X174.53 Y135.768 E26.17714
G1 X174.865 Y136.619 E26.28544
G1 X175.124 Y137.495 E26.39362
G1 X175.305 Y138.39 E26.50176
G1 X175.427 Y139.716 E26.65946
G1 X175.44 Y140.33 E26.73219
G1 X175.439 Y159.408 E28.9915
G1 X175.429 Y160.135 E29.07761
G1 X175.376 Y161.047 E29.18579
G1 X175.244 Y161.951 E29.29398
G1 X175.034 Y162.84 E29.40216
G1 X174.746 Y163.707 E29.51035
G1 X174.384 Y164.546 E29.61856
G1 X173.95 Y165.35 E29.72676
G1 X173.447 Y166.113 E29.83499
G1 X172.879 Y166.829 E29.94322
G1 X172.251 Y167.492 E30.05137
G1 X171.568 Y168.098 E30.1595
G1 X170.834 Y168.642 E30.2677
G1 X170.055 Y169.12 E30.37594
G1 X169.237 Y169.528 E30.48419
G1 X168.387 Y169.863 E30.59239
G1 X167.511 Y170.122 E30.70057
G1 X166.615 Y170.304 E30.80884
G1 X165.284 Y170.427 E30.96714
G1 X164.67 Y170.44 E31.03987
G1 X135.557 Y170.439 E34.48758
G1 X134.859 Y170.429 E34.57025
G1 X133.947 Y170.376 E34.67844
G1 X133.043 Y170.243 E34.78664
G1 X132.154 Y170.032 E34.89485
G1 X131.287 Y169.744 E35.00304
G1 X130.449 Y169.381 E35.11119
G1 X129.645 Y168.947 E35.21939
G1 X128.882 Y168.443 E35.32768
G1 X128.167 Y167.875 E35.43582
G1 X127.504 Y167.247 E35.54397
G1 X126.898 Y166.563 E35.65219
G1 X126.354 Y165.829 E35.76039
G1 X125.877 Y165.049 E35.86866
G1 X125.47 Y164.232 E35.97676
G1 X125.135 Y163.381 E36.08506
G1 X124.876 Y162.505 E36.19324
G1 X124.695 Y161.61 E36.30138
G1 X124.573 Y160.273 E36.46037
G1 X124.56 Y159.658 E36.53322
G1 X124.561 Y140.517 E38.8
G1 X124.571 Y139.852 E38.87876
G1 X124.625 Y138.94 E38.98695
G1 X124.758 Y138.036 E39.09516
G1 X124.97 Y137.147 E39.20339
G1 X125.259 Y136.28 E39.31162
G1 X125.622 Y135.442 E39.41977
G1 X126.057 Y134.639 E39.52793
G1 X126.561 Y133.876 E39.63622
G1 X127.13 Y133.161 E39.74443
G1 X127.758 Y132.498 E39.85258
G1 F1500 E37.85258
;MESH:cube_calibrationtest.stl
G0 F9000 X165.653 Y139.347
G0 X165.653 Y160.653
G0 X164.46 Y160.665
G0 X164.46 Y159.46
;TYPE:WALL-OUTER
G1 F1500 E39.85258
G1 F1800 X164.46 Y140.54 E42.09318
G1 X135.54 Y140.54 E45.51804
G1 X135.54 Y159.46 E47.75865
G1 X164.46 Y159.46 E51.18351
G0 F9000 X164.46 Y159.26
G0 X163.68 Y158.68
;TYPE:WALL-INNER
G1 F1800 X163.68 Y141.32 E53.23937
G1 X136.32 Y141.32 E56.47948
G1 X136.32 Y158.68 E58.53534
G1 X163.68 Y158.68 E61.77546
G0 F9000 X162.8 Y157.8
G1 F1800 X162.8 Y142.2 E63.62289
G1 X137.2 Y142.2 E66.65458
G1 X137.2 Y157.8 E68.50201
G1 X162.8 Y157.8 E71.5337
G0 F9000 X161.988 Y156.988
;TYPE:SKIN
G1 F1800 X161.988 Y143.008 E73.18928
G1 X138.008 Y143.008 E76.02912
G1 X138.008 Y156.988 E77.68471
G1 X161.988 Y156.988 E80.52454
G1 F1500 E78.52454
G0 F9000 X165.665 Y156.988
G0 X165.665 Y144.125
G0 X161.548 Y144.125
G1 F1500 E80.52454
G1 F1800 X160.872 Y143.449 E80.63776
G0 F9000 X159.627 Y143.449
G1 F1800 X161.548 Y145.37 E80.95948
G0 F9000 X161.548 Y146.614
G1 F1800 X158.383 Y143.449 E81.48955
G0 F9000 X157.138 Y143.449
G1 F1800 X161.548 Y147.859 E82.22813
G0 F9000 X161.548 Y149.103
G1 F1800 X155.894 Y143.449 E83.17506
G0 F9000 X154.649 Y143.449
G1 F1800 X161.548 Y150.348 E84.33049
G0 F9000 X161.548 Y151.592
G1 F1800 X153.405 Y143.449 E85.69427
G0 F9000 X152.16 Y143.449
G1 F1800 X161.548 Y152.837 E87.26656
G0 F9000 X161.548 Y154.081
G1 F1800 X150.916 Y143.449 E89.04719
G0 F9000 X149.671 Y143.449
G1 F1800 X161.548 Y155.326 E91.03634
G0 F9000 X161.526 Y156.548
G1 F1800 X148.427 Y143.449 E93.23014
G0 F9000 X147.182 Y143.449
G1 F1800 X160.281 Y156.548 E95.42394
G0 F9000 X159.037 Y156.548
G1 F1800 X145.938 Y143.449 E97.61774
G0 F9000 X144.693 Y143.449
G1 F1800 X157.792 Y156.548 E99.81154
G0 F9000 X156.548 Y156.548
G1 F1800 X143.449 Y143.449 E102.00535
G0 F9000 X142.204 Y143.449
G1 F1800 X155.303 Y156.548 E104.19915
G0 F9000 X154.059 Y156.548
G1 F1800 X140.96 Y143.449 E106.39295
G0 F9000 X139.715 Y143.449
G1 F1800 X152.814 Y156.548 E108.58675
G0 F9000 X151.57 Y156.548
G1 F1800 X138.471 Y143.449 E110.78055
G0 F9000 X138.448 Y144.671
G1 F1800 X150.325 Y156.548 E112.7697
G0 F9000 X149.081 Y156.548
G1 F1800 X138.448 Y145.915 E114.5505
G0 F9000 X138.448 Y147.16
G1 F1800 X147.836 Y156.548 E116.12278
G0 F9000 X146.592 Y156.548
G1 F1800 X138.448 Y148.404 E117.48673
G0 F9000 X138.448 Y149.649
G1 F1800 X145.347 Y156.548 E118.64217
G0 F9000 X144.103 Y156.548
G1 F1800 X138.448 Y150.893 E119.58926
G0 F9000 X138.448 Y152.138
G1 F1800 X142.858 Y156.548 E120.32784
G0 F9000 X141.614 Y156.548
G1 F1800 X138.448 Y153.382 E120.85807
G0 F9000 X138.448 Y154.627
G1 F1800 X140.369 Y156.548 E121.1798
G0 F9000 X139.125 Y156.548
G1 F1800 X138.448 Y155.871 E121.29318
G1 F1500 E119.29318
;MESH:NONMESH
G0 F300 X138.448 Y155.871 Z0.64
G0 F9000 X134.335 Y155.871
G0 X134.347 Y160.653
G0 X164.46 Y160.665
G0 X164.46 Y159.46
;TIME_ELAPSED:46.008386
;LAYER:1
M106 S89.2
;TYPE:WALL-OUTER
;MESH:cube_calibrationtest.stl
G1 F1500 E121.29318
G1 F3300 X164.46 Y140.54 E123.53379
G1 X135.54 Y140.54 E126.95865
G1 X135.54 Y159.46 E129.19925
G1 X164.46 Y159.46 E132.62411
G0 F10500 X164.46 Y159.26
G0 X163.68 Y158.68
;TYPE:WALL-INNER
G1 F3300 X163.68 Y141.32 E134.67997
G1 X136.32 Y141.32 E137.92009
G1 X136.32 Y158.68 E139.97595
G1 X163.68 Y158.68 E143.21606
G0 F10500 X162.8 Y157.8
G1 F3300 X162.8 Y142.2 E145.0635
G1 X137.2 Y142.2 E148.09518
G1 X137.2 Y157.8 E149.94262
G1 X162.8 Y157.8 E152.9743
G0 F10500 X161.988 Y156.988
;TYPE:SKIN
G1 F2700 X161.988 Y143.008 E154.62989
G1 X138.008 Y143.008 E157.46973
G1 X138.008 Y156.988 E159.12531
G1 X161.988 Y156.988 E161.96515
G0 F10500 X160.801 Y156.548
G1 F2700 X161.548 Y155.801 E162.09025
G0 F10500 X161.548 Y154.557
G1 F2700 X159.557 Y156.548 E162.4237
G0 F10500 X158.312 Y156.548
G1 F2700 X161.548 Y153.312 E162.96566
G0 F10500 X161.548 Y152.068
G1 F2700 X157.068 Y156.548 E163.71597
G0 F10500 X155.823 Y156.548
G1 F2700 X161.548 Y150.823 E164.67478
G0 F10500 X161.548 Y149.579
G1 F2700 X154.578 Y156.548 E165.84203
G0 F10500 X153.334 Y156.548
G1 F2700 X161.548 Y148.334 E167.21769
G0 F10500 X161.548 Y147.09
G1 F2700 X152.089 Y156.548 E168.80179
G0 F10500 X150.845 Y156.548
G1 F2700 X161.548 Y145.845 E170.59431
G0 F10500 X161.548 Y144.601
G1 F2700 X149.6 Y156.548 E172.59526
G0 F10500 X148.356 Y156.548
G1 F2700 X161.457 Y143.448 E174.78932
G0 F10500 X160.212 Y143.448
G1 F2700 X147.111 Y156.548 E176.98337
G0 F10500 X145.867 Y156.548
G1 F2700 X158.968 Y143.448 E179.17742
G0 F10500 X157.723 Y143.448
G1 F2700 X144.622 Y156.548 E181.37148
G0 F10500 X143.378 Y156.548
G1 F2700 X156.478 Y143.448 E183.56545
G0 F10500 X155.234 Y143.448
G1 F2700 X142.133 Y156.548 E185.7595
G0 F10500 X140.889 Y156.548
G1 F2700 X153.989 Y143.448 E187.95347
G0 F10500 X152.745 Y143.448
G1 F2700 X139.644 Y156.548 E190.14752
G0 F10500 X138.448 Y156.5
G1 F2700 X151.5 Y143.448 E192.33345
G0 F10500 X150.256 Y143.448
G1 F2700 X138.448 Y155.256 E194.31104
G0 F10500 X138.448 Y154.011
G1 F2700 X149.011 Y143.448 E196.08012
G0 F10500 X147.767 Y143.448
G1 F2700 X138.448 Y152.767 E197.64085
G0 F10500 X138.448 Y151.522
G1 F2700 X146.522 Y143.448 E198.99307
G0 F10500 X145.278 Y143.448
G1 F2700 X138.448 Y150.278 E200.13695
G0 F10500 X138.448 Y149.033
G1 F2700 X144.033 Y143.448 E201.07232
G0 F10500 X142.789 Y143.448
G1 F2700 X138.448 Y147.789 E201.79934
G0 F10500 X138.448 Y146.544
G1 F2700 X141.544 Y143.448 E202.31786
G0 F10500 X140.3 Y143.448
G1 F2700 X138.448 Y145.3 E202.62803
G0 F10500 X138.448 Y144.055
G1 F2700 X139.055 Y143.448 E202.72969
G1 F1500 E200.72969
;MESH:NONMESH
G0 F300 X139.055 Y143.448 Z0.96
G0 F10500 X134.335 Y143.448
G0 X134.347 Y160.653
G0 X164.46 Y160.665
G0 X164.46 Y159.46
;TIME_ELAPSED:67.278495
;LAYER:2
M106 S178.5
;TYPE:WALL-OUTER
;MESH:cube_calibrationtest.stl
G1 F1500 E202.72969
G1 F4800 X164.46 Y140.54 E204.97029
G1 X135.54 Y140.54 E208.39515
G1 X135.54 Y159.46 E210.63575
G1 X164.46 Y159.46 E214.06061
G0 F12000 X164.46 Y159.26
G0 X163.68 Y158.68
;TYPE:WALL-INNER
G1 F4800 X163.68 Y141.32 E216.11647
G1 X136.32 Y141.32 E219.35659
G1 X136.32 Y158.68 E221.41245
G1 X163.68 Y158.68 E224.65257
G0 F12000 X162.8 Y157.8
G1 F4800 X162.8 Y142.2 E226.5
G1 X137.2 Y142.2 E229.53169
G1 X137.2 Y157.8 E231.37912
G1 X162.8 Y157.8 E234.41081
G0 F12000 X161.988 Y156.988
;TYPE:SKIN
G1 F3600 X161.988 Y143.008 E236.06639
G1 X138.008 Y143.008 E238.90623
G1 X138.008 Y156.988 E240.56181
G1 X161.988 Y156.988 E243.40165
G1 F1500 E241.40165
G0 F12000 X165.665 Y156.988
G0 X165.665 Y144.125
G0 X161.548 Y144.125
G1 F1500 E243.40165
G1 F3600 X160.872 Y143.449 E243.51487
G0 F12000 X159.627 Y143.449
G1 F3600 X161.548 Y145.37 E243.83659
G0 F12000 X161.548 Y146.614
G1 F3600 X158.383 Y143.449 E244.36666
G0 F12000 X157.138 Y143.449
G1 F3600 X161.548 Y147.859 E245.10524
G0 F12000 X161.548 Y149.103
G1 F3600 X155.894 Y143.449 E246.05217
G0 F12000 X154.649 Y143.449
G1 F3600 X161.548 Y150.348 E247.2076
G0 F12000 X161.548 Y151.592
G1 F3600 X153.405 Y143.449 E248.57138
G0 F12000 X152.16 Y143.449
G1 F3600 X161.548 Y152.837 E250.14367
G0 F12000 X161.548 Y154.081
G1 F3600 X150.916 Y143.449 E251.9243
G0 F12000 X149.671 Y143.449
G1 F3600 X161.548 Y155.326 E253.91344
G0 F12000 X161.526 Y156.548
G1 F3600 X148.427 Y143.449 E256.10724
G0 F12000 X147.182 Y143.449
G1 F3600 X160.281 Y156.548 E258.30105
G0 F12000 X159.037 Y156.548
G1 F3600 X145.938 Y143.449 E260.49485
G0 F12000 X144.693 Y143.449
G1 F3600 X157.792 Y156.548 E262.68865
G0 F12000 X156.548 Y156.548
G1 F3600 X143.449 Y143.449 E264.88245
G0 F12000 X142.204 Y143.449
G1 F3600 X155.303 Y156.548 E267.07625
G0 F12000 X154.059 Y156.548
G1 F3600 X140.96 Y143.449 E269.27006
G0 F12000 X139.715 Y143.449
G1 F3600 X152.814 Y156.548 E271.46386
G0 F12000 X151.57 Y156.548
G1 F3600 X138.471 Y143.449 E273.65766
G0 F12000 X138.448 Y144.671
G1 F3600 X150.325 Y156.548 E275.6468
G0 F12000 X149.081 Y156.548
G1 F3600 X138.448 Y145.915 E277.4276
G0 F12000 X138.448 Y147.16
G1 F3600 X147.836 Y156.548 E278.99989
G0 F12000 X146.592 Y156.548
G1 F3600 X138.448 Y148.404 E280.36384
G0 F12000 X138.448 Y149.649
G1 F3600 X145.347 Y156.548 E281.51927
G0 F12000 X144.103 Y156.548
G1 F3600 X138.448 Y150.893 E282.46636
G0 F12000 X138.448 Y152.138
G1 F3600 X142.858 Y156.548 E283.20494
G0 F12000 X141.614 Y156.548
G1 F3600 X138.448 Y153.382 E283.73518
G0 F12000 X138.448 Y154.627
G1 F3600 X140.369 Y156.548 E284.05691
G0 F12000 X139.125 Y156.548
G1 F3600 X138.448 Y155.871 E284.17029
G1 F1500 E282.17029
;MESH:NONMESH
G0 F300 X138.448 Y155.871 Z1.28
G0 F12000 X134.335 Y155.871
G0 X134.347 Y160.653
G0 X164.46 Y160.665
G0 X164.46 Y159.46
;TIME_ELAPSED:86.661900
;LAYER:3
;TYPE:WALL-OUTER
;MESH:cube_calibrationtest.stl
G1 F1500 E284.17029
G1 F4800 X164.46 Y140.54 E286.4109
G1 X135.54 Y140.54 E289.83575
G1 X135.54 Y159.46 E292.07636
G1 X164.46 Y159.46 E295.50122
G0 F12000 X164.46 Y159.26
G0 X163.68 Y158.68
;TYPE:WALL-INNER
G1 F4800 X163.68 Y141.32 E297.55708
G1 X136.32 Y141.32 E300.79719
G1 X136.32 Y158.68 E302.85306
G1 X163.68 Y158.68 E306.09317
G0 F12000 X162.8 Y157.8
G1 F4800 X162.8 Y142.2 E307.9406
G1 X137.2 Y142.2 E310.97229
G1 X137.2 Y157.8 E312.81972
G1 X162.8 Y157.8 E315.85141
G0 F12000 X161.988 Y156.988
;TYPE:SKIN
G1 F3600 X161.988 Y143.008 E317.507
G1 X138.008 Y143.008 E320.34683
G1 X138.008 Y156.988 E322.00242
G1 X161.988 Y156.988 E324.84226
G0 F12000 X160.801 Y156.548
G1 F3600 X161.548 Y155.801 E324.96736
G0 F12000 X161.548 Y154.557
G1 F3600 X159.557 Y156.548 E325.30081
G0 F12000 X158.312 Y156.548
G1 F3600 X161.548 Y153.312 E325.84277
G0 F12000 X161.548 Y152.068
G1 F3600 X157.068 Y156.548 E326.59308
G0 F12000 X155.823 Y156.548
G1 F3600 X161.548 Y150.823 E327.55189
G0 F12000 X161.548 Y149.579
G1 F3600 X154.578 Y156.548 E328.71913
G0 F12000 X153.334 Y156.548
