;FLAVOR:Marlin
;TIME:746
;Filament used: 2.15971m
;Layer height: 0.32
;MINX:123.68
;MINY:128.68
;MINZ:0.32
;MAXX:176.32
;MAXY:171.32
;MAXZ:19.84
;TARGET_MACHINE.NAME:Artillery Sidewinder X1
;Generated with Cura_SteamEngine 5.11.0
M140 S55
M105
M190 S55
M104 S215
M105
M109 S215
G28 ; home all axes
 M117 Purge extruder
 G92 E0 ; reset extruder
 G1 Z1.0 F3000 ; move z up little to prevent scratching of surface
 G1 X2 Y20 Z0.3 F5000.0 ; move to start-line position
 G1 X2 Y200.0 Z0.3 F1500.0 E15 ; draw 1st line
 G1 X2 Y200.0 Z0.4 F5000.0 ; move to side a little
 G1 X2 Y20 Z0.4 F1500.0 E30 ; draw 2nd line
 G92 E0 ; reset extruder
 G1 Z1.0 F3000 ; move z up little to prevent scratching of surface
M82 ;absolute extrusion mode
G92 E0
G92 E0
G1 F1500 E-2
;LAYER_COUNT:62
;LAYER:0
M107
G0 F9000 X127.175 Y131.838 Z0.32
;TYPE:SKIRT
G1 F1500 E0
G1 F1800 X127.86 Y131.233 E0.10607
G1 X128.655 Y130.642 E0.22103
G1 X129.566 Y130.085 E0.34496
G1 X130.453 Y129.648 E0.45971
G1 X131.377 Y129.289 E0.57476
G1 X132.328 Y129.012 E0.68972
G1 X133.224 Y128.831 E0.7958
G1 X134.697 Y128.693 E0.9675
G1 X135.311 Y128.68 E1.03878
G1 X164.304 Y128.68 E4.40361
G1 X165.192 Y128.692 E4.50668
G1 X166.181 Y128.753 E4.62168
G1 X167.085 Y128.886 E4.72772
G1 X168.123 Y129.133 E4.85155
G1 X169.063 Y129.449 E4.96665
G1 X169.969 Y129.845 E5.0814
G1 X170.84 Y130.319 E5.19648
G1 X171.665 Y130.868 E5.31149
G1 X172.438 Y131.486 E5.42635
G1 X173.155 Y132.169 E5.54128
G1 X173.761 Y132.853 E5.64733
G1 X174.397 Y133.712 E5.77138
G1 X174.874 Y134.492 E5.87749
G1 X175.318 Y135.376 E5.99229
G1 X175.709 Y136.369 E6.11615
G1 X175.987 Y137.321 E6.23125
G1 X176.168 Y138.216 E6.33722
G1 X176.307 Y139.697 E6.50986
G1 X176.32 Y140.33 E6.58334
G1 X176.319 Y159.42 E8.79886
G1 X176.308 Y160.186 E8.88777
G1 X176.255 Y161.098 E8.99379
G1 X176.115 Y162.078 E9.10868
G1 X175.869 Y163.117 E9.2326
G1 X175.554 Y164.056 E9.34755
G1 X175.192 Y164.895 E9.45359
G1 X174.685 Y165.834 E9.57744
G1 X174.182 Y166.597 E9.6835
G1 X173.518 Y167.434 E9.8075
G1 X172.89 Y168.097 E9.91348
G1 X172.092 Y168.805 E10.03729
G1 X171.358 Y169.349 E10.14332
G1 X170.515 Y169.87 E10.25834
G1 X169.56 Y170.347 E10.38223
G1 X168.637 Y170.707 E10.49721
G1 X167.761 Y170.966 E10.60322
G1 X166.696 Y171.18 E10.72929
G1 X165.303 Y171.307 E10.89163
G1 X164.67 Y171.32 E10.96511
G1 X135.544 Y171.319 E14.34538
G1 X134.808 Y171.308 E14.43081
G1 X133.819 Y171.247 E14.5458
G1 X132.915 Y171.114 E14.65185
G1 X131.877 Y170.867 E14.77568
G1 X130.937 Y170.551 E14.89077
G1 X130.031 Y170.155 E15.00552
G1 X129.16 Y169.681 E15.12061
G1 X128.335 Y169.132 E15.23562
G1 X127.562 Y168.514 E15.35048
G1 X126.845 Y167.831 E15.4654
G1 X126.239 Y167.147 E15.57146
G1 X125.603 Y166.288 E15.6955
G1 X125.126 Y165.508 E15.80161
G1 X124.682 Y164.624 E15.91642
G1 X124.291 Y163.631 E16.04027
G1 X124.013 Y162.679 E16.15538
G1 X123.832 Y161.784 E16.26135
G1 X123.693 Y160.292 E16.43526
G1 X123.68 Y159.658 E16.50885
G1 X123.681 Y140.504 E18.7318
G1 X123.691 Y139.839 E18.80899
G1 X123.754 Y138.812 E18.9284
G1 X123.887 Y137.908 E19.03445
G1 X124.135 Y136.869 E19.15842
G1 X124.424 Y136.002 E19.26448
G1 X124.848 Y135.023 E19.3883
G1 X125.283 Y134.22 E19.49429
G1 X125.872 Y133.328 E19.61834
G1 X126.441 Y132.613 E19.72439
G1 X127.175 Y131.838 E19.84827
G0 F9000 X127.758 Y132.498
G1 F1800 X128.443 Y131.893 E19.95434
G1 X129.178 Y131.35 E20.0604
G1 X129.957 Y130.873 E20.16641
G1 X130.775 Y130.467 E20.27239
G1 X131.626 Y130.133 E20.37849
G1 X132.502 Y129.875 E20.48447
G1 X133.398 Y129.694 E20.59056
G1 X134.716 Y129.573 E20.74417
G1 X135.33 Y129.56 E20.81544
G1 X164.293 Y129.56 E24.17679
G1 X165.141 Y129.571 E24.27522
G1 X166.053 Y129.624 E24.38124
G1 X166.957 Y129.757 E24.48728
G1 X167.846 Y129.968 E24.59333
G1 X168.713 Y130.256 E24.69935
G1 X169.551 Y130.619 E24.80534
G1 X170.355 Y131.053 E24.91138
G1 X171.118 Y131.557 E25.0175
G1 X171.833 Y132.125 E25.12348
G1 X172.496 Y132.753 E25.22946
G1 X173.102 Y133.437 E25.33552
G1 X173.646 Y134.171 E25.44155
G1 X174.123 Y134.951 E25.54766
G1 X174.53 Y135.768 E25.65359
G1 X174.865 Y136.619 E25.75974
G1 X175.124 Y137.495 E25.86575
G1 X175.305 Y138.39 E25.97173
G1 X175.427 Y139.716 E26.12627
G1 X175.44 Y140.33 E26.19754
G1 X175.439 Y159.408 E28.41167
G1 X175.429 Y160.135 E28.49605
G1 X175.376 Y161.047 E28.60208
G1 X175.244 Y161.951 E28.7081
G1 X175.034 Y162.84 E28.81412
G1 X174.746 Y163.707 E28.92014
G1 X174.384 Y164.546 E29.02619
G1 X173.95 Y165.35 E29.13223
G1 X173.447 Y166.113 E29.23829
G1 X172.879 Y166.829 E29.34436
G1 X172.251 Y167.492 E29.45034
G1 X171.568 Y168.098 E29.55631
G1 X170.834 Y168.642 E29.66235
G1 X170.055 Y169.12 E29.76842
G1 X169.237 Y169.528 E29.8745
G1 X168.387 Y169.863 E29.98054
G1 X167.511 Y170.122 E30.08655
G1 X166.615 Y170.304 E30.19266
G1 X165.284 Y170.427 E30.34779
G1 X164.67 Y170.44 E30.41907
G1 X135.557 Y170.439 E33.79783
G1 X134.859 Y170.429 E33.87884
G1 X133.947 Y170.376 E33.98487
G1 X133.043 Y170.243 E34.09091
G1 X132.154 Y170.032 E34.19695
G1 X131.287 Y169.744 E34.30298
G1 X130.449 Y169.381 E34.40897
G1 X129.645 Y168.947 E34.515
G1 X128.882 Y168.443 E34.62113
G1 X128.167 Y167.875 E34.72711
G1 X127.504 Y167.247 E34.83309
G1 X126.898 Y166.563 E34.93915
G1 X126.354 Y165.829 E35.04518
G1 X125.877 Y165.049 E35.15129
G1 X125.47 Y164.232 E35.25722
G1 X125.135 Y163.381 E35.36336
G1 X124.876 Y162.505 E35.46938
G1 X124.695 Y161.61 E35.57535
G1 X124.573 Y160.273 E35.73116
G1 X124.56 Y159.658 E35.80256
G1 X124.561 Y140.517 E38.024
G1 X124.571 Y139.852 E38.10118
G1 X124.625 Y138.94 E38.20721
G1 X124.758 Y138.036 E38.31326
G1 X124.97 Y137.147 E38.41933
G1 X125.259 Y136.28 E38.52539
G1 X125.622 Y135.442 E38.63138
G1 X126.057 Y134.639 E38.73737
G1 X126.561 Y133.876 E38.84349
G1 X127.13 Y133.161 E38.94954
G1 X127.758 Y132.498 E39.05553
G1 F1500 E37.05553
;MESH:cube_calibrationtest.stl
G0 F9000 X134.347 Y160.653
G0 X150 Y160.665
G0 X150 Y159.48
;TYPE:WALL-OUTER
G1 F1500 E39.05553
G1 F1800 X164.48 Y159.48 E40.73603
G1 X164.48 Y140.52 E42.93646
G1 X135.52 Y140.52 E46.29747
G1 X135.52 Y159.48 E48.4979
G1 X150 Y159.48 E50.1784
G0 F9000 X150 Y158.68
;TYPE:WALL-INNER
G1 F1800 X163.68 Y158.68 E51.76606
G1 X163.68 Y141.32 E53.78081
G1 X136.32 Y141.32 E56.95612
G1 X136.32 Y158.68 E58.97086
G1 X150 Y158.68 E60.55852
G0 F9000 X150 Y157.8
G1 F1800 X162.8 Y157.8 E62.04404
G1 X162.8 Y142.2 E63.85453
G1 X137.2 Y142.2 E66.82558
G1 X137.2 Y157.8 E68.63607
G1 X150 Y157.8 E70.12159
G0 F9000 X150 Y156.988
;TYPE:SKIN
G1 F1800 X161.988 Y156.988 E71.51288
G1 X161.988 Y143.008 E73.13535
G1 X138.008 Y143.008 E75.9184
G1 X138.008 Y156.988 E77.54087
G1 X150 Y156.988 E78.93262
G1 F1500 E76.93262
G0 F9000 X150 Y160.665
G0 X138.888 Y160.665
G0 X138.888 Y156.108
G1 F1500 E78.93262
G1 F1800 X141.174 Y156.108 E79.19793
G1 X138.888 Y153.822 E79.57313
G1 X138.888 Y152.577 E79.71762
G1 X142.418 Y156.108 E80.29707
G1 X143.663 Y156.108 E80.44156
G1 X138.888 Y151.333 E81.22528
G1 X138.888 Y150.088 E81.36977
G1 X144.907 Y156.108 E82.35775
G1 X146.152 Y156.108 E82.50224
G1 X138.888 Y148.844 E83.69447
G1 X138.888 Y147.599 E83.83896
G1 X147.396 Y156.108 E85.23545
G1 X148.641 Y156.108 E85.37994
G1 X138.888 Y146.355 E86.98069
G1 X138.888 Y145.11 E87.12518
G1 X149.885 Y156.108 E88.93019
G1 X151.13 Y156.108 E89.07468
G1 X138.91 Y143.888 E91.08034
G1 X140.155 Y143.888 E91.22483
G1 X152.374 Y156.108 E93.2304
G1 X153.619 Y156.108 E93.37489
G1 X141.399 Y143.888 E95.38055
G1 X142.644 Y143.888 E95.52504
G1 X154.863 Y156.108 E97.53062
G1 X156.108 Y156.108 E97.67511
G1 X143.888 Y143.888 E99.68076
G1 X145.133 Y143.888 E99.82525
G1 X157.352 Y156.108 E101.83083
G1 X158.597 Y156.108 E101.97532
G1 X146.377 Y143.888 E103.98098
G1 X147.622 Y143.888 E104.12547
G1 X159.841 Y156.108 E106.13104
G1 X161.086 Y156.108 E106.27553
G1 X148.866 Y143.888 E108.28119
G1 X150.111 Y143.888 E108.42568
G1 X161.109 Y154.886 E110.23077
G1 X161.109 Y153.642 E110.37514
G1 X151.355 Y143.888 E111.97606
G1 X152.6 Y143.888 E112.12055
G1 X161.109 Y152.397 E113.51712
G1 X161.109 Y151.153 E113.6615
G1 X153.845 Y143.888 E114.85381
G1 X155.089 Y143.888 E114.99819
G1 X161.109 Y149.908 E115.98624
G1 X161.109 Y148.664 E116.13062
G1 X156.334 Y143.888 E116.91442
G1 X157.578 Y143.888 E117.05879
G1 X161.109 Y147.419 E117.63833
G1 X161.109 Y146.175 E117.7827
G1 X158.823 Y143.888 E118.15799
G1 X161.108 Y143.888 E118.42318
G0 F9000 X160.067 Y143.888
G1 F1800 X161.109 Y144.93 E118.5942
G1 F1500 E116.5942
G0 F9000 X165.665 Y144.93
G0 X165.653 Y160.653
G0 X139.929 Y160.665
G0 X139.929 Y156.108
G1 F1500 E118.5942
G1 F1800 X138.888 Y155.066 E118.76514
G1 F1500 E116.76514
;MESH:NONMESH
G0 F300 X138.888 Y155.066 Z0.64
G0 F9000 X134.335 Y155.066
G0 X134.347 Y160.653
G0 X150 Y160.665
G0 X150 Y159.48
;TIME_ELAPSED:45.358543
;LAYER:1
M106 S89.2
;TYPE:WALL-OUTER
;MESH:cube_calibrationtest.stl
G1 F1500 E118.76514
G1 F4500 X164.48 Y159.48 E120.44564
G1 X164.48 Y140.52 E122.64608
G1 X135.52 Y140.52 E126.00708
G1 X135.52 Y159.48 E128.20751
G1 X150 Y159.48 E129.88802
G0 F12000 X150 Y158.68
;TYPE:WALL-INNER
G1 F4500 X163.68 Y158.68 E131.47567
G1 X163.68 Y141.32 E133.49042
G1 X136.32 Y141.32 E136.66573
G1 X136.32 Y158.68 E138.68047
G1 X150 Y158.68 E140.26813
G0 F12000 X150 Y157.8
G1 F4500 X162.8 Y157.8 E141.75366
G1 X162.8 Y142.2 E143.56414
G1 X137.2 Y142.2 E146.53519
G1 X137.2 Y157.8 E148.34568
G1 X150 Y157.8 E149.8312
G0 F12000 X150 Y156.988
;TYPE:SKIN
G1 F3300 X161.988 Y156.988 E151.22249
G1 X161.988 Y143.008 E152.84497
G1 X138.008 Y143.008 E155.62801
G1 X138.008 Y156.988 E157.25048
G1 X150 Y156.988 E158.64223
G1 F1500 E156.64223
G0 F12000 X150 Y160.665
G0 X161.109 Y160.665
G0 X161.109 Y156.108
G1 F1500 E158.64223
G1 F3300 X161.108 Y154.997 E158.77117
G1 X159.997 Y156.108 E158.95352
G1 X158.753 Y156.108 E159.09789
G1 X161.108 Y153.753 E159.48442
G1 X161.108 Y152.508 E159.62891
G1 X157.508 Y156.108 E160.21977
G1 X156.264 Y156.108 E160.36415
G1 X161.108 Y151.264 E161.15919
G1 X161.108 Y150.019 E161.30368
G1 X155.019 Y156.108 E162.30306
G1 X153.775 Y156.108 E162.44743
G1 X161.108 Y148.775 E163.65099
G1 X161.108 Y147.53 E163.79548
G1 X152.53 Y156.108 E165.20338
G1 X151.285 Y156.108 E165.34787
G1 X161.108 Y146.286 E166.96003
G1 X161.108 Y145.041 E167.10452
G1 X150.041 Y156.108 E168.92094
G1 X148.796 Y156.108 E169.06543
G1 X161.016 Y143.888 E171.07108
G1 X159.771 Y143.888 E171.21557
G1 X147.552 Y156.108 E173.22115
G1 X146.307 Y156.108 E173.36564
G1 X158.527 Y143.888 E175.3713
G1 X157.282 Y143.888 E175.51579
G1 X145.063 Y156.108 E177.52136
G1 X143.818 Y156.108 E177.66585
G1 X156.038 Y143.888 E179.67151
G1 X154.793 Y143.888 E179.816
G1 X142.574 Y156.108 E181.82157
G1 X141.329 Y156.108 E181.96606
G1 X153.549 Y143.888 E183.97172
G1 X152.304 Y143.888 E184.11621
G1 X140.085 Y156.108 E186.12178
G1 X138.888 Y156.108 E186.2607
G1 X138.888 Y156.06 E186.26628
G1 X151.06 Y143.888 E188.26405
G1 X149.815 Y143.888 E188.40854
G1 X138.888 Y154.815 E190.20198
G1 X138.888 Y153.571 E190.34636
G1 X148.571 Y143.888 E191.93562
G1 X147.326 Y143.888 E192.08011
G1 X138.888 Y152.326 E193.46503
G1 X138.888 Y151.082 E193.6094
G1 X146.082 Y143.888 E194.79015
G1 X144.837 Y143.888 E194.93464
G1 X138.888 Y149.837 E195.91104
G1 X138.888 Y148.593 E196.05542
G1 X143.593 Y143.888 E196.82764
G1 X142.348 Y143.888 E196.97213
G1 X138.888 Y147.348 E197.54002
G1 X138.888 Y146.104 E197.68439
G1 X141.104 Y143.888 E198.0481
G1 X139.859 Y143.888 E198.1926
G1 X138.888 Y144.859 E198.35196
G1 X138.888 Y143.888 E198.46466
G1 F1500 E196.46466
;MESH:NONMESH
G0 F300 X138.888 Y143.888 Z0.96
G0 F12000 X134.335 Y143.888
G0 X134.347 Y160.653
G0 X150 Y160.665
G0 X150 Y159.48
;TIME_ELAPSED:64.404340
;LAYER:2
;note -- min layer time used
M106 S178.5
;TYPE:WALL-OUTER
;MESH:cube_calibrationtest.stl
G1 F1500 E198.46466
G1 F4351.7 X164.48 Y159.48 E200.14516
G1 X164.48 Y140.52 E202.34559
G1 X135.52 Y140.52 E205.7066
G1 X135.52 Y159.48 E207.90703
G1 X150 Y159.48 E209.58753
G0 F15000 X150 Y158.68
;TYPE:WALL-INNER
G1 F4351.7 X163.68 Y158.68 E211.17519
G1 X163.68 Y141.32 E213.18993
G1 X136.32 Y141.32 E216.36525
G1 X136.32 Y158.68 E218.37999
G1 X150 Y158.68 E219.96765
G0 F15000 X150 Y157.8
G1 F4351.7 X162.8 Y157.8 E221.45317
G1 X162.8 Y142.2 E223.26366
G1 X137.2 Y142.2 E226.23471
G1 X137.2 Y157.8 E228.0452
G1 X150 Y157.8 E229.53072
G0 F15000 X150 Y156.988
;TYPE:SKIN
G1 F4351.7 X161.988 Y156.988 E230.92201
G1 X161.988 Y143.008 E232.54448
G1 X138.008 Y143.008 E235.32752
G1 X138.008 Y156.988 E236.95
G1 X150 Y156.988 E238.34175
G1 F1500 E236.34175
G0 F15000 X150 Y160.665
G0 X138.888 Y160.665
G0 X138.888 Y156.108
G1 F1500 E238.34175
G1 F4351.7 X141.174 Y156.108 E238.60706
G1 X138.888 Y153.822 E238.98225
G1 X138.888 Y152.577 E239.12674
G1 X142.418 Y156.108 E239.7062
G1 X143.663 Y156.108 E239.85069
G1 X138.888 Y151.333 E240.63441
G1 X138.888 Y150.088 E240.7789
G1 X144.907 Y156.108 E241.76687
G1 X146.152 Y156.108 E241.91136
G1 X138.888 Y148.844 E243.1036
G1 X138.888 Y147.599 E243.24809
G1 X147.396 Y156.108 E244.64458
G1 X148.641 Y156.108 E244.78907
G1 X138.888 Y146.355 E246.38982
G1 X138.888 Y145.11 E246.53431
G1 X149.885 Y156.108 E248.33932
G1 X151.13 Y156.108 E248.48381
G1 X138.91 Y143.888 E250.48947
G1 X140.155 Y143.888 E250.63396
G1 X152.374 Y156.108 E252.63953
G1 X153.619 Y156.108 E252.78402
G1 X141.399 Y143.888 E254.78968
G1 X142.644 Y143.888 E254.93417
G1 X154.863 Y156.108 E256.93974
G1 X156.108 Y156.108 E257.08424
G1 X143.888 Y143.888 E259.08989
G1 X145.133 Y143.888 E259.23438
G1 X157.352 Y156.108 E261.23996
G1 X158.597 Y156.108 E261.38445
G1 X146.377 Y143.888 E263.3901
G1 X147.622 Y143.888 E263.53459
G1 X159.841 Y156.108 E265.54017
G1 X161.086 Y156.108 E265.68466
G1 X148.866 Y143.888 E267.69032
G1 X150.111 Y143.888 E267.83481
G1 X161.109 Y154.886 E269.6399
G1 X161.109 Y153.642 E269.78427
G1 X151.355 Y143.888 E271.38519
G1 X152.6 Y143.888 E271.52968
G1 X161.109 Y152.397 E272.92625
G1 X161.109 Y151.153 E273.07063
G1 X153.845 Y143.888 E274.26294
G1 X155.089 Y143.888 E274.40732
G1 X161.109 Y149.908 E275.39537
G1 X161.109 Y148.664 E275.53975
G1 X156.334 Y143.888 E276.32354
G1 X157.578 Y143.888 E276.46792
G1 X161.109 Y147.419 E277.04746
G1 X161.109 Y146.175 E277.19183
G1 X158.823 Y143.888 E277.56711
G1 X161.108 Y143.888 E277.8323
G0 F15000 X160.067 Y143.888
G1 F4351.7 X161.109 Y144.93 E278.00333
G1 F1500 E276.00333
G0 F15000 X165.665 Y144.93
G0 X165.653 Y160.653
G0 X139.929 Y160.665
G0 X139.929 Y156.108
G1 F1500 E278.00333
G1 F4351.7 X138.888 Y155.066 E278.17427
G1 F1500 E276.17427
;MESH:NONMESH
G0 F300 X138.888 Y155.066 Z1.28
G0 F15000 X134.335 Y155.066
G0 X134.347 Y160.653
G0 X150 Y160.665
G0 X150 Y159.48
;TIME_ELAPSED:83.980406
;LAYER:3
;note -- min layer time used
;TYPE:WALL-OUTER
;MESH:cube_calibrationtest.stl
G1 F1500 E278.17427
G1 F4211 X164.48 Y159.48 E279.85477
G1 X164.48 Y140.52 E282.0552
G1 X135.52 Y140.52 E285.41621
G1 X135.52 Y159.48 E287.61664
G1 X150 Y159.48 E289.29714
G0 F15000 X150 Y158.68
;TYPE:WALL-INNER
G1 F4211 X163.68 Y158.68 E290.8848
G1 X163.68 Y141.32 E292.89955
G1 X136.32 Y141.32 E296.07486
G1 X136.32 Y158.68 E298.0896
G1 X150 Y158.68 E299.67726
G0 F15000 X150 Y157.8
G1 F4211 X162.8 Y157.8 E301.16279
G1 X162.8 Y142.2 E302.97327
G1 X137.2 Y142.2 E305.94432
G1 X137.2 Y157.8 E307.75481
G1 X150 Y157.8 E309.24033
G0 F15000 X150 Y156.988
;TYPE:SKIN
G1 F4211 X161.988 Y156.988 E310.63162
G1 X161.988 Y143.008 E312.2541
G1 X138.008 Y143.008 E315.03714
G1 X138.008 Y156.988 E316.65961
G1 X150 Y156.988 E318.05136
G1 F1500 E316.05136
G0 F15000 X150 Y160.665
G0 X161.109 Y160.665
G0 X161.109 Y156.108
G1 F1500 E318.05136
