;FLAVOR:Marlin
;TIME:1996
;Filament used: 3.45802m
;Layer height: 0.3
;MINX:130.938
;MINY:120.771
;MINZ:0.3
;MAXX:169.109
;MAXY:179.171
;MAXZ:14.1
;TARGET_MACHINE.NAME:Artillery Sidewinder X1
;Generated with Cura_SteamEngine 5.10.0
M140 S55
M105
M190 S55
M104 S210
M105
M109 S210
G28 ; home all axes
M117 ; Purge extruder
M420 S1 ; enable bed mesh
G92 E0 ; reset extruder
G1 Z1.0 F3000 ; move z up little to prevent scratching of surface
G1 X2 Y20 Z0.3 F5000.0 ; move to start-line position
G1 X2 Y200.0 Z0.3 F1500.0 E15 ; draw 1st line
G1 X2 Y200.0 Z0.4 F5000.0 ; move to side a little
G1 X2 Y20 Z0.4 F1500.0 E30 ; draw 2nd line
G92 E0 ; reset extruder
G1 Z1.0 F3000 ; move z up little to prevent scratching of surface
M82 ;absolute extrusion mode
G92 E0
G92 E0
G1 F1500 E-2
;LAYER_COUNT:47
;LAYER:0
M106 S76.5
G0 F3600 X131.779 Y122.282 Z0.3
;TYPE:SKIRT
G1 F1500 E0
G1 F1800 X132.289 Y121.812 E0.0346
G1 X132.939 Y121.459 E0.0715
G1 X133.705 Y121.24 E0.11125
G1 X134.439 Y121.172 E0.14803
G1 X165.531 Y121.171 E1.69921
G1 X165.923 Y121.198 E1.71882
G1 X166.336 Y121.248 E1.73957
G1 X167.086 Y121.474 E1.77865
G1 X167.706 Y121.812 E1.81388
G1 X168.218 Y122.282 E1.84855
G1 X168.548 Y122.848 E1.88124
G1 X168.659 Y123.473 E1.91291
G1 X168.659 Y129.321 E2.20467
G1 X168.62 Y129.47 E2.21235
G1 X168.512 Y129.579 E2.22001
G1 X168.359 Y129.621 E2.22792
G1 X166.821 Y129.621 E2.30465
G1 X166.822 Y130.321 E2.33958
G1 X168.359 Y130.321 E2.41626
G1 X168.508 Y130.36 E2.42394
G1 X168.617 Y130.468 E2.4316
G1 X168.659 Y130.621 E2.43951
G1 X168.659 Y137.586 E2.787
G1 X168.545 Y138.102 E2.81336
G1 X168.219 Y138.659 E2.84556
G1 X167.708 Y139.13 E2.88023
G1 X167.058 Y139.483 E2.91714
G1 X166.292 Y139.702 E2.95688
G1 X165.558 Y139.77 E2.99366
G1 X134.466 Y139.771 E4.54485
G1 X134.073 Y139.745 E4.5645
G1 X133.661 Y139.694 E4.58521
G1 X132.911 Y139.468 E4.62429
G1 X132.291 Y139.13 E4.65952
G1 X131.778 Y138.659 E4.69426
G1 X131.449 Y138.097 E4.72675
G1 X131.338 Y137.469 E4.75857
G1 X131.338 Y130.621 E5.10022
G1 X131.377 Y130.472 E5.1079
G1 X131.485 Y130.363 E5.11555
G1 X131.638 Y130.321 E5.12347
G1 X133.176 Y130.321 E5.2002
G1 X133.175 Y129.621 E5.23512
G1 X131.638 Y129.621 E5.31181
G1 X131.489 Y129.582 E5.31949
G1 X131.38 Y129.474 E5.32715
G1 X131.338 Y129.321 E5.33506
G1 X131.338 Y123.356 E5.63266
G1 X131.452 Y122.842 E5.65892
G1 X131.779 Y122.282 E5.69128
G1 F1500 E3.69128
G0 F3600 X131.465 Y122.099
G0 X131.108 Y122.709
G0 X130.974 Y123.315
G0 X130.974 Y137.531
G0 X131.102 Y138.224
G0 X131.494 Y138.893
G0 X131.966 Y139.327
G0 X133.722 Y140.378
G0 X133.755 Y140.74
G1 F1500 E5.69128
G1 F1800 X134.489 Y140.672 E5.72805
G1 X165.581 Y140.671 E7.27924
G1 X165.973 Y140.698 E7.29884
G1 X166.386 Y140.748 E7.3196
G1 X167.136 Y140.974 E7.35868
G1 X167.756 Y141.312 E7.39391
G1 X168.268 Y141.782 E7.42858
G1 X168.598 Y142.348 E7.46127
G1 X168.709 Y142.973 E7.49294
G1 X168.709 Y148.821 E7.78469
G1 X168.67 Y148.97 E7.79238
G1 X168.562 Y149.079 E7.80003
G1 X168.409 Y149.121 E7.80795
G1 X166.871 Y149.121 E7.88468
G1 X166.872 Y149.821 E7.9196
G1 X168.409 Y149.821 E7.99628
G1 X168.558 Y149.86 E8.00397
G1 X168.667 Y149.968 E8.01162
G1 X168.709 Y150.121 E8.01954
G1 X168.709 Y157.086 E8.36702
G1 X168.595 Y157.602 E8.39339
G1 X168.269 Y158.159 E8.42559
G1 X167.758 Y158.63 E8.46026
G1 X167.108 Y158.983 E8.49716
G1 X166.342 Y159.202 E8.53691
G1 X165.608 Y159.27 E8.57368
G1 X134.516 Y159.271 E10.12487
G1 X134.123 Y159.245 E10.14452
G1 X133.711 Y159.194 E10.16523
G1 X132.961 Y158.968 E10.20431
G1 X132.341 Y158.63 E10.23954
G1 X131.828 Y158.159 E10.27429
G1 X131.499 Y157.597 E10.30678
G1 X131.388 Y156.969 E10.33859
G1 X131.388 Y150.121 E10.68024
G1 X131.427 Y149.972 E10.68792
G1 X131.535 Y149.863 E10.69558
G1 X131.688 Y149.821 E10.7035
G1 X133.226 Y149.821 E10.78023
G1 X133.225 Y149.121 E10.81515
G1 X131.688 Y149.121 E10.89183
G1 X131.539 Y149.082 E10.89951
G1 X131.43 Y148.974 E10.90717
G1 X131.388 Y148.821 E10.91509
G1 X131.388 Y142.856 E11.21268
G1 X131.502 Y142.342 E11.23895
G1 X131.829 Y141.782 E11.2713
G1 X132.339 Y141.312 E11.3059
G1 X132.989 Y140.959 E11.3428
G1 X133.755 Y140.74 E11.38255
G0 F3600 X134.024 Y140.142
G1 F1800 X133.546 Y140.077 E11.40662
G1 X132.757 Y139.839 E11.44773
G1 X132.053 Y139.456 E11.48772
G1 X131.465 Y138.915 E11.52758
G1 X131.066 Y138.235 E11.56691
G1 X130.938 Y137.469 E11.60566
G1 X130.938 Y130.621 E11.94731
G1 X130.99 Y130.371 E11.96005
G1 X131.201 Y130.081 E11.97794
G1 X131.398 Y129.972 E11.98917
G1 X131.207 Y129.866 E12.00007
G1 X130.994 Y129.58 E12.01786
G1 X130.938 Y129.321 E12.03108
G1 X130.938 Y123.31 E12.33097
G1 X131.074 Y122.697 E12.3623
G1 X131.464 Y122.028 E12.40093
G1 X132.056 Y121.483 E12.44108
G1 X132.786 Y121.086 E12.48253
G1 X133.595 Y120.855 E12.52451
G1 X134.439 Y120.772 E12.56682
G1 X165.531 Y120.771 E14.11801
G1 X165.971 Y120.801 E14.14001
G1 X166.451 Y120.865 E14.16417
G1 X167.24 Y121.103 E14.20528
G1 X167.941 Y121.485 E14.24511
G1 X168.534 Y122.029 E14.28526
G1 X168.93 Y122.71 E14.32456
G1 X169.059 Y123.473 E14.36317
G1 X169.059 Y129.321 E14.65493
G1 X169.007 Y129.571 E14.66766
G1 X168.796 Y129.861 E14.68556
G1 X168.599 Y129.97 E14.69679
G1 X168.79 Y130.076 E14.70769
G1 X169.003 Y130.362 E14.72548
G1 X169.059 Y130.621 E14.7387
G1 X169.059 Y137.631 E15.08843
G1 X168.923 Y138.248 E15.11995
G1 X168.534 Y138.913 E15.15839
G1 X167.941 Y139.459 E15.1986
G1 X167.211 Y139.856 E15.24006
G1 X166.402 Y140.087 E15.28203
G1 X165.558 Y140.17 E15.32434
G1 X134.44 Y140.17 E16.87683
G1 X134.024 Y140.142 E16.89763
G1 F1500 E14.89763
G0 F3600 X132.848 Y140.622
G0 X132.125 Y141.013
G0 X131.544 Y141.55
G0 X131.158 Y142.209
G0 X131.024 Y142.815
G0 X131.024 Y157.031
G0 X131.152 Y157.724
G0 X131.544 Y158.393
G0 X132.127 Y158.929
G0 X132.71 Y159.246
G0 X134.406 Y159.81
G0 X134.439 Y160.172
G1 F1500 E16.89763
G1 F1800 X165.531 Y160.171 E18.44881
G1 X165.923 Y160.198 E18.46842
G1 X166.336 Y160.248 E18.48917
G1 X167.086 Y160.474 E18.52825
G1 X167.706 Y160.812 E18.56348
G1 X168.218 Y161.282 E18.59816
G1 X168.548 Y161.848 E18.63084
G1 X168.659 Y162.473 E18.66251
G1 X168.659 Y168.321 E18.95427
G1 X168.62 Y168.47 E18.96196
G1 X168.512 Y168.579 E18.96961
G1 X168.359 Y168.621 E18.97753
G1 X166.821 Y168.621 E19.05426
G1 X166.822 Y169.321 E19.08918
G1 X168.359 Y169.321 E19.16586
G1 X168.508 Y169.36 E19.17355
G1 X168.617 Y169.468 E19.1812
G1 X168.659 Y169.621 E19.18912
G1 X168.659 Y176.586 E19.5366
G1 X168.545 Y177.102 E19.56297
G1 X168.219 Y177.659 E19.59516
G1 X167.708 Y178.13 E19.62984
G1 X167.058 Y178.483 E19.66674
G1 X166.292 Y178.702 E19.70649
G1 X165.558 Y178.77 E19.74326
G1 X134.466 Y178.771 E21.29445
G1 X134.073 Y178.745 E21.3141
G1 X133.661 Y178.694 E21.33481
G1 X132.911 Y178.468 E21.37389
G1 X132.291 Y178.13 E21.40912
G1 X131.778 Y177.659 E21.44386
G1 X131.449 Y177.097 E21.47635
G1 X131.338 Y176.469 E21.50817
G1 X131.338 Y169.621 E21.84982
G1 X131.377 Y169.472 E21.8575
G1 X131.485 Y169.363 E21.86516
G1 X131.638 Y169.321 E21.87307
G1 X133.176 Y169.321 E21.9498
G1 X133.175 Y168.621 E21.98473
G1 X131.638 Y168.621 E22.06141
G1 X131.489 Y168.582 E22.06909
G1 X131.38 Y168.474 E22.07675
G1 X131.338 Y168.321 E22.08466
G1 X131.338 Y162.356 E22.38226
G1 X131.452 Y161.842 E22.40852
G1 X131.779 Y161.282 E22.44088
G1 X132.289 Y160.812 E22.47548
G1 X132.939 Y160.459 E22.51238
G1 X133.705 Y160.24 E22.55213
G1 X134.439 Y160.172 E22.5889
G0 F3600 X134.439 Y159.772
G1 F1800 X165.531 Y159.771 E24.14009
G1 X165.971 Y159.801 E24.16209
G1 X166.451 Y159.865 E24.18625
G1 X167.24 Y160.103 E24.22737
G1 X167.941 Y160.485 E24.2672
G1 X168.534 Y161.029 E24.30734
G1 X168.93 Y161.71 E24.34665
G1 X169.059 Y162.473 E24.38525
G1 X169.059 Y168.321 E24.67701
G1 X169.007 Y168.571 E24.68975
G1 X168.796 Y168.861 E24.70764
G1 X168.599 Y168.97 E24.71887
G1 X168.79 Y169.076 E24.72977
G1 X169.003 Y169.362 E24.74756
G1 X169.059 Y169.621 E24.76078
G1 X169.059 Y176.631 E25.11051
G1 X168.923 Y177.248 E25.14204
G1 X168.534 Y177.913 E25.18047
G1 X167.941 Y178.459 E25.22069
G1 X167.211 Y178.856 E25.26214
G1 X166.402 Y179.087 E25.30412
G1 X165.558 Y179.17 E25.34643
G1 X134.466 Y179.171 E26.89762
G1 X134.024 Y179.142 E26.91971
G1 X133.546 Y179.077 E26.94378
G1 X132.757 Y178.839 E26.9849
G1 X132.053 Y178.456 E27.02488
G1 X131.465 Y177.915 E27.06474
G1 X131.066 Y177.235 E27.10408
G1 X130.938 Y176.469 E27.14282
G1 X130.938 Y169.621 E27.48447
G1 X130.99 Y169.371 E27.49721
G1 X131.201 Y169.081 E27.5151
G1 X131.398 Y168.972 E27.52634
G1 X131.207 Y168.866 E27.53723
G1 X130.994 Y168.58 E27.55503
G1 X130.938 Y168.321 E27.56825
G1 X130.938 Y162.31 E27.86814
G1 X131.074 Y161.697 E27.89946
G1 X131.464 Y161.028 E27.9381
G1 X132.056 Y160.483 E27.97824
G1 X132.786 Y160.086 E28.0197
G1 X133.595 Y159.855 E28.06167
G1 X134.439 Y159.772 E28.10398
G1 X134.516 Y159.671
G1 X134.074 Y159.642 E28.12608
G1 X133.596 Y159.577 E28.15015
G1 X132.807 Y159.339 E28.19126
G1 X132.103 Y158.956 E28.23125
G1 X131.515 Y158.415 E28.27111
G1 X131.116 Y157.735 E28.31045
G1 X130.988 Y156.969 E28.34919
G1 X130.988 Y150.121 E28.69084
G1 X131.04 Y149.871 E28.70358
G1 X131.251 Y149.581 E28.72147
G1 X131.448 Y149.472 E28.7327
G1 X131.257 Y149.366 E28.7436
G1 X131.044 Y149.08 E28.76139
G1 X130.988 Y148.821 E28.77461
G1 X130.988 Y142.81 E29.0745
G1 X131.124 Y142.197 E29.10583
G1 X131.514 Y141.528 E29.14446
G1 X132.106 Y140.983 E29.18461
G1 X132.836 Y140.586 E29.22607
G1 X133.645 Y140.355 E29.26804
G1 X134.489 Y140.272 E29.31035
G1 X165.581 Y140.271 E30.86154
G1 X166.021 Y140.301 E30.88354
G1 X166.501 Y140.365 E30.9077
G1 X167.29 Y140.603 E30.94881
G1 X167.991 Y140.985 E30.98864
G1 X168.584 Y141.529 E31.02879
G1 X168.98 Y142.21 E31.06809
G1 X169.109 Y142.973 E31.1067
G1 X169.109 Y148.821 E31.39846
G1 X169.057 Y149.071 E31.4112
G1 X168.846 Y149.361 E31.42909
G1 X168.649 Y149.47 E31.44032
G1 X168.84 Y149.576 E31.45122
G1 X169.053 Y149.862 E31.46901
G1 X169.109 Y150.121 E31.48223
G1 X169.109 Y157.131 E31.83196
G1 X168.973 Y157.748 E31.86348
G1 X168.584 Y158.413 E31.90192
G1 X167.991 Y158.959 E31.94213
G1 X167.261 Y159.356 E31.98359
G1 X166.452 Y159.587 E32.02556
G1 X165.608 Y159.67 E32.06788
G1 X134.516 Y159.671 E33.61906
G1 F1500 E31.61906
;MESH:Bry??a4(1)
G0 F3600 X162.69 Y136.626
;TYPE:WALL-OUTER
G1 F1500 E33.61906
G1 F1800 X162.349 Y136.725 E33.63678
G1 X137.654 Y136.728 E34.86881
G1 X137.302 Y136.626 E34.8871
G1 X136.958 Y136.385 E34.90805
G1 X136.773 Y136.109 E34.92463
G1 X136.735 Y135.913 E34.93459
G1 X136.736 Y125.02 E35.47804
G1 X136.774 Y124.829 E35.48776
G1 X136.956 Y124.56 E35.50396
G1 X137.298 Y124.315 E35.52495
G1 X137.647 Y124.211 E35.54312
G1 X162.203 Y124.212 E36.76823
G1 X162.68 Y124.308 E36.7925
G1 X163.037 Y124.554 E36.81413
G1 X163.218 Y124.83 E36.8306
G1 X163.26 Y125.068 E36.84265
G1 X163.256 Y135.914 E37.38376
G1 X163.218 Y136.11 E37.39372
G1 X163.038 Y136.381 E37.40995
G1 X162.69 Y136.626 E37.43119
G0 F3600 X162.498 Y136.681
G1 F1500 E35.43119
G0 F3600 X166.215 Y139.143
G1 F1500 E37.43119
G1 F1800 X166.836 Y138.962 E37.46346
G1 X167.38 Y138.666 E37.49436
G1 X167.775 Y138.306 E37.52102
G1 X168.018 Y137.892 E37.54497
G1 X168.096 Y137.528 E37.56354
G1 X168.096 Y130.88 E37.89521
G1 X166.462 Y130.88 E37.97673
G1 X166.357 Y130.824 E37.98267
G1 X166.263 Y130.665 E37.99188
G1 X166.26 Y129.224 E38.06378
G1 X166.462 Y129.06 E38.07676
G1 X168.096 Y129.06 E38.15828
G1 X168.096 Y123.493 E38.43602
G1 X168.012 Y123.044 E38.45881
G1 X167.774 Y122.637 E38.48233
G1 X167.379 Y122.27 E38.50923
G1 X166.836 Y121.978 E38.53999
G1 X166.204 Y121.792 E38.57285
G1 X165.872 Y121.755 E38.58952
G1 X165.51 Y121.729 E38.60763
G1 X134.469 Y121.728 E40.15627
G1 X133.782 Y121.793 E40.1907
G1 X133.156 Y121.978 E40.22326
G1 X132.613 Y122.27 E40.25402
G1 X132.217 Y122.637 E40.28096
G1 X131.978 Y123.045 E40.30455
G1 X131.896 Y123.413 E40.32336
G1 X131.896 Y129.06 E40.60509
G1 X133.53 Y129.06 E40.68661
G1 X133.732 Y129.224 E40.69959
G1 X133.733 Y130.665 E40.77148
G1 X133.639 Y130.824 E40.7807
G1 X133.534 Y130.88 E40.78663
G1 X131.896 Y130.88 E40.86835
G1 X131.896 Y137.448 E41.19603
G1 X131.98 Y137.895 E41.21872
G1 X132.221 Y138.302 E41.24232
G1 X132.617 Y138.667 E41.26919
G1 X133.157 Y138.962 E41.29989
G1 X133.792 Y139.148 E41.3329
G1 X134.119 Y139.184 E41.34931
G1 X134.485 Y139.208 E41.36761
G1 X165.523 Y139.208 E42.91611
G1 X166.215 Y139.143 E42.95078
G0 F3600 X166.406 Y139.088
G0 X166.151 Y138.807
;TYPE:WALL-INNER
G1 F1800 X166.706 Y138.645 E42.97963
G1 X167.181 Y138.387 E43.00659
G1 X167.508 Y138.089 E43.02867
G1 X167.697 Y137.768 E43.04725
G1 X167.756 Y137.492 E43.06133
G1 X167.756 Y131.22 E43.37424
G1 X166.52 Y131.22 E43.43591
G1 X166.331 Y131.19 E43.44545
G1 X166.145 Y131.089 E43.45601
G1 X165.985 Y130.893 E43.46864
G1 X165.92 Y130.697 E43.47894
G1 X165.92 Y129.32 E43.54764
G1 X165.985 Y129.046 E43.56169
G1 X166.145 Y128.85 E43.57431
G1 X166.331 Y128.75 E43.58485
G1 X166.52 Y128.72 E43.59439
G1 X167.756 Y128.72 E43.65606
G1 X167.756 Y123.524 E43.91529
G1 X167.689 Y123.165 E43.93351
G1 X167.506 Y122.851 E43.95164
G1 X167.18 Y122.549 E43.97381
G1 X166.707 Y122.295 E44.00059
G1 X166.137 Y122.127 E44.03024
G1 X165.84 Y122.094 E44.04515
G1 X165.497 Y122.069 E44.06231
G1 X134.485 Y122.068 E45.6095
G1 X133.847 Y122.128 E45.64147
G1 X133.286 Y122.294 E45.67066
G1 X132.812 Y122.548 E45.69749
G1 X132.485 Y122.852 E45.71976
G1 X132.298 Y123.17 E45.73817
G1 X132.236 Y123.45 E45.75248
G1 X132.236 Y128.72 E46.0154
G1 X133.472 Y128.72 E46.07706
G1 X133.661 Y128.75 E46.08661
G1 X133.846 Y128.85 E46.0971
G1 X134.007 Y129.045 E46.10972
G1 X134.072 Y129.318 E46.12372
G1 X134.076 Y130.7 E46.19267
G1 X134.011 Y130.893 E46.20283
G1 X133.85 Y131.09 E46.21552
G1 X133.664 Y131.19 E46.22606
G1 X133.476 Y131.22 E46.23555
G1 X132.236 Y131.22 E46.29742
G1 X132.236 Y137.416 E46.60654
G1 X132.303 Y137.773 E46.62466
G1 X132.488 Y138.086 E46.6428
G1 X132.817 Y138.388 E46.66508
G1 X133.287 Y138.646 E46.69183
G1 X133.859 Y138.813 E46.72156
G1 X134.149 Y138.846 E46.73612
G1 X134.495 Y138.868 E46.75342
G1 X165.507 Y138.868 E48.30061
G1 X166.151 Y138.807 E48.33288
G0 F3600 X166.075 Y138.413
G1 F1800 X166.552 Y138.273 E48.35768
G1 X166.948 Y138.059 E48.38014
G1 X167.194 Y137.835 E48.39674
G1 X167.319 Y137.621 E48.4091
G1 X167.356 Y137.45 E48.41783
G1 X167.356 Y131.62 E48.70869
G1 X166.52 Y131.62 E48.7504
G1 X166.205 Y131.57 E48.76631
G1 X165.895 Y131.402 E48.7839
G1 X165.629 Y131.075 E48.80493
G1 X165.52 Y130.748 E48.82213
G1 X165.52 Y129.32 E48.89337
G1 X165.629 Y128.864 E48.91677
G1 X165.896 Y128.538 E48.93779
G1 X166.205 Y128.37 E48.95534
G1 X166.52 Y128.32 E48.97125
G1 X167.356 Y128.32 E49.01296
G1 X167.356 Y123.561 E49.25038
G1 X167.308 Y123.306 E49.26333
G1 X167.19 Y123.104 E49.275
G1 X166.945 Y122.877 E49.29166
G1 X166.554 Y122.667 E49.31381
G1 X166.058 Y122.52 E49.33962
G1 X165.482 Y122.469 E49.36846
G1 X134.503 Y122.468 E50.91401
G1 X133.923 Y122.523 E50.94308
G1 X133.439 Y122.666 E50.96826
G1 X133.047 Y122.876 E50.99044
G1 X132.8 Y123.106 E51.00728
G1 X132.675 Y123.318 E51.01956
G1 X132.636 Y123.493 E51.02851
G1 X132.636 Y128.32 E51.26933
G1 X133.472 Y128.32 E51.31103
G1 X133.787 Y128.37 E51.32695
G1 X134.095 Y128.537 E51.34443
G1 X134.363 Y128.862 E51.36544
G1 X134.472 Y129.317 E51.38878
G1 X134.476 Y130.75 E51.46028
G1 X134.368 Y131.075 E51.47736
G1 X134.1 Y131.403 E51.4985
G1 X133.789 Y131.57 E51.51611
G1 X133.476 Y131.62 E51.53192
G1 X132.636 Y131.62 E51.57383
G1 X132.636 Y137.379 E51.86115
G1 X132.684 Y137.631 E51.87394
G1 X132.802 Y137.831 E51.88553
G1 X133.051 Y138.061 E51.90244
G1 X133.441 Y138.274 E51.92461
G1 X133.986 Y138.434 E51.95295
