;FLAVOR:Marlin
;TIME:4325
;Filament used: 10.2838m
;Layer height: 0.4
;MINX:88.768
;MINY:129.289
;MINZ:0.3
;MAXX:212.174
;MAXY:170.619
;MAXZ:11.9
;TARGET_MACHINE.NAME:Artillery Sidewinder X1
;Generated with Cura_SteamEngine 5.10.0
M140 S55
M105
M190 S55
M104 S210
M105
M109 S210
G28 ; home all axes
M117 ; Purge extruder
M420 S1 ; enable bed mesh
G92 E0 ; reset extruder
G1 Z1.0 F3000 ; move z up little to prevent scratching of surface
G1 X2 Y20 Z0.3 F5000.0 ; move to start-line position
G1 X2 Y200.0 Z0.3 F1500.0 E15 ; draw 1st line
G1 X2 Y200.0 Z0.4 F5000.0 ; move to side a little
G1 X2 Y20 Z0.4 F1500.0 E30 ; draw 2nd line
G92 E0 ; reset extruder
G1 Z1.0 F3000 ; move z up little to prevent scratching of surface
M82 ;absolute extrusion mode
G92 E0
G92 E0
G1 F1500 E-2
;LAYER_COUNT:30
;LAYER:0
M106 S76.5
;MESH:Bry??a6(1)
G0 F3600 X111.572 Y144.925 Z0.3
;TYPE:WALL-OUTER
G1 F1500 E0
G1 F1800 X111.455 Y144.967 E0.0062
G1 X111.334 Y144.951 E0.01229
G1 X110.696 Y144.645 E0.04759
G1 X110.092 Y144.435 E0.0795
G1 X109.469 Y144.294 E0.11136
G1 X108.83 Y144.224 E0.14343
G1 X108.185 Y144.224 E0.17561
G1 X107.551 Y144.293 E0.20743
G1 X106.924 Y144.435 E0.2395
G1 X106.324 Y144.645 E0.27122
G1 X105.685 Y144.952 E0.30659
G1 X105.564 Y144.967 E0.31267
G1 X105.448 Y144.925 E0.31882
G1 X105.149 Y144.7 E0.33749
G1 X95.479 Y135.02 E1.02012
G1 X95.351 Y134.551 E1.04437
G1 X95.467 Y134.115 E1.06688
G1 X95.773 Y133.815 E1.08826
G1 X96.071 Y133.695 E1.10429
G1 X120.833 Y133.692 E2.33967
G1 X121.235 Y133.803 E2.36047
G1 X121.55 Y134.112 E2.38249
G1 X121.653 Y134.508 E2.4029
G1 X121.625 Y134.799 E2.41749
G1 X121.418 Y135.15 E2.43782
G1 X111.864 Y144.704 E3.1119
G1 X111.572 Y144.925 E3.13017
G0 F3600 X111.455 Y144.967
G0 X111.38 Y144.958
G1 F1500 E1.13017
G0 F3600 X109.402 Y153.862
G1 F1500 E3.13017
G1 F1800 X108.788 Y153.953 E3.16114
G1 X108.198 Y153.951 E3.19058
G1 X107.614 Y153.862 E3.22005
G1 X107.054 Y153.69 E3.24928
G1 X106.51 Y153.43 E3.27936
G1 X106.024 Y153.099 E3.30869
G1 X105.584 Y152.701 E3.33829
G1 X105.182 Y152.195 E3.37053
G1 X104.902 Y151.711 E3.39843
G1 X104.678 Y151.146 E3.42875
G1 X104.54 Y150.531 E3.4602
G1 X104.5 Y149.933 E3.4901
G1 X104.541 Y149.366 E3.51846
G1 X104.67 Y148.786 E3.5481
G1 X104.893 Y148.215 E3.57869
G1 X105.204 Y147.677 E3.60969
G1 X105.583 Y147.208 E3.63977
G1 X105.995 Y146.828 E3.66774
G1 X106.504 Y146.481 E3.69847
G1 X107.058 Y146.215 E3.72913
G1 X107.598 Y146.047 E3.75734
G1 X108.199 Y145.953 E3.78769
G1 X108.792 Y145.951 E3.81728
G1 X109.402 Y146.041 E3.84804
G1 X109.966 Y146.218 E3.87753
G1 X110.498 Y146.473 E3.90696
G1 X111.021 Y146.828 E3.9385
G1 X111.433 Y147.208 E3.96646
G1 X111.834 Y147.71 E3.99852
G1 X112.123 Y148.215 E4.02755
G1 X112.338 Y148.757 E4.05664
G1 X112.476 Y149.377 E4.08832
G1 X112.516 Y149.971 E4.11803
G1 X112.475 Y150.538 E4.14639
G1 X112.335 Y151.155 E4.17795
G1 X112.124 Y151.692 E4.20674
G1 X111.834 Y152.195 E4.2357
G1 X111.432 Y152.701 E4.26795
G1 X110.992 Y153.099 E4.29755
G1 X110.532 Y153.415 E4.32539
G1 X109.953 Y153.693 E4.35743
G1 X109.402 Y153.862 E4.38619
G0 F3600 X109.205 Y153.891
G1 F1500 E2.38619
G0 F3600 X120.979 Y166.209
G1 F1500 E4.38619
G1 F1800 X96.112 Y166.212 E5.62681
G1 X95.985 Y166.18 E5.63334
G1 X95.607 Y165.97 E5.65491
G1 X95.381 Y165.58 E5.6774
G1 X95.381 Y165.136 E5.69955
G1 X95.502 Y164.86 E5.71459
G1 X105.178 Y155.181 E6.39739
G1 X105.54 Y154.946 E6.41892
G1 X105.702 Y154.962 E6.42704
G1 X106.32 Y155.259 E6.46125
G1 X106.924 Y155.469 E6.49315
G1 X107.552 Y155.61 E6.52526
G1 X108.187 Y155.684 E6.55716
G1 X108.829 Y155.684 E6.58919
G1 X109.468 Y155.611 E6.62127
G1 X110.092 Y155.469 E6.6532
G1 X110.696 Y155.259 E6.6851
G1 X111.314 Y154.962 E6.71931
G1 X111.476 Y154.946 E6.72743
G1 X111.853 Y155.195 E6.74997
G1 X121.534 Y164.875 E7.43299
G1 X121.661 Y165.329 E7.45651
G1 X121.627 Y165.595 E7.46988
G1 X121.409 Y165.97 E7.49153
G1 X120.979 Y166.209 E7.51607
G0 F3600 X120.779 Y166.209
G1 F1500 E5.51607
G0 F3600 X124.53 Y162.841
G1 F1500 E7.51607
G1 F1800 X124.148 Y163.074 E7.53839
G1 X123.702 Y163.076 E7.56064
G1 X123.417 Y162.958 E7.57603
G1 X113.778 Y153.331 E8.25569
G1 X113.513 Y152.99 E8.27724
G1 X113.507 Y152.782 E8.28762
G1 X113.811 Y152.14 E8.32306
G1 X114.025 Y151.535 E8.35508
G1 X114.167 Y150.908 E8.38715
G1 X114.24 Y150.273 E8.41904
G1 X114.24 Y149.631 E8.45107
G1 X114.167 Y149.001 E8.48271
G1 X114.025 Y148.372 E8.51488
G1 X113.811 Y147.76 E8.54722
G1 X113.496 Y147.105 E8.58349
G1 X113.525 Y146.957 E8.59101
G1 X113.76 Y146.6 E8.61233
G1 X123.421 Y136.94 E9.29393
G1 X123.707 Y136.824 E9.30933
G1 X124.124 Y136.83 E9.33014
G1 X124.392 Y136.96 E9.345
G1 X124.612 Y137.18 E9.36052
G1 X124.768 Y137.48 E9.37739
G1 X124.765 Y162.438 E10.62255
G1 X124.53 Y162.841 E10.64582
G0 F3600 X124.36 Y162.945
G1 F1500 E8.64582
G0 F3600 X127.171 Y169.558
G1 F1500 E10.64582
G1 F1800 X127.47 Y169.398 E10.66274
G1 X127.739 Y169.178 E10.68008
G1 X127.95 Y168.922 E10.69663
G1 X128.114 Y168.615 E10.714
G1 X128.215 Y168.289 E10.73102
G1 X128.248 Y167.943 E10.74836
G1 X128.248 Y131.961 E12.54351
G1 X128.215 Y131.616 E12.5608
G1 X128.115 Y131.293 E12.57767
G1 X127.95 Y130.981 E12.59528
G1 X127.739 Y130.726 E12.61179
G1 X127.474 Y130.51 E12.62885
G1 X127.171 Y130.346 E12.64604
G1 X126.845 Y130.249 E12.66301
G1 X126.498 Y130.212 E12.68042
G1 X90.518 Y130.212 E14.47547
G1 X90.172 Y130.248 E14.49282
G1 X89.844 Y130.346 E14.5099
G1 X89.539 Y130.509 E14.52715
G1 X89.281 Y130.725 E14.54394
G1 X89.065 Y130.983 E14.56073
G1 X88.902 Y131.289 E14.57802
G1 X88.801 Y131.615 E14.59505
G1 X88.768 Y131.961 E14.61239
G1 X88.769 Y167.943 E16.40754
G1 X88.801 Y168.289 E16.42488
G1 X88.901 Y168.614 E16.44184
G1 X89.066 Y168.918 E16.4591
G1 X89.281 Y169.183 E16.47612
G1 X89.546 Y169.399 E16.49318
G1 X89.841 Y169.558 E16.5099
G1 X90.175 Y169.659 E16.52731
G1 X90.517 Y169.691 E16.54444
G1 X126.499 Y169.692 E18.33959
G1 X126.844 Y169.659 E18.35688
G1 X127.171 Y169.558 E18.37396
G0 F3600 X127.347 Y169.464
G1 F1500 E16.37396
G0 F3600 X93.598 Y162.97
G1 F1500 E18.37396
G1 F1800 X93.109 Y163.109 E18.39932
G1 X92.675 Y162.995 E18.42171
G1 X92.363 Y162.683 E18.44372
G1 X92.251 Y162.393 E18.45923
G1 X92.248 Y137.556 E19.69835
G1 X92.28 Y137.429 E19.70489
G1 X92.49 Y137.051 E19.72646
G1 X92.88 Y136.825 E19.74895
G1 X93.314 Y136.828 E19.7706
G1 X93.599 Y136.946 E19.78599
G1 X103.259 Y146.6 E20.46735
G1 X103.491 Y146.957 E20.48859
G1 X103.521 Y147.103 E20.49602
G1 X103.201 Y147.768 E20.53284
G1 X102.991 Y148.368 E20.56456
G1 X102.849 Y148.996 E20.59668
G1 X102.776 Y149.631 E20.62857
G1 X102.776 Y150.273 E20.6606
G1 X102.849 Y150.908 E20.69249
G1 X102.991 Y151.536 E20.72461
G1 X103.201 Y152.14 E20.75651
G1 X103.497 Y152.758 E20.7907
G1 X103.492 Y152.95 E20.80028
G1 X103.278 Y153.283 E20.82003
G1 X93.598 Y162.97 E21.50325
G0 F3600 X93.406 Y163.024
G0 X93.69 Y163.295
;TYPE:WALL-INNER
G1 F1800 X93.195 Y163.441 E21.529
G1 X93.006 Y163.432 E21.53844
G1 X92.497 Y163.299 E21.56468
G1 X92.163 Y162.965 E21.58825
G1 X92.034 Y162.771 E21.59987
G1 X91.908 Y162.425 E21.61824
G1 X91.908 Y137.556 E22.85896
G1 X91.983 Y137.264 E22.874
G1 X92.238 Y136.804 E22.90024
G1 X92.792 Y136.483 E22.93219
G1 X93.399 Y136.486 E22.96247
G1 X93.818 Y136.676 E22.98542
G1 X103.519 Y146.38 E23.66999
G1 X103.799 Y146.799 E23.69513
G1 X103.853 Y147.072 E23.70901
G1 X103.793 Y147.32 E23.72174
G1 X103.516 Y147.898 E23.75372
G1 X103.319 Y148.462 E23.78353
G1 X103.186 Y149.053 E23.81375
G1 X103.116 Y149.65 E23.84374
G1 X103.116 Y150.254 E23.87387
G1 X103.185 Y150.851 E23.90385
G1 X103.319 Y151.442 E23.93409
G1 X103.516 Y152.01 E23.96408
G1 X103.817 Y152.64 E23.99891
G1 X103.852 Y152.831 E24.0086
G1 X103.8 Y153.107 E24.02261
G1 X103.528 Y153.522 E24.04737
G1 X93.846 Y163.2 E24.73035
G1 X93.69 Y163.295 E24.73946
G1 F1500 E22.73946
G0 F3600 X95.232 Y164.645
G1 F1500 E24.73946
G1 F1800 X104.939 Y154.931 E25.42459
G1 X105.289 Y154.704 E25.4454
G1 X105.536 Y154.613 E25.45853
G1 X105.814 Y154.641 E25.47247
G1 X106.451 Y154.945 E25.50768
G1 X107.018 Y155.142 E25.53763
G1 X107.609 Y155.274 E25.56784
G1 X108.207 Y155.344 E25.59788
G1 X108.809 Y155.344 E25.62791
G1 X109.411 Y155.275 E25.65815
G1 X109.998 Y155.142 E25.68817
G1 X110.565 Y154.945 E25.71812
G1 X111.202 Y154.641 E25.75333
G1 X111.48 Y154.613 E25.76727
G1 X111.73 Y154.706 E25.78058
G1 X112.062 Y154.927 E25.80048
G1 X121.763 Y164.624 E26.4848
G1 X121.857 Y164.777 E26.49375
G1 X122.005 Y165.314 E26.52154
G1 X121.952 Y165.711 E26.54153
G1 X121.656 Y166.222 E26.57099
G1 X121.196 Y166.477 E26.59723
G1 X120.986 Y166.552 E26.60835
G1 X96.112 Y166.552 E27.84932
G1 X95.82 Y166.477 E27.86436
G1 X95.36 Y166.222 E27.8906
G1 X95.039 Y165.668 E27.92255
G1 X95.043 Y165.059 E27.95293
G1 X95.232 Y164.645 E27.97563
G1 F1500 E25.97563
G0 F3600 X90.533 Y169.351
G1 F1500 E27.97563
G1 F1800 X126.483 Y169.352 E29.76919
G1 X126.778 Y169.324 E29.78397
G1 X127.039 Y169.243 E29.79761
G1 X127.281 Y169.114 E29.81129
G1 X127.498 Y168.936 E29.82529
G1 X127.666 Y168.732 E29.83847
G1 X127.799 Y168.484 E29.85251
G1 X127.88 Y168.222 E29.8662
G1 X127.908 Y167.927 E29.88098
G1 X127.908 Y131.977 E31.67453
G1 X127.88 Y131.683 E31.68927
G1 X127.799 Y131.424 E31.7028
G1 X127.666 Y131.171 E31.71706
G1 X127.498 Y130.968 E31.73021
G1 X127.284 Y130.793 E31.744
G1 X127.041 Y130.662 E31.75778
G1 X126.778 Y130.583 E31.77148
G1 X126.48 Y130.552 E31.78642
G1 X90.536 Y130.552 E33.57968
G1 X90.238 Y130.583 E33.59462
G1 X89.974 Y130.662 E33.60837
G1 X89.73 Y130.792 E33.62217
G1 X89.522 Y130.966 E33.6357
G1 X89.348 Y131.174 E33.64922
G1 X89.217 Y131.42 E33.66313
G1 X89.136 Y131.682 E33.67681
G1 X89.108 Y131.977 E33.69159
G1 X89.109 Y167.927 E35.48515
G1 X89.136 Y168.222 E35.49993
G1 X89.216 Y168.482 E35.5135
G1 X89.35 Y168.729 E35.52752
G1 X89.523 Y168.941 E35.54117
G1 X89.736 Y169.115 E35.55489
G1 X89.972 Y169.243 E35.56828
G1 X90.241 Y169.324 E35.5823
G1 X90.533 Y169.351 E35.59693
G0 F3600 X90.551 Y168.951
G1 F1800 X126.644 Y168.952 E37.39762
G1 X127.058 Y168.78 E37.41998
G1 X127.332 Y168.508 E37.43925
G1 X127.508 Y168.089 E37.46192
G1 X127.508 Y131.814 E39.27169
G1 X127.331 Y131.394 E39.29442
G1 X127.061 Y131.127 E39.31337
G1 X126.887 Y131.033 E39.32324
G1 X126.46 Y130.952 E39.34492
G1 X90.378 Y130.952 E41.14506
G1 X89.955 Y131.126 E41.16788
G1 X89.682 Y131.399 E41.18714
G1 X89.508 Y131.815 E41.20963
G1 X89.509 Y168.075 E43.01865
G1 X89.587 Y168.327 E43.03181
G1 X89.808 Y168.656 E43.05159
G1 X90.127 Y168.872 E43.07081
G1 X90.551 Y168.951 E43.09233
G0 F3600 X90.434 Y168.551
G1 F1800 X126.58 Y168.552 E44.89566
G1 X126.835 Y168.446 E44.90943
G1 X126.998 Y168.284 E44.9209
G1 X127.108 Y168.025 E44.93494
G1 X127.108 Y131.878 E46.73832
G1 X126.996 Y131.617 E46.75249
G1 X126.837 Y131.461 E46.7636
G1 X126.575 Y131.352 E46.77776
G1 X90.441 Y131.352 E48.58049
G1 X90.18 Y131.459 E48.59456
G1 X90.015 Y131.624 E48.60621
G1 X89.908 Y131.88 E48.62005
G1 X89.909 Y168.03 E50.42358
G1 X90.018 Y168.282 E50.43728
G1 X90.183 Y168.447 E50.44892
G1 X90.434 Y168.551 E50.46247
G1 F1500 E48.46247
G0 F3600 X105.318 Y152.918
G1 F1500 E50.46247
G1 F1800 X104.888 Y152.365 E50.49742
G1 X104.569 Y151.8 E50.52979
G1 X104.357 Y151.258 E50.55883
G1 X104.203 Y150.581 E50.59347
G1 X104.16 Y149.952 E50.62492
G1 X104.203 Y149.327 E50.65618
G1 X104.357 Y148.645 E50.69106
G1 X104.586 Y148.068 E50.72203
G1 X104.887 Y147.541 E50.75231
G1 X105.319 Y146.99 E50.78724
G1 X105.765 Y146.578 E50.81753
G1 X106.338 Y146.184 E50.85222
G1 X106.937 Y145.897 E50.88536
G1 X107.543 Y145.71 E50.917
G1 X108.163 Y145.615 E50.94829
G1 X108.857 Y145.615 E50.98292
G1 X109.477 Y145.709 E51.0142
G1 X110.078 Y145.897 E51.04562
G1 X110.707 Y146.201 E51.08047
G1 X111.181 Y146.523 E51.10906
G1 X111.663 Y146.958 E51.14145
G1 X112.109 Y147.505 E51.17667
G1 X112.429 Y148.068 E51.20897
G1 X112.659 Y148.645 E51.23996
G1 X112.802 Y149.264 E51.27166
G1 X112.855 Y149.908 E51.3039
G1 X112.813 Y150.596 E51.33829
G1 X112.659 Y151.261 E51.37234
G1 X112.432 Y151.838 E51.40327
G1 X112.079 Y152.437 E51.43796
G1 X111.661 Y152.952 E51.47105
G1 X111.184 Y153.379 E51.50299
G1 X110.665 Y153.731 E51.53428
G1 X110.054 Y154.018 E51.56796
G1 X109.478 Y154.194 E51.59801
G1 X108.856 Y154.289 E51.6294
G1 X108.16 Y154.289 E51.66412
G1 X107.54 Y154.194 E51.69541
G1 X106.942 Y154.011 E51.72661
G1 X106.351 Y153.731 E51.75924
G1 X105.767 Y153.328 E51.79464
G1 X105.318 Y152.918 E51.82498
G0 F3600 X105.029 Y153.196
G1 F1773.4 X104.621 Y152.688 E51.85797
G1 F1330.9 X104.321 Y152.455 E51.8836
G1 X104.256 Y152.82 E51.90862
G1 F1782.2 X104.166 Y153.279 E51.93219
G1 F1800 X103.838 Y153.778 E51.96198
G1 X94.103 Y163.507 E52.64862
G1 X93.81 Y163.682 E52.66565
G1 X93.275 Y163.827 E52.6933
G1 X92.938 Y163.826 E52.71012
G1 X92.393 Y163.687 E52.73818
G1 X92.1 Y163.468 E52.75643
G1 X91.88 Y163.248 E52.77195
G1 X91.664 Y162.925 E52.79134
G1 X91.508 Y162.481 E52.81481
G1 X91.508 Y137.556 E54.05833
G1 X91.634 Y137.069 E54.08342
G1 X91.81 Y136.753 E54.10147
G1 X91.98 Y136.529 E54.1155
G1 X92.18 Y136.375 E54.12809
G1 X92.448 Y136.219 E54.14356
G1 X92.791 Y136.082 E54.16199
G1 X93.353 Y136.088 E54.19003
G1 X93.63 Y136.153 E54.20423
G1 X94.063 Y136.355 E54.22806
G1 X103.83 Y146.122 E54.91718
G1 X104.162 Y146.622 E54.94712
G1 X104.253 Y147.08 E54.97042
G1 F1355.9 X104.271 Y147.549 E55.0015
G1 F1208.1 X104.586 Y147.266 E55.03298
G1 F1445.8 X105.028 Y146.714 E55.0769
G1 F1666.7 X105.494 Y146.284 E55.11107
G1 F1800 X105.61 Y146.192 E55.11845
G1 F1355.9 X106.026 Y145.753 E55.15851
G1 F1208.1 X105.376 Y145.693 E55.20703
G1 F1545.1 X105.038 Y145.542 E55.22855
G1 F1800 X104.674 Y145.268 E55.25128
G1 X94.911 Y135.507 E55.94004
G1 X94.769 Y135.241 E55.95509
G1 X94.632 Y134.713 E55.9823
G1 X94.634 Y134.382 E55.99881
G1 X94.774 Y133.833 E56.02708
G1 X94.999 Y133.538 E56.04559
G1 X95.219 Y133.322 E56.06097
G1 X95.526 Y133.116 E56.07942
G1 X95.982 Y132.952 E56.10359
G1 X120.796 Y132.952 E57.34157
G1 X121.063 Y132.987 E57.355
G1 X121.367 Y133.072 E57.37075
G1 X121.801 Y133.322 E57.39574
G1 X122.017 Y133.534 E57.41084
G1 X122.244 Y133.834 E57.42961
G1 X122.382 Y134.384 E57.4579
G1 X122.394 Y134.624 E57.46989
G1 X122.332 Y135.05 E57.49136
G1 X122.028 Y135.583 E57.52198
G1 X112.34 Y145.27 E58.20548
G1 X111.98 Y145.542 E58.22799
G1 F1545.1 X111.641 Y145.694 E58.24959
G1 F1204 X110.992 Y145.753 E58.29819
G1 F1353.4 X111.406 Y146.191 E58.33818
G1 F1800 X111.522 Y146.285 E58.34563
G1 F1666.7 X111.988 Y146.713 E58.37972
G1 F1445.8 X112.426 Y147.261 E58.4233
G1 F1208.1 X112.745 Y147.549 E58.45525
G1 F1355.9 X112.764 Y147.08 E58.48633
G1 F1800 X112.854 Y146.62 E58.50972
G1 X113.191 Y146.121 E58.53976
G1 X122.95 Y136.359 E59.22841
G1 X123.168 Y136.239 E59.24083
G1 X123.593 Y136.084 E59.2634
G1 X124.241 Y136.091 E59.29573
G1 X124.593 Y136.22 E59.31443
G1 X124.916 Y136.436 E59.33382
G1 X125.136 Y136.656 E59.34934
G1 X125.403 Y137.046 E59.37292
G1 X125.508 Y137.544 E59.39831
G1 X125.508 Y162.495 E60.64312
G1 X125.374 Y162.861 E60.66257
G1 X125.198 Y163.166 E60.68014
G1 X124.982 Y163.445 E60.69774
G1 X124.567 Y163.685 E60.72166
G1 X124.233 Y163.818 E60.73959
G1 X123.662 Y163.816 E60.76808
G1 X123.386 Y163.751 E60.78223
G1 X122.954 Y163.55 E60.806
G1 X113.25 Y153.849 E61.49056
G1 X112.912 Y153.424 E61.51765
G1 X112.823 Y153.244 E61.52767
G1 F1734.9 X112.738 Y152.82 E61.55005
G1 F1297.3 X112.682 Y152.48 E61.57391
G1 X112.404 Y152.695 E61.59823
G1 F1706.2 X111.978 Y153.205 E61.63321
G1 F1764.7 X111.518 Y153.623 E61.66484
G1 F1800 X111.411 Y153.709 E61.67169
G1 F1345.8 X111.027 Y154.136 E61.71001
G1 X111.667 Y154.243 E61.75331
G1 F1800 X111.95 Y154.372 E61.76882
