;FLAVOR:Marlin
;TIME:2906
;Filament used: 4.87503m
;Layer height: 0.4
;MINX:94.796
;MINY:119.654
;MINZ:0.3
;MAXX:206.055
;MAXY:169.084
;MAXZ:5.9
;TARGET_MACHINE.NAME:Artillery Sidewinder X1
;Generated with Cura_SteamEngine 5.10.0
M140 S55
M105
M190 S55
M104 S210
M105
M109 S210
G28 ; home all axes
M117 ; Purge extruder
M420 S1 ; enable bed mesh
G92 E0 ; reset extruder
G1 Z1.0 F3000 ; move z up little to prevent scratching of surface
G1 X2 Y20 Z0.3 F5000.0 ; move to start-line position
G1 X2 Y200.0 Z0.3 F1500.0 E15 ; draw 1st line
G1 X2 Y200.0 Z0.4 F5000.0 ; move to side a little
G1 X2 Y20 Z0.4 F1500.0 E30 ; draw 2nd line
G92 E0 ; reset extruder
G1 Z1.0 F3000 ; move z up little to prevent scratching of surface
M82 ;absolute extrusion mode
G92 E0
G92 E0
G1 F1500 E-2
;LAYER_COUNT:15
;LAYER:0
M106 S76.5
;MESH:Bry??a7(2)
G0 F3600 X107.639 Y131.41 Z0.3
;TYPE:WALL-OUTER
G1 F1500 E0
G1 F1800 X107.062 Y131.519 E0.0293
G1 X106.461 Y131.543 E0.0593
G1 X105.925 Y131.479 E0.08623
G1 X105.337 Y131.318 E0.11665
G1 X104.837 Y131.094 E0.14398
G1 X104.364 Y130.789 E0.17206
G1 X103.931 Y130.408 E0.20084
G1 X103.54 Y129.93 E0.23165
G1 X103.258 Y129.455 E0.25921
G1 X103.036 Y128.908 E0.28866
G1 X102.908 Y128.34 E0.31771
G1 X102.868 Y127.764 E0.34651
G1 X102.914 Y127.189 E0.37529
G1 X103.034 Y126.673 E0.40172
G1 X103.268 Y126.098 E0.43269
G1 X103.547 Y125.631 E0.45983
G1 X103.936 Y125.156 E0.49046
G1 X104.339 Y124.802 E0.51722
G1 X104.849 Y124.474 E0.54748
G1 X105.337 Y124.254 E0.57418
G1 X105.925 Y124.093 E0.6046
G1 X106.461 Y124.029 E0.63153
G1 X107.082 Y124.052 E0.66253
G1 X107.614 Y124.155 E0.68957
G1 X108.164 Y124.353 E0.71873
G1 X108.67 Y124.627 E0.74744
G1 X109.128 Y124.975 E0.77614
G1 X109.542 Y125.41 E0.8061
G1 X109.858 Y125.863 E0.83365
G1 X110.111 Y126.372 E0.86201
G1 X110.294 Y126.952 E0.89235
G1 X110.377 Y127.501 E0.92005
G1 X110.374 Y128.096 E0.94974
G1 X110.291 Y128.635 E0.97695
G1 X110.115 Y129.19 E1.00599
G1 X109.849 Y129.727 E1.03589
G1 X109.541 Y130.163 E1.06252
G1 X109.123 Y130.597 E1.09258
G1 X108.683 Y130.933 E1.12021
G1 X108.183 Y131.21 E1.14872
G1 X107.639 Y131.41 E1.17764
G0 F3600 X107.443 Y131.447
G1 F1500 E-0.82236
G0 F3600 X118.386 Y129.956
G1 F1500 E1.17764
G1 F1800 X117.866 Y130.056 E1.20406
G1 X117.247 Y130.079 E1.23496
G1 X116.671 Y130.011 E1.2639
G1 X116.15 Y129.869 E1.29084
G1 X115.609 Y129.628 E1.32039
G1 X115.133 Y129.319 E1.3487
G1 X114.704 Y128.933 E1.37749
G1 X114.337 Y128.49 E1.40619
G1 X114.034 Y127.978 E1.43587
G1 X113.826 Y127.463 E1.46358
G1 X113.694 Y126.9 E1.49243
G1 X113.652 Y126.304 E1.52224
G1 X113.698 Y125.729 E1.55102
G1 X113.822 Y125.198 E1.57822
G1 X114.052 Y124.634 E1.60861
G1 X114.346 Y124.147 E1.63699
G1 X114.699 Y123.717 E1.66475
G1 X115.117 Y123.347 E1.6926
G1 X115.619 Y123.019 E1.72251
G1 X116.164 Y122.776 E1.75228
G1 X116.709 Y122.633 E1.78039
G1 X117.245 Y122.569 E1.80733
G1 X117.835 Y122.588 E1.83678
G1 X118.395 Y122.694 E1.86521
G1 X118.933 Y122.887 E1.89373
G1 X119.44 Y123.159 E1.92243
G1 X119.91 Y123.518 E1.95194
G1 X120.325 Y123.949 E1.98179
G1 X120.648 Y124.408 E2.00979
G1 X120.89 Y124.896 E2.03696
G1 X121.078 Y125.492 E2.06814
G1 X121.158 Y126.023 E2.09493
G1 X121.16 Y126.612 E2.12432
G1 X121.076 Y127.169 E2.15242
G1 X120.89 Y127.752 E2.18295
G1 X120.633 Y128.262 E2.21145
G1 X120.325 Y128.699 E2.23812
G1 X119.906 Y129.138 E2.26839
G1 X119.44 Y129.489 E2.2975
G1 X118.933 Y129.761 E2.32621
G1 X118.386 Y129.956 E2.35518
G0 F3600 X118.19 Y129.993
G1 F1500 E0.35518
G0 F3600 X126.272 Y137.474
G1 F1500 E2.35518
G1 F1800 X125.711 Y137.579 E2.38365
G1 X125.134 Y137.6 E2.41246
G1 X124.559 Y137.536 E2.44132
G1 X124.01 Y137.386 E2.46972
G1 X123.483 Y137.151 E2.4985
G1 X122.998 Y136.839 E2.52727
G1 X122.567 Y136.452 E2.55617
G1 X122.207 Y136.016 E2.58438
G1 X121.904 Y135.507 E2.61393
G1 X121.685 Y134.972 E2.64278
G1 X121.556 Y134.4 E2.67203
G1 X121.516 Y133.824 E2.70084
G1 X121.562 Y133.249 E2.72961
G1 X121.682 Y132.733 E2.75604
G1 X121.916 Y132.163 E2.78678
G1 X122.214 Y131.667 E2.81565
G1 X122.554 Y131.251 E2.84246
G1 X122.983 Y130.865 E2.87125
G1 X123.497 Y130.534 E2.90175
G1 X123.989 Y130.314 E2.92864
G1 X124.577 Y130.153 E2.95905
G1 X125.121 Y130.088 E2.98639
G1 X125.704 Y130.108 E3.01549
G1 X126.25 Y130.212 E3.04322
G1 X126.8 Y130.407 E3.07233
G1 X127.333 Y130.7 E3.10268
G1 X127.762 Y131.024 E3.1295
G1 X128.189 Y131.469 E3.16027
G1 X128.517 Y131.94 E3.1889
G1 X128.773 Y132.461 E3.21786
G1 X128.936 Y132.976 E3.24481
G1 X129.025 Y133.535 E3.27305
G1 X129.025 Y134.158 E3.30413
G1 X128.932 Y134.719 E3.3325
G1 X128.767 Y135.239 E3.35972
G1 X128.498 Y135.782 E3.38995
G1 X128.19 Y136.222 E3.41675
G1 X127.777 Y136.655 E3.4466
G1 X127.302 Y137.012 E3.47625
G1 X126.823 Y137.276 E3.50353
G1 X126.272 Y137.474 E3.53274
G0 F3600 X126.076 Y137.51
G1 F1500 E1.53274
G0 F3600 X125.274 Y148.316
G1 F1500 E3.53274
G1 F1800 X124.754 Y148.416 E3.55916
G1 X124.139 Y148.439 E3.58987
G1 X123.563 Y148.371 E3.6188
G1 X123.036 Y148.227 E3.64606
G1 X122.496 Y147.981 E3.67566
G1 X122.012 Y147.671 E3.70434
G1 X121.582 Y147.281 E3.7333
G1 X121.216 Y146.83 E3.76228
G1 X120.922 Y146.334 E3.79104
G1 X120.722 Y145.838 E3.81773
G1 X120.58 Y145.24 E3.84839
G1 X120.54 Y144.664 E3.8772
G1 X120.582 Y144.111 E3.90486
G1 X120.722 Y143.53 E3.93468
G1 X120.936 Y143.005 E3.96297
G1 X121.229 Y142.518 E3.99132
G1 X121.582 Y142.087 E4.01911
G1 X122.013 Y141.696 E4.04815
G1 X122.498 Y141.382 E4.07697
G1 X123.028 Y141.144 E4.10596
G1 X123.581 Y140.992 E4.13457
G1 X124.156 Y140.928 E4.16343
G1 X124.734 Y140.949 E4.19229
G1 X125.274 Y141.052 E4.21972
G1 X125.838 Y141.252 E4.24957
G1 X126.346 Y141.527 E4.27839
G1 X126.795 Y141.868 E4.30652
G1 X127.205 Y142.294 E4.33602
G1 X127.541 Y142.774 E4.36525
G1 X127.782 Y143.26 E4.39231
G1 X127.966 Y143.847 E4.423
G1 X128.05 Y144.375 E4.44968
G1 X128.05 Y144.993 E4.48051
G1 X127.963 Y145.534 E4.50785
G1 X127.797 Y146.07 E4.53584
G1 X127.521 Y146.626 E4.56681
G1 X127.204 Y147.076 E4.59427
G1 X126.812 Y147.485 E4.62253
G1 X126.346 Y147.842 E4.65182
G1 X125.861 Y148.105 E4.67935
G1 X125.274 Y148.316 E4.71047
G0 F3600 X125.078 Y148.353
G1 F1500 E2.71047
G0 F3600 X118.466 Y156.334
G1 F1500 E4.71047
G1 F1800 X119.044 Y156.162 E4.74055
G1 X119.647 Y155.966 E4.77219
G1 X120.173 Y155.776 E4.80009
G1 X120.497 Y155.614 E4.81816
G1 X120.772 Y155.401 E4.83551
G1 X120.987 Y155.155 E4.85181
G1 X121.167 Y154.847 E4.86961
G1 X121.5 Y154.197 E4.90605
G1 X121.925 Y153.548 E4.94475
G1 X122.4 Y152.963 E4.98235
G1 X122.928 Y152.441 E5.01939
G1 X123.492 Y151.985 E5.05557
G1 X124.125 Y151.57 E5.09334
G1 X124.808 Y151.221 E5.1316
G1 X125.523 Y150.949 E5.16977
G1 X126.234 Y150.755 E5.20654
G1 X126.952 Y150.64 E5.24281
G1 X127.3 Y150.567 E5.26055
G1 X127.621 Y150.427 E5.27802
G1 X127.892 Y150.243 E5.29437
G1 X128.156 Y149.976 E5.3131
G1 X128.574 Y149.437 E5.34713
G1 X129.22 Y148.506 E5.40366
G1 X129.373 Y148.206 E5.42046
G1 X129.471 Y147.878 E5.43754
G1 X129.502 Y147.547 E5.45413
G1 X129.459 Y147.182 E5.47247
G1 X129.354 Y146.479 E5.50793
G1 X129.312 Y145.719 E5.5459
G1 X129.355 Y144.95 E5.58433
G1 X129.476 Y144.209 E5.62179
G1 X129.673 Y143.474 E5.65975
G1 X129.94 Y142.781 E5.6968
G1 X130.275 Y142.128 E5.73342
G1 X130.677 Y141.503 E5.77049
G1 X131.167 Y140.892 E5.80956
G1 X131.675 Y140.38 E5.84555
G1 X131.91 Y140.123 E5.86292
G1 X132.091 Y139.824 E5.88036
G1 X132.202 Y139.509 E5.89702
G1 X132.252 Y139.164 E5.91441
G1 X132.272 Y138.583 E5.94342
G1 X132.272 Y137.979 E5.97355
G1 X132.252 Y137.339 E6.0055
G1 X132.202 Y136.996 E6.02279
G1 X132.088 Y136.68 E6.03955
G1 X131.91 Y136.38 E6.05695
G1 X131.646 Y136.094 E6.07637
G1 X131.16 Y135.605 E6.11077
G1 X130.693 Y135.023 E6.14799
G1 X130.271 Y134.37 E6.18678
G1 X129.929 Y133.691 E6.22471
G1 X129.664 Y133.003 E6.2615
G1 X129.471 Y132.27 E6.29931
G1 X129.352 Y131.527 E6.33685
G1 X129.312 Y130.785 E6.37393
G1 X129.354 Y130.025 E6.4119
G1 X129.462 Y129.313 E6.44783
G1 X129.502 Y128.957 E6.4657
G1 X129.471 Y128.622 E6.48249
G1 X129.377 Y128.302 E6.49912
G1 X129.212 Y127.986 E6.51691
G1 X128.875 Y127.486 E6.54699
G1 X128.495 Y126.968 E6.57904
G1 X128.147 Y126.516 E6.6075
G1 X127.901 Y126.266 E6.625
G1 X127.622 Y126.078 E6.64179
G1 X127.296 Y125.938 E6.65949
G1 X126.876 Y125.848 E6.68092
G1 X126.216 Y125.744 E6.71425
G1 X125.508 Y125.553 E6.75083
G1 X124.779 Y125.27 E6.78985
G1 X124.148 Y124.944 E6.82528
G1 X123.496 Y124.523 E6.864
G1 X122.928 Y124.063 E6.90047
G1 X122.378 Y123.513 E6.93927
G1 X121.915 Y122.943 E6.97591
G1 X121.505 Y122.315 E7.01333
G1 X121.167 Y121.657 E7.05023
G1 X120.988 Y121.349 E7.06801
G1 X120.768 Y121.098 E7.08466
G1 X120.5 Y120.89 E7.10158
G1 X120.177 Y120.728 E7.11961
G1 X119.621 Y120.529 E7.14907
G1 X119.027 Y120.337 E7.18022
G1 X118.469 Y120.174 E7.20922
G1 X118.104 Y120.113 E7.22768
G1 X117.769 Y120.12 E7.2444
G1 X117.44 Y120.196 E7.26124
G1 X117.097 Y120.351 E7.28002
G1 X116.442 Y120.679 E7.31657
G1 X115.747 Y120.944 E7.35368
G1 X115.013 Y121.137 E7.39154
G1 X114.305 Y121.249 E7.4273
G1 X113.523 Y121.288 E7.46637
G1 X112.79 Y121.252 E7.50298
G1 X112.024 Y121.13 E7.54168
G1 X111.298 Y120.935 E7.57918
G1 X110.628 Y120.679 E7.61497
G1 X109.968 Y120.347 E7.65182
G1 X109.632 Y120.196 E7.6702
G1 X109.299 Y120.12 E7.68724
G1 X108.964 Y120.113 E7.70396
G1 X108.603 Y120.174 E7.72223
G1 X108.041 Y120.337 E7.75142
G1 X107.427 Y120.538 E7.78365
G1 X106.891 Y120.728 E7.81202
G1 X106.572 Y120.889 E7.82985
G1 X106.306 Y121.096 E7.84667
G1 X106.077 Y121.353 E7.86384
G1 X105.897 Y121.668 E7.88194
G1 X105.565 Y122.32 E7.91844
G1 X105.144 Y122.96 E7.95666
G1 X104.676 Y123.533 E7.99357
G1 X104.137 Y124.067 E8.03142
G1 X103.554 Y124.539 E8.06885
G1 X102.952 Y124.928 E8.10461
G1 X102.275 Y125.276 E8.14258
G1 X101.545 Y125.555 E8.18157
G1 X100.833 Y125.749 E8.21839
G1 X100.113 Y125.864 E8.25477
G1 X99.776 Y125.937 E8.27197
G1 X99.45 Y126.078 E8.28969
G1 X99.171 Y126.265 E8.30645
G1 X98.925 Y126.516 E8.32398
G1 X98.552 Y126.997 E8.35435
G1 X98.142 Y127.557 E8.38897
G1 X97.853 Y127.997 E8.41524
G1 X97.695 Y128.298 E8.4322
G1 X97.601 Y128.621 E8.44898
G1 X97.57 Y128.957 E8.46581
G1 X97.606 Y129.294 E8.48272
G1 X97.719 Y130.032 E8.51997
G1 X97.756 Y130.807 E8.55868
G1 X97.716 Y131.535 E8.59505
G1 X97.601 Y132.269 E8.63212
G1 X97.404 Y133.005 E8.67013
G1 X97.133 Y133.714 E8.708
G1 X96.792 Y134.386 E8.7456
G1 X96.379 Y135.024 E8.78351
G1 X95.905 Y135.613 E8.82123
G1 X95.393 Y136.124 E8.85732
G1 X95.162 Y136.38 E8.87452
G1 X94.981 Y136.68 E8.892
G1 X94.87 Y136.995 E8.90867
G1 X94.82 Y137.34 E8.92606
G1 X94.8 Y137.938 E8.95591
G1 X94.797 Y138.607 E8.98929
G1 X94.82 Y139.164 E9.0171
G1 X94.87 Y139.509 E9.03449
G1 X94.981 Y139.824 E9.05115
G1 X95.162 Y140.124 E9.06863
G1 X95.381 Y140.369 E9.08503
G1 X95.904 Y140.892 E9.12193
G1 X96.385 Y141.488 E9.16014
G1 X96.788 Y142.112 E9.1972
G1 X97.139 Y142.806 E9.236
G1 X97.404 Y143.499 E9.27301
G1 X97.596 Y144.207 E9.30961
G1 X97.716 Y144.969 E9.3481
G1 X97.756 Y145.725 E9.38587
G1 X97.719 Y146.466 E9.42288
G1 X97.606 Y147.19 E9.45944
G1 X97.57 Y147.546 E9.47729
G1 X97.601 Y147.883 E9.49417
G1 X97.695 Y148.206 E9.51096
G1 X97.852 Y148.506 E9.52785
G1 X98.193 Y149.008 E9.55813
G1 X98.51 Y149.445 E9.58506
G1 X98.913 Y149.977 E9.61836
G1 X99.176 Y150.243 E9.63702
G1 X99.446 Y150.426 E9.65329
G1 X99.764 Y150.563 E9.67057
G1 X100.109 Y150.636 E9.68816
G1 X100.866 Y150.761 E9.72644
G1 X101.569 Y150.956 E9.76284
G1 X102.279 Y151.228 E9.80077
G1 X102.947 Y151.57 E9.83821
G1 X103.559 Y151.97 E9.87468
G1 X104.157 Y152.451 E9.91297
G1 X104.684 Y152.979 E9.95019
G1 X105.147 Y153.548 E9.98679
G1 X105.572 Y154.198 E10.02553
G1 X105.897 Y154.836 E10.06126
G1 X106.077 Y155.151 E10.07936
G1 X106.302 Y155.404 E10.09625
G1 X106.575 Y155.614 E10.11343
G1 X106.899 Y155.776 E10.1315
G1 X107.433 Y155.969 E10.15983
G1 X108.041 Y156.167 E10.19173
G1 X108.606 Y156.333 E10.22111
G1 X108.961 Y156.391 E10.23906
G1 X109.298 Y156.38 E10.25588
G1 X109.699 Y156.289 E10.27639
G1 X110.63 Y155.825 E10.32829
G1 X111.325 Y155.56 E10.3654
G1 X112.059 Y155.367 E10.40326
G1 X112.767 Y155.254 E10.43903
G1 X113.523 Y155.216 E10.4768
G1 X114.305 Y155.255 E10.51586
G1 X115.022 Y155.368 E10.55207
G1 X115.747 Y155.56 E10.58949
G1 X116.437 Y155.82 E10.62628
G1 X117.1 Y156.157 E10.66338
G1 X117.438 Y156.307 E10.68183
G1 X117.769 Y156.38 E10.69874
G1 X118.111 Y156.391 E10.71581
G1 X118.466 Y156.334 E10.73375
G0 F3600 X118.657 Y156.277
G1 F1500 E8.73375
G0 F3600 X116.193 Y154.312
G1 F1500 E10.73375
G1 F1800 X115.669 Y154.412 E10.76037
G1 X115.053 Y154.435 E10.79112
G1 X114.48 Y154.364 E10.81993
G1 X113.972 Y154.228 E10.84616
G1 X113.436 Y153.989 E10.87544
G1 X112.924 Y153.656 E10.90591
G1 X112.526 Y153.307 E10.93232
G1 X112.142 Y152.841 E10.96245
G1 X111.843 Y152.331 E10.99194
G1 X111.626 Y151.791 E11.02098
G1 X111.5 Y151.236 E11.04937
G1 X111.46 Y150.66 E11.07818
G1 X111.506 Y150.085 E11.10695
G1 X111.631 Y149.55 E11.13436
G1 X111.842 Y149.026 E11.16255
G1 X112.132 Y148.534 E11.19104
G1 X112.526 Y148.058 E11.22187
G1 X112.958 Y147.673 E11.25074
G1 X113.41 Y147.38 E11.27761
G1 X113.941 Y147.141 E11.30666
G1 X114.494 Y146.989 E11.33527
G1 X115.069 Y146.924 E11.36414
G1 X115.674 Y146.948 E11.39435
G1 X116.208 Y147.051 E11.42148
G1 X116.776 Y147.259 E11.45166
G1 X117.249 Y147.515 E11.47849
G1 X117.724 Y147.875 E11.50823
G1 X118.126 Y148.296 E11.53727
G1 X118.457 Y148.77 E11.56611
G1 X118.717 Y149.294 E11.5953
G1 X118.886 Y149.845 E11.62405
G1 X118.966 Y150.373 E11.65069
G1 X118.966 Y150.987 E11.68133
G1 X118.876 Y151.555 E11.71002
G1 X118.701 Y152.102 E11.73867
G1 X118.453 Y152.593 E11.76611
G1 X118.126 Y153.063 E11.79468
G1 X117.71 Y153.495 E11.8246
G1 X117.278 Y153.824 E11.85169
G1 X116.777 Y154.101 E11.88025
G1 X116.193 Y154.312 E11.91123
G0 F3600 X115.997 Y154.349
G1 F1500 E9.91123
G0 F3600 X105.842 Y150.948
G1 F1500 E11.91123
G1 F1800 X105.311 Y151.05 E11.93821
G1 X104.705 Y151.071 E11.96846
G1 X104.171 Y151.011 E11.99527
G1 X103.619 Y150.864 E12.02377
G1 X103.058 Y150.611 E12.05447
G1 X102.602 Y150.315 E12.08159
G1 X102.162 Y149.927 E12.11086
G1 X101.806 Y149.493 E12.13886
G1 X101.486 Y148.956 E12.17005
G1 X101.29 Y148.47 E12.1962
G1 X101.148 Y147.872 E12.22686
G1 X101.108 Y147.296 E12.25567
G1 X101.149 Y146.748 E12.28308
G1 X101.285 Y146.18 E12.31222
G1 X101.494 Y145.658 E12.34027
G1 X101.806 Y145.139 E12.37048
G1 X102.175 Y144.693 E12.39936
G1 X102.6 Y144.317 E12.42767
G1 X103.088 Y144.007 E12.45652
G1 X103.599 Y143.775 E12.48452
G1 X104.171 Y143.621 E12.51407
G1 X104.707 Y143.561 E12.54098
G1 X105.322 Y143.584 E12.57168
G1 X105.842 Y143.684 E12.5981
G1 X106.413 Y143.887 E12.62833
G1 X106.917 Y144.16 E12.65693
G1 X107.379 Y144.514 E12.68597
G1 X107.77 Y144.923 E12.7142
G1 X108.096 Y145.385 E12.74241
G1 X108.354 Y145.901 E12.77119
G1 X108.526 Y146.447 E12.79975
G1 X108.618 Y147.009 E12.82816
G1 X108.617 Y147.625 E12.85889
G1 X108.525 Y148.19 E12.88745
G1 X108.356 Y148.726 E12.91549
G1 X108.09 Y149.257 E12.94512
G1 X107.786 Y149.693 E12.97164
G1 X107.382 Y150.115 E13.00078
G1 X106.925 Y150.466 E13.02953
G1 X106.392 Y150.753 E13.05973
G1 X105.842 Y150.948 E13.08885
G0 F3600 X105.646 Y150.985
G1 F1500 E11.08885
G0 F3600 X102.034 Y140.756
G1 F1500 E13.08885
G1 F1800 X101.498 Y140.86 E13.11609
G1 X100.883 Y140.883 E13.14679
G1 X100.34 Y140.822 E13.17405
G1 X99.756 Y140.661 E13.20427
G1 X99.231 Y140.419 E13.23312
G1 X98.751 Y140.107 E13.26168
G1 X98.338 Y139.739 E13.28927
G1 X97.977 Y139.299 E13.31767
G1 X97.684 Y138.814 E13.34594
G1 X97.466 Y138.277 E13.37485
G1 X97.326 Y137.701 E13.40443
G1 X97.288 Y137.106 E13.43417
