;FLAVOR:Marlin
;TIME:2536
;Filament used: 4.81448m
;Layer height: 0.2
;MINX:115.679
;MINY:117.447
;MINZ:0.2
;MAXX:184.321
;MAXY:182.552
;MAXZ:30
;TARGET_MACHINE.NAME:Artillery Sidewinder X1
;Generated with Cura_SteamEngine 5.8.1
M140 S65
M105
M190 S65
M104 S210
M105
M109 S210
M82 ;absolute extrusion mode
G28 ; home all axes
M117 ; Purge extruder
M420 S1 ; enable bed mesh
G92 E0 ; reset extruder
G1 Z1.0 F3000 ; move z up little to prevent scratching of surface
G1 X2 Y20 Z0.3 F5000.0 ; move to start-line position
G1 X2 Y200.0 Z0.3 F1500.0 E15 ; draw 1st line
G1 X2 Y200.0 Z0.4 F5000.0 ; move to side a little
G1 X2 Y20 Z0.4 F1500.0 E30 ; draw 2nd line
G92 E0 ; reset extruder
G1 Z1.0 F3000 ; move z up little to prevent scratching of surface
G92 E0
G92 E0
G1 F1500 E-2
;LAYER_COUNT:150
;LAYER:0
M107
G0 F3600 X126.436 Y123.083 Z0.2
;TYPE:SKIRT
G1 F1500 E0
G1 X127.282 Y122.233 E0.03751
G1 X127.807 Y121.755 E0.05972
G1 X128.366 Y121.298 E0.08231
G1 X129.067 Y120.775 E0.10967
G1 X129.99 Y120.154 E0.14447
G1 X130.471 Y119.864 E0.16204
G1 X131.587 Y119.267 E0.20163
G1 X132.097 Y119.026 E0.21927
G1 X133.241 Y118.554 E0.25798
G1 X133.723 Y118.383 E0.27398
G1 X134.782 Y118.058 E0.30863
G1 X135.342 Y117.916 E0.32671
G1 X136.606 Y117.667 E0.36701
G1 X137.148 Y117.588 E0.38414
G1 X138.348 Y117.471 E0.42185
G1 X138.89 Y117.447 E0.43883
G1 X140.088 Y117.448 E0.4763
G1 X140.596 Y117.473 E0.49221
G1 X141.82 Y117.595 E0.53069
G1 X142.338 Y117.672 E0.54707
G1 X143.543 Y117.908 E0.58548
G1 X143.861 Y117.98 E0.59568
G1 X144.811 Y118.225 E0.62637
G1 X170.547 Y125.122 E1.45983
G1 X171.583 Y125.419 E1.49354
G1 X172.39 Y125.682 E1.52009
G1 X172.772 Y125.823 E1.53283
G1 X173.819 Y126.253 E1.56823
G1 X174.333 Y126.497 E1.58603
G1 X175.463 Y127.102 E1.62613
G1 X175.907 Y127.367 E1.6423
G1 X176.738 Y127.917 E1.67348
G1 X177.495 Y128.466 E1.70273
G1 X177.895 Y128.794 E1.71891
G1 X178.405 Y129.237 E1.74004
G1 X178.7 Y129.514 E1.7527
G1 X179.562 Y130.38 E1.79092
G1 X179.91 Y130.763 E1.80711
G1 X180.519 Y131.501 E1.83704
G1 X180.789 Y131.847 E1.85077
G1 X180.993 Y132.129 E1.86165
G1 X181.594 Y133.019 E1.89525
G1 X181.907 Y133.538 E1.91421
G1 X182.502 Y134.651 E1.95369
G1 X182.742 Y135.159 E1.97126
G1 X183.214 Y136.303 E2.00997
G1 X183.387 Y136.79 E2.02614
G1 X183.711 Y137.848 E2.06075
G1 X183.85 Y138.398 E2.0785
G1 X184.1 Y139.66 E2.11874
G1 X184.18 Y140.208 E2.13606
G1 X184.297 Y141.408 E2.17378
G1 X184.321 Y141.951 E2.19078
G1 X184.319 Y143.143 E2.22807
G1 X184.29 Y143.69 E2.2452
G1 X184.167 Y144.918 E2.28381
G1 X184.092 Y145.427 E2.2999
G1 X183.839 Y146.697 E2.34041
G1 X183.604 Y147.623 E2.3703
G1 X183.386 Y148.379 E2.39491
G1 X183.047 Y149.402 E2.42862
G1 X182.75 Y150.218 E2.45578
G1 X181.862 Y152.765 E2.54016
G1 X181.051 Y155.319 E2.62398
G1 X180.321 Y157.87 E2.70698
G1 X179.663 Y160.444 E2.79009
G1 X179.073 Y163.053 E2.87376
G1 X178.312 Y167.071 E3.00169
G1 X178.158 Y167.836 E3.0261
G1 X177.892 Y168.953 E3.06202
G1 X177.679 Y169.697 E3.08622
G1 X177.396 Y170.573 E3.11502
G1 X177.25 Y170.974 E3.12837
G1 X176.808 Y172.053 E3.16484
G1 X176.564 Y172.568 E3.18267
G1 X175.982 Y173.657 E3.2213
G1 X175.697 Y174.132 E3.23862
G1 X175.005 Y175.165 E3.27752
G1 X174.698 Y175.58 E3.29366
G1 X174.081 Y176.338 E3.32424
G1 X173.792 Y176.672 E3.33805
G1 X173.564 Y176.917 E3.34852
G1 X172.718 Y177.767 E3.38604
G1 X172.193 Y178.245 E3.40825
G1 X171.64 Y178.698 E3.43061
G1 X171.208 Y179.028 E3.44761
G1 X170.905 Y179.244 E3.45925
G1 X169.92 Y179.899 E3.49626
G1 X169.465 Y180.171 E3.51284
G1 X168.411 Y180.735 E3.55023
G1 X167.903 Y180.974 E3.56779
G1 X166.759 Y181.446 E3.60651
G1 X166.277 Y181.617 E3.6225
G1 X165.218 Y181.942 E3.65716
G1 X164.658 Y182.084 E3.67523
G1 X163.394 Y182.333 E3.71553
G1 X162.852 Y182.412 E3.73266
G1 X161.652 Y182.529 E3.77038
G1 X161.118 Y182.551 E3.78709
G1 X159.912 Y182.552 E3.82482
G1 X159.404 Y182.527 E3.84073
G1 X158.18 Y182.405 E3.87921
G1 X157.662 Y182.328 E3.89559
G1 X156.457 Y182.093 E3.93399
G1 X156.138 Y182.02 E3.94423
G1 X155.182 Y181.773 E3.97512
G1 X129.413 Y174.867 E4.80965
G1 X128.242 Y174.527 E4.84779
G1 X127.568 Y174.303 E4.87001
G1 X127.223 Y174.173 E4.88154
G1 X126.095 Y173.703 E4.91976
G1 X125.605 Y173.47 E4.93674
G1 X124.535 Y172.897 E4.9747
G1 X124.089 Y172.631 E4.99095
G1 X123.266 Y172.086 E5.02183
G1 X122.748 Y171.718 E5.0417
G1 X122.466 Y171.502 E5.05281
G1 X122.097 Y171.199 E5.06775
G1 X121.577 Y170.746 E5.08932
G1 X121.302 Y170.488 E5.10112
G1 X120.439 Y169.622 E5.13936
G1 X120.089 Y169.236 E5.15566
G1 X119.473 Y168.491 E5.1859
G1 X119.202 Y168.142 E5.19972
G1 X118.987 Y167.841 E5.21129
G1 X118.332 Y166.856 E5.2483
G1 X118.058 Y166.397 E5.26502
G1 X117.495 Y165.345 E5.30234
G1 X117.259 Y164.841 E5.31975
G1 X116.786 Y163.697 E5.35847
G1 X116.623 Y163.244 E5.37353
G1 X116.289 Y162.152 E5.40926
G1 X116.148 Y161.596 E5.4272
G1 X115.899 Y160.333 E5.46747
G1 X115.82 Y159.791 E5.4846
G1 X115.703 Y158.593 E5.52225
G1 X115.679 Y158.049 E5.53929
G1 X115.681 Y156.857 E5.57657
G1 X115.71 Y156.309 E5.59374
G1 X115.833 Y155.085 E5.63222
G1 X115.908 Y154.576 E5.64831
G1 X116.124 Y153.48 E5.68326
G1 X116.313 Y152.672 E5.70922
G1 X122.066 Y131.2 E6.40458
G1 X122.362 Y130.171 E6.43807
G1 X122.622 Y129.374 E6.46429
G1 X122.762 Y128.994 E6.47696
G1 X123.14 Y128.073 E6.5081
G1 X123.323 Y127.664 E6.52212
G1 X123.472 Y127.364 E6.5326
G1 X124.02 Y126.338 E6.56898
G1 X124.305 Y125.865 E6.58626
G1 X124.995 Y124.835 E6.62504
G1 X125.302 Y124.42 E6.64119
G1 X125.919 Y123.662 E6.67176
G1 X126.208 Y123.328 E6.68558
G1 X126.436 Y123.083 E6.69604
G0 F3600 X126.705 Y123.351
G1 F1500 X127.538 Y122.514 E6.73298
G1 X128.048 Y122.049 E6.75457
G1 X128.594 Y121.602 E6.77665
G1 X129.279 Y121.09 E6.8034
G1 X130.186 Y120.479 E6.83761
G1 X130.65 Y120.199 E6.85456
G1 X131.75 Y119.61 E6.89359
G1 X132.242 Y119.377 E6.91062
G1 X133.369 Y118.912 E6.94876
G1 X133.835 Y118.746 E6.96423
G1 X134.875 Y118.426 E6.99827
G1 X135.416 Y118.289 E7.01573
G1 X136.661 Y118.043 E7.05542
G1 X137.185 Y117.966 E7.07199
G1 X138.365 Y117.851 E7.10908
G1 X138.89 Y117.827 E7.12552
G1 X140.069 Y117.828 E7.1624
G1 X140.577 Y117.853 E7.17831
G1 X141.764 Y117.971 E7.21562
G1 X142.265 Y118.045 E7.23146
G1 X143.459 Y118.278 E7.26952
G1 X143.766 Y118.348 E7.27937
G1 X144.713 Y118.592 E7.30996
G1 X170.442 Y125.487 E8.14319
G1 X171.465 Y125.78 E8.17648
G1 X172.259 Y126.039 E8.2026
G1 X172.628 Y126.175 E8.2149
G1 X173.657 Y126.597 E8.24969
G1 X174.154 Y126.832 E8.26689
G1 X175.268 Y127.428 E8.30641
G1 X175.697 Y127.684 E8.32204
G1 X176.515 Y128.225 E8.35272
G1 X177.254 Y128.76 E8.38126
G1 X177.646 Y129.081 E8.39711
G1 X178.145 Y129.514 E8.41777
G1 X178.431 Y129.782 E8.43003
G1 X179.281 Y130.635 E8.4677
G1 X179.617 Y131.005 E8.48334
G1 X180.22 Y131.735 E8.51295
G1 X180.481 Y132.069 E8.52621
G1 X180.678 Y132.342 E8.53674
G1 X181.279 Y133.232 E8.57034
G1 X181.572 Y133.717 E8.58806
G1 X182.159 Y134.814 E8.62698
G1 X182.391 Y135.304 E8.64394
G1 X182.856 Y136.431 E8.68208
G1 X183.024 Y136.901 E8.69769
G1 X183.343 Y137.941 E8.73172
G1 X183.477 Y138.472 E8.74885
G1 X183.724 Y139.715 E8.78849
G1 X183.802 Y140.245 E8.80525
G1 X183.917 Y141.425 E8.84234
G1 X183.941 Y141.951 E8.85881
G1 X183.94 Y143.123 E8.89547
G1 X183.912 Y143.652 E8.91204
G1 X183.791 Y144.863 E8.95011
G1 X183.719 Y145.353 E8.9656
G1 X183.466 Y146.623 E9.00611
G1 X183.239 Y147.518 E9.03499
G1 X183.025 Y148.26 E9.05915
G1 X182.69 Y149.272 E9.0925
G1 X182.393 Y150.088 E9.11966
G1 X181.503 Y152.64 E9.20421
G1 X180.689 Y155.204 E9.28836
G1 X179.956 Y157.765 E9.37168
G1 X179.292 Y160.36 E9.45547
G1 X178.702 Y162.969 E9.53915
G1 X177.94 Y166.996 E9.66735
G1 X177.788 Y167.748 E9.69135
G1 X177.527 Y168.848 E9.72671
G1 X177.317 Y169.58 E9.75054
G1 X177.039 Y170.443 E9.7789
G1 X176.898 Y170.83 E9.79178
G1 X176.464 Y171.891 E9.82764
G1 X176.229 Y172.389 E9.84487
G1 X175.656 Y173.462 E9.88292
G1 X175.381 Y173.921 E9.89965
G1 X174.7 Y174.939 E9.93797
G1 X174.403 Y175.34 E9.95358
G1 X173.793 Y176.09 E9.98382
G1 X173.513 Y176.414 E9.99721
G1 X173.295 Y176.649 E10.00724
G1 X172.462 Y177.486 E10.04418
G1 X171.952 Y177.951 E10.06577
G1 X171.409 Y178.396 E10.08773
G1 X170.987 Y178.719 E10.10435
G1 X170.694 Y178.928 E10.11561
G1 X169.725 Y179.573 E10.15202
G1 X169.286 Y179.836 E10.16803
G1 X168.249 Y180.391 E10.20482
G1 X167.758 Y180.623 E10.22181
G1 X166.631 Y181.088 E10.25995
G1 X166.165 Y181.254 E10.27542
G1 X165.125 Y181.574 E10.30946
G1 X164.584 Y181.711 E10.32692
G1 X163.339 Y181.957 E10.36661
G1 X162.815 Y182.034 E10.38318
G1 X161.635 Y182.149 E10.42027
G1 X161.11 Y182.173 E10.43671
G1 X159.931 Y182.172 E10.47359
G1 X159.423 Y182.147 E10.4895
G1 X158.236 Y182.029 E10.52681
G1 X157.735 Y181.955 E10.54265
G1 X156.541 Y181.722 E10.58071
G1 X156.233 Y181.652 E10.59059
G1 X155.28 Y181.406 E10.62138
G1 X129.519 Y174.502 E11.45565
G1 X128.362 Y174.166 E11.49334
G1 X127.702 Y173.947 E11.51509
G1 X127.369 Y173.822 E11.52622
G1 X126.258 Y173.36 E11.56385
G1 X125.784 Y173.135 E11.58027
G1 X124.73 Y172.571 E11.61766
G1 X124.299 Y172.314 E11.63336
G1 X123.486 Y171.776 E11.66385
G1 X122.979 Y171.416 E11.6833
G1 X122.707 Y171.208 E11.69402
G1 X122.346 Y170.912 E11.70862
G1 X121.837 Y170.469 E11.72973
G1 X121.571 Y170.22 E11.74112
G1 X120.72 Y169.366 E11.77884
G1 X120.382 Y168.994 E11.79456
G1 X119.773 Y168.258 E11.82444
G1 X119.511 Y167.921 E11.8378
G1 X119.303 Y167.63 E11.84898
G1 X118.658 Y166.661 E11.8854
G1 X118.393 Y166.218 E11.90154
G1 X117.839 Y165.184 E11.93824
G1 X117.61 Y164.696 E11.9551
G1 X117.144 Y163.568 E11.99328
G1 X116.981 Y163.115 E12.00834
G1 X116.657 Y162.059 E12.04289
G1 X116.521 Y161.522 E12.06022
G1 X116.275 Y160.278 E12.09989
G1 X116.198 Y159.754 E12.11645
G1 X116.083 Y158.576 E12.15348
G1 X116.059 Y158.049 E12.16998
G1 X116.06 Y156.877 E12.20664
G1 X116.088 Y156.347 E12.22325
G1 X116.209 Y155.14 E12.26119
G1 X116.281 Y154.649 E12.27671
G1 X116.494 Y153.566 E12.31124
G1 X116.68 Y152.77 E12.33681
G1 X122.431 Y131.305 E13.03194
G1 X122.723 Y130.289 E13.06501
G1 X122.979 Y129.505 E13.09081
G1 X123.114 Y129.138 E13.10304
G1 X123.487 Y128.228 E13.13381
G1 X123.663 Y127.833 E13.14733
G1 X123.807 Y127.543 E13.15746
G1 X124.346 Y126.534 E13.19325
G1 X124.621 Y126.076 E13.20996
G1 X125.3 Y125.061 E13.24816
G1 X125.597 Y124.66 E13.26377
G1 X126.207 Y123.91 E13.29401
G1 X126.487 Y123.586 E13.3074
G1 X126.705 Y123.351 E13.31743
G0 F3600 X126.975 Y123.619
G1 F1500 X127.794 Y122.795 E13.35377
G1 X128.289 Y122.343 E13.37474
G1 X128.822 Y121.906 E13.3963
G1 X129.491 Y121.405 E13.42244
G1 X130.382 Y120.804 E13.45606
G1 X130.83 Y120.534 E13.47243
G1 X131.913 Y119.953 E13.51087
G1 X132.387 Y119.728 E13.52728
G1 X133.497 Y119.27 E13.56485
G1 X133.947 Y119.109 E13.5798
G1 X134.968 Y118.794 E13.61322
G1 X135.49 Y118.662 E13.63006
G1 X136.717 Y118.419 E13.66919
G1 X137.222 Y118.344 E13.68516
G1 X138.383 Y118.231 E13.72165
G1 X138.89 Y118.207 E13.73753
G1 X140.05 Y118.208 E13.77381
G1 X140.558 Y118.233 E13.78972
G1 X141.709 Y118.347 E13.8259
G1 X142.192 Y118.418 E13.84117
G1 X143.375 Y118.649 E13.87888
G1 X143.671 Y118.716 E13.88837
G1 X144.615 Y118.959 E13.91886
G1 X170.337 Y125.852 E14.75187
G1 X171.347 Y126.141 E14.78473
G1 X172.128 Y126.396 E14.81043
G1 X172.484 Y126.527 E14.8223
G1 X173.495 Y126.941 E14.85647
G1 X173.975 Y127.167 E14.87307
G1 X175.073 Y127.754 E14.91201
G1 X175.487 Y128.001 E14.92709
G1 X176.292 Y128.533 E14.95728
G1 X177.013 Y129.054 E14.9851
G1 X177.397 Y129.368 E15.00062
G1 X177.886 Y129.792 E15.02087
G1 X178.162 Y130.05 E15.03268
G1 X179 Y130.891 E15.06982
G1 X179.324 Y131.247 E15.08488
G1 X179.921 Y131.969 E15.11419
G1 X180.173 Y132.291 E15.12698
G1 X180.363 Y132.555 E15.13715
G1 X180.964 Y133.445 E15.17074
G1 X181.237 Y133.897 E15.18726
G1 X181.816 Y134.977 E15.22559
G1 X182.04 Y135.449 E15.24194
G1 X182.498 Y136.559 E15.2795
G1 X182.661 Y137.013 E15.29459
G1 X182.975 Y138.034 E15.328
G1 X183.104 Y138.546 E15.34452
G1 X183.348 Y139.771 E15.38359
G1 X183.424 Y140.282 E15.39975
G1 X183.537 Y141.443 E15.43624
G1 X183.561 Y141.951 E15.45215
G1 X183.56 Y143.104 E15.48822
G1 X183.534 Y143.614 E15.50419
G1 X183.415 Y144.808 E15.54173
G1 X183.346 Y145.279 E15.55662
G1 X183.093 Y146.549 E15.59712
G1 X182.874 Y147.413 E15.62501
G1 X182.664 Y148.141 E15.64871
G1 X182.333 Y149.142 E15.68169
G1 X182.036 Y149.958 E15.70885
G1 X181.144 Y152.515 E15.79356
G1 X180.327 Y155.089 E15.87804
G1 X179.591 Y157.66 E15.96169
G1 X178.921 Y160.276 E16.04617
G1 X178.331 Y162.885 E16.12984
G1 X177.567 Y166.921 E16.25833
G1 X177.418 Y167.661 E16.28195
G1 X177.162 Y168.743 E16.31673
G1 X176.955 Y169.464 E16.34019
G1 X176.682 Y170.313 E16.36809
G1 X176.546 Y170.686 E16.38051
G1 X176.12 Y171.729 E16.41575
G1 X175.894 Y172.21 E16.43237
G1 X175.33 Y173.267 E16.46985
G1 X175.065 Y173.71 E16.486
G1 X174.394 Y174.713 E16.52375
G1 X174.108 Y175.1 E16.5388
G1 X173.505 Y175.842 E16.56871
G1 X173.235 Y176.155 E16.58164
G1 X173.025 Y176.381 E16.59129
G1 X172.206 Y177.205 E16.62763
G1 X171.711 Y177.657 E16.6486
G1 X171.178 Y178.094 E16.67016
G1 X170.766 Y178.41 E16.6864
G1 X170.483 Y178.612 E16.69728
G1 X169.529 Y179.247 E16.73313
G1 X169.106 Y179.501 E16.74856
G1 X168.086 Y180.048 E16.78477
G1 X167.613 Y180.272 E16.80114
G1 X166.503 Y180.73 E16.8387
G1 X166.053 Y180.891 E16.85365
G1 X165.032 Y181.206 E16.88707
G1 X164.51 Y181.338 E16.90392
G1 X163.283 Y181.581 E16.94304
G1 X162.778 Y181.656 E16.95901
G1 X161.617 Y181.769 E16.9955
G1 X161.11 Y181.793 E17.01138
G1 X159.95 Y181.792 E17.04767
G1 X159.442 Y181.767 E17.06358
G1 X158.291 Y181.653 E17.09976
G1 X157.808 Y181.582 E17.11503
G1 X156.625 Y181.351 E17.15273
G1 X156.328 Y181.284 E17.16226
G1 X155.378 Y181.039 E17.19295
G1 X129.625 Y174.137 E18.02696
G1 X128.481 Y173.805 E18.06422
G1 X127.835 Y173.591 E18.08551
G1 X127.515 Y173.471 E18.0962
G1 X126.421 Y173.017 E18.13325
G1 X125.963 Y172.8 E18.14911
G1 X124.925 Y172.245 E18.18592
G1 X124.509 Y171.997 E18.20107
G1 X123.706 Y171.466 E18.23119
G1 X123.21 Y171.114 E18.25021
G1 X122.948 Y170.914 E18.26052
G1 X122.595 Y170.625 E18.2748
G1 X122.096 Y170.191 E18.29548
G1 X121.84 Y169.952 E18.30644
G1 X121.001 Y169.111 E18.3436
G1 X120.675 Y168.752 E18.35877
G1 X120.073 Y168.024 E18.38832
G1 X119.82 Y167.7 E18.40118
G1 X119.619 Y167.419 E18.41198
G1 X118.984 Y166.466 E18.44781
G1 X118.728 Y166.039 E18.46338
G1 X118.183 Y165.022 E18.49947
G1 X117.961 Y164.551 E18.51576
G1 X117.502 Y163.439 E18.55339
G1 X117.339 Y162.986 E18.56845
G1 X117.025 Y161.966 E18.60184
G1 X116.894 Y161.448 E18.61855
G1 X116.651 Y160.222 E18.65765
G1 X116.576 Y159.717 E18.67362
G1 X116.463 Y158.558 E18.71004
G1 X116.439 Y158.049 E18.72598
G1 X116.44 Y156.896 E18.76205
G1 X116.466 Y156.385 E18.77806
G1 X116.585 Y155.195 E18.81547
G1 X116.654 Y154.722 E18.83042
G1 X116.864 Y153.652 E18.86453
G1 X117.047 Y152.868 E18.88971
G1 X122.796 Y131.41 E19.58462
G1 X123.084 Y130.407 E19.61726
G1 X123.336 Y129.636 E19.64263
G1 X123.466 Y129.282 E19.65443
G1 X123.834 Y128.383 E19.68482
G1 X124.004 Y128.001 E19.6979
G1 X124.142 Y127.722 E19.70763
G1 X124.672 Y126.729 E19.74284
G1 X124.937 Y126.287 E19.75896
G1 X125.606 Y125.287 E19.7966
G1 X125.892 Y124.9 E19.81165
G1 X126.495 Y124.158 E19.84156
G1 X126.765 Y123.845 E19.85449
G1 X126.975 Y123.619 E19.86414
G1 F1500 E17.86414
;MESH:4x21700.stl
G0 F3600 X139.043 Y122.711
G0 X140.275 Y122.731
G0 X141.5 Y122.871
G0 X142.673 Y123.124
G0 X169.781 Y130.388
G0 X170.925 Y130.755
G0 X172.057 Y131.247
G0 X173.134 Y131.846
G0 X174.149 Y132.547
G0 X175.089 Y133.344
G0 X175.946 Y134.23
G0 X176.713 Y135.196
G0 X177.381 Y136.232
G0 X177.945 Y137.33
