;FLAVOR:Marlin
;TIME:5038
;Filament used: 9.96781m
;Layer height: 0.3
;MINX:120.05
;MINY:114.302
;MINZ:0.2
;MAXX:179.978
;MAXY:185.7
;MAXZ:16.4
;TARGET_MACHINE.NAME:Artillery Sidewinder X1
;Generated with Cura_SteamEngine 5.10.0
M140 S55
M105
M190 S55
M104 S210
M105
M109 S210
G28 ; home all axes
M117 ; Purge extruder
M420 S1 ; enable bed mesh
G92 E0 ; reset extruder
G1 Z1.0 F3000 ; move z up little to prevent scratching of surface
G1 X2 Y20 Z0.3 F5000.0 ; move to start-line position
G1 X2 Y200.0 Z0.3 F1500.0 E15 ; draw 1st line
G1 X2 Y200.0 Z0.4 F5000.0 ; move to side a little
G1 X2 Y20 Z0.4 F1500.0 E30 ; draw 2nd line
G92 E0 ; reset extruder
G1 Z1.0 F3000 ; move z up little to prevent scratching of surface
M82 ;absolute extrusion mode
G92 E0
G92 E0
G1 F1500 E-2
;LAYER_COUNT:55
;LAYER:0
M106 S76.5
G0 F3600 X120.952 Y115.562 Z0.2
;TYPE:SKIRT
G1 F1500 E0
G1 F1800 X121.32 Y115.195 E0.01729
G1 X121.728 Y114.941 E0.03327
G1 X122.238 Y114.756 E0.05132
G1 X122.751 Y114.7 E0.06848
G1 X177.279 Y114.7 E1.88209
G1 X177.743 Y114.751 E1.89761
G1 X178.252 Y114.915 E1.9154
G1 X178.704 Y115.201 E1.93319
G1 X179.041 Y115.525 E1.94874
G1 X179.322 Y115.948 E1.96563
G1 X179.504 Y116.444 E1.9832
G1 X179.57 Y116.883 E1.99797
G1 X179.54 Y117.411 E2.01556
G1 X179.38 Y117.922 E2.03337
G1 X179.154 Y118.325 E2.04873
G1 X177.737 Y120.423 E2.13294
G1 X176.44 Y122.546 E2.21568
G1 X175.234 Y124.736 E2.29884
G1 X174.131 Y126.977 E2.38191
G1 X173.12 Y129.297 E2.46609
G1 X172.239 Y131.593 E2.54788
G1 X171.445 Y133.995 E2.63202
G1 X170.77 Y136.392 E2.71485
G1 X170.2 Y138.843 E2.79854
G1 X169.743 Y141.325 E2.88248
G1 X169.408 Y143.752 E2.96397
G1 X169.178 Y146.258 E3.04767
G1 X169.064 Y148.771 E3.13134
G1 X169.064 Y151.26 E3.21412
G1 X169.179 Y153.757 E3.29726
G1 X169.41 Y156.261 E3.3809
G1 X169.751 Y158.728 E3.46373
G1 X170.2 Y161.164 E3.54612
G1 X170.774 Y163.625 E3.63017
G1 X171.455 Y166.038 E3.71356
G1 X172.25 Y168.432 E3.79746
G1 X173.135 Y170.743 E3.87977
G1 X174.135 Y173.032 E3.96285
G1 X175.247 Y175.287 E4.04647
G1 X176.448 Y177.469 E4.12931
G1 X177.753 Y179.601 E4.21245
G1 X179.17 Y181.701 E4.29671
G1 X179.397 Y182.106 E4.31216
G1 X179.53 Y182.554 E4.3277
G1 X179.575 Y183.091 E4.34562
G1 X179.505 Y183.555 E4.36123
G1 X179.32 Y184.055 E4.37896
G1 X179.037 Y184.481 E4.39597
G1 X178.649 Y184.842 E4.4136
G1 X178.253 Y185.085 E4.42905
G1 X177.739 Y185.25 E4.44701
G1 X177.273 Y185.3 E4.4626
G1 X122.712 Y185.298 E6.2773
G1 X122.239 Y185.244 E6.29314
G1 X121.752 Y185.074 E6.31029
G1 X121.312 Y184.798 E6.32757
G1 X120.945 Y184.43 E6.34485
G1 X120.691 Y184.022 E6.36084
G1 X120.505 Y183.51 E6.37896
G1 X120.45 Y183.001 E6.39598
G1 X120.452 Y116.968 E8.59225
G1 X120.505 Y116.491 E8.60821
G1 X120.676 Y116.002 E8.62544
G1 X120.952 Y115.562 E8.64272
G0 F3600 X120.635 Y115.314
G1 F1800 X121.072 Y114.878 E8.66325
G1 X121.551 Y114.58 E8.68201
G1 X122.149 Y114.363 E8.70317
G1 X122.708 Y114.302 E8.72188
G1 X177.323 Y114.302 E10.53838
G1 X177.827 Y114.357 E10.55524
G1 X178.422 Y114.549 E10.57603
G1 X178.95 Y114.883 E10.59681
G1 X179.35 Y115.268 E10.61528
G1 X179.683 Y115.769 E10.63529
G1 X179.894 Y116.344 E10.65566
G1 X179.972 Y116.861 E10.67305
G1 X179.936 Y117.486 E10.69387
G1 X179.75 Y118.081 E10.71461
G1 X179.503 Y118.521 E10.73139
G1 X178.078 Y120.632 E10.8161
G1 X176.781 Y122.755 E10.89885
G1 X175.593 Y124.913 E10.98078
G1 X174.498 Y127.137 E11.06323
G1 X173.487 Y129.457 E11.1474
G1 X172.619 Y131.719 E11.22799
G1 X171.825 Y134.121 E11.31213
G1 X171.16 Y136.483 E11.39374
G1 X170.59 Y138.934 E11.47744
G1 X170.139 Y141.38 E11.56016
G1 X169.804 Y143.807 E11.64165
G1 X169.578 Y146.276 E11.72411
G1 X169.464 Y148.789 E11.80778
G1 X169.464 Y151.242 E11.88937
G1 X169.579 Y153.739 E11.97251
G1 X169.806 Y156.206 E12.05491
G1 X170.146 Y158.666 E12.13751
G1 X170.59 Y161.073 E12.21891
G1 X171.164 Y163.532 E12.3029
G1 X171.835 Y165.912 E12.38514
G1 X172.624 Y168.289 E12.46844
G1 X173.502 Y170.583 E12.55014
G1 X174.499 Y172.865 E12.63297
G1 X175.606 Y175.11 E12.71622
G1 X176.789 Y177.26 E12.79784
G1 X178.085 Y179.377 E12.8804
G1 X179.519 Y181.505 E12.96575
G1 X179.766 Y181.947 E12.98259
G1 X179.926 Y182.483 E13.00119
G1 X179.978 Y183.105 E13.02195
G1 X179.895 Y183.653 E13.04039
G1 X179.679 Y184.236 E13.06107
G1 X179.344 Y184.742 E13.08125
G1 X178.892 Y185.162 E13.10177
G1 X178.421 Y185.451 E13.12015
G1 X177.82 Y185.644 E13.14115
G1 X177.273 Y185.7 E13.15943
G1 X122.712 Y185.698 E14.97414
G1 X122.146 Y185.636 E14.99308
G1 X121.577 Y185.437 E15.01313
G1 X121.064 Y185.115 E15.03327
G1 X120.628 Y184.678 E15.0538
G1 X120.329 Y184.198 E15.07261
G1 X120.112 Y183.6 E15.09377
G1 X120.05 Y183.001 E15.1138
G1 X120.054 Y116.924 E17.31153
G1 X120.112 Y116.402 E17.329
G1 X120.313 Y115.827 E17.34926
G1 X120.635 Y115.314 E17.3694
;MESH:Bry??a1
G0 F3600 X121.393 Y115.915
;TYPE:WALL-OUTER
G1 F1800 X121.184 Y116.246 E17.38242
G1 X121.055 Y116.615 E17.39543
G1 X121.008 Y117.012 E17.40872
G1 X121.008 Y182.984 E19.60296
G1 X121.055 Y183.381 E19.61626
G1 X121.185 Y183.751 E19.6293
G1 X121.386 Y184.077 E19.64204
G1 X121.664 Y184.355 E19.65511
G1 X121.994 Y184.564 E19.66811
G1 X122.363 Y184.693 E19.68111
G1 X122.76 Y184.74 E19.6944
G1 X177.257 Y184.74 E21.50698
G1 X177.651 Y184.696 E21.52017
G1 X178.008 Y184.575 E21.5327
G1 X178.332 Y184.376 E21.54535
G1 X178.607 Y184.111 E21.55805
G1 X178.815 Y183.803 E21.57041
G1 X178.955 Y183.441 E21.58332
G1 X179.01 Y183.073 E21.5957
G1 X178.982 Y182.684 E21.60867
G1 X178.874 Y182.326 E21.62111
G1 X178.693 Y181.992 E21.63374
G1 X177.274 Y179.896 E21.71793
G1 X175.96 Y177.746 E21.80174
G1 X174.746 Y175.54 E21.88549
G1 X173.621 Y173.261 E21.97002
G1 X172.617 Y170.962 E22.05346
G1 X171.713 Y168.602 E22.13751
G1 X170.921 Y166.211 E22.22129
G1 X170.226 Y163.756 E22.30615
G1 X169.653 Y161.304 E22.3899
G1 X169.198 Y158.824 E22.47376
G1 X168.853 Y156.321 E22.5578
G1 X168.616 Y153.788 E22.64241
G1 X168.504 Y151.264 E22.72645
G1 X168.504 Y148.752 E22.81
G1 X168.617 Y146.212 E22.89456
G1 X168.85 Y143.68 E22.97913
G1 X169.192 Y141.208 E23.06213
G1 X169.654 Y138.705 E23.14679
G1 X170.225 Y136.245 E23.23078
G1 X170.913 Y133.81 E23.31494
G1 X171.709 Y131.411 E23.39901
G1 X172.605 Y129.063 E23.4826
G1 X173.614 Y126.757 E23.56632
G1 X174.744 Y124.458 E23.65152
G1 X175.95 Y122.268 E23.73467
G1 X177.276 Y120.102 E23.81914
G1 X178.69 Y118.007 E23.90321
G1 X178.874 Y117.674 E23.91586
G1 X178.982 Y117.313 E23.9284
G1 X179.01 Y116.93 E23.94117
G1 X178.955 Y116.555 E23.95377
G1 X178.819 Y116.205 E23.96626
G1 X178.607 Y115.888 E23.97895
G1 X178.335 Y115.623 E23.99158
G1 X178.009 Y115.422 E24.00432
G1 X177.656 Y115.304 E24.0167
G1 X177.261 Y115.261 E24.02991
G1 X122.763 Y115.26 E25.84252
G1 X122.362 Y115.304 E25.85594
G1 X121.997 Y115.432 E25.8688
G1 X121.672 Y115.633 E25.88151
G1 X121.393 Y115.915 E25.89471
G0 F3600 X121.287 Y116.084
G1 F1500 E23.89471
G0 F3600 X126.178 Y119.732
G1 F1500 E25.89471
G1 F1800 X126.324 Y119.549 E25.90249
G1 X126.864 Y119.072 E25.92646
G1 X127.518 Y118.67 E25.95199
G1 X128.184 Y118.405 E25.97583
G1 X128.859 Y118.259 E25.9988
G1 X129.592 Y118.228 E26.0232
G1 X130.333 Y118.323 E26.04805
G1 X131.025 Y118.539 E26.07216
G1 X131.637 Y118.847 E26.09495
G1 X132.235 Y119.291 E26.11972
G1 X132.744 Y119.822 E26.14419
G1 X133.141 Y120.416 E26.16795
G1 X133.44 Y121.085 E26.19232
G1 X133.62 Y121.782 E26.21626
G1 X133.676 Y122.498 E26.24015
G1 X133.617 Y123.21 E26.26391
G1 X133.434 Y123.899 E26.28762
G1 X133.136 Y124.563 E26.31183
G1 X132.735 Y125.156 E26.33564
G1 X132.233 Y125.679 E26.35975
G1 X131.635 Y126.12 E26.38447
G1 X131.029 Y126.429 E26.40709
G1 X130.302 Y126.65 E26.43236
G1 X129.62 Y126.739 E26.45524
G1 X128.853 Y126.703 E26.48078
G1 X128.143 Y126.546 E26.50496
G1 X127.519 Y126.298 E26.5273
G1 X126.898 Y125.917 E26.55153
G1 X126.329 Y125.419 E26.57668
G1 X125.876 Y124.851 E26.60084
G1 X125.544 Y124.255 E26.62353
G1 X125.291 Y123.545 E26.6486
G1 X125.175 Y122.877 E26.67115
G1 X125.175 Y122.1 E26.697
G1 X125.287 Y121.433 E26.71949
G1 X125.545 Y120.708 E26.74509
G1 X125.9 Y120.081 E26.76905
G1 X126.178 Y119.732 E26.78389
G0 F3600 X126.302 Y119.576
G1 F1500 E24.78389
G0 F3600 X131.995 Y141.773
G1 F1500 E26.78389
G1 F1800 X132.973 Y141.478 E26.81787
G1 X133.989 Y141.297 E26.85219
G1 X134.996 Y141.24 E26.88574
G1 X149.035 Y141.24 E27.35268
G1 X150.038 Y141.299 E27.38609
G1 X151.039 Y141.478 E27.41992
G1 X152.012 Y141.768 E27.45368
G1 X152.946 Y142.174 E27.48756
G1 X153.819 Y142.674 E27.52102
G1 X154.655 Y143.298 E27.55572
G1 X155.367 Y143.97 E27.58828
G1 X156.046 Y144.78 E27.62343
G1 X156.586 Y145.6 E27.65609
G1 X157.061 Y146.539 E27.69109
G1 X157.4 Y147.475 E27.7242
G1 X157.639 Y148.485 E27.75872
G1 X157.755 Y149.469 E27.79167
G1 X157.755 Y150.519 E27.8266
G1 X157.633 Y151.541 E27.86083
G1 X157.397 Y152.524 E27.89445
G1 X157.053 Y153.477 E27.92815
G1 X156.59 Y154.395 E27.96235
G1 X156.05 Y155.215 E27.99501
G1 X155.376 Y156.013 E28.02975
G1 X154.653 Y156.7 E28.06292
G1 X153.828 Y157.314 E28.09712
G1 X152.932 Y157.831 E28.13153
G1 X152.003 Y158.231 E28.16517
G1 X151.022 Y158.525 E28.19923
G1 X150.028 Y158.699 E28.2328
G1 X149.023 Y158.76 E28.26628
G1 X135.19 Y158.756 E28.72637
G1 X134.179 Y158.72 E28.76002
G1 X133.154 Y158.559 E28.79453
G1 X132.172 Y158.287 E28.82842
G1 X131.218 Y157.896 E28.86271
G1 X130.323 Y157.399 E28.89676
G1 X129.481 Y156.789 E28.93134
G1 X128.727 Y156.103 E28.96525
G1 X128.079 Y155.355 E28.99816
G1 X127.481 Y154.477 E29.0335
G1 X127.008 Y153.568 E29.06758
G1 X126.643 Y152.595 E29.10214
G1 X126.403 Y151.625 E29.13538
G1 X126.272 Y150.6 E29.16975
G1 X126.261 Y149.568 E29.20407
G1 X126.37 Y148.549 E29.23816
G1 X126.602 Y147.545 E29.27243
G1 X126.946 Y146.581 E29.30647
G1 X127.397 Y145.662 E29.34052
G1 X127.941 Y144.822 E29.37381
G1 X128.608 Y144.02 E29.4085
G1 X129.351 Y143.312 E29.44264
G1 X130.18 Y142.691 E29.47709
G1 X131.056 Y142.181 E29.5108
G1 X131.995 Y141.773 E29.54485
G0 F3600 X132.186 Y141.716
G1 F1500 E27.54485
G0 F3600 X128.848 Y173.293
G1 F1500 E29.54485
G1 F1800 X129.611 Y173.26 E29.57026
G1 X130.315 Y173.35 E29.59386
G1 X131.007 Y173.563 E29.61794
G1 X131.653 Y173.886 E29.64197
G1 X132.224 Y174.312 E29.66566
G1 X132.731 Y174.832 E29.68982
G1 X133.132 Y175.429 E29.71373
G1 X133.434 Y176.094 E29.73803
G1 X133.617 Y176.79 E29.76196
G1 X133.676 Y177.526 E29.78652
G1 X133.62 Y178.214 E29.80948
G1 X133.426 Y178.951 E29.83483
G1 X133.124 Y179.614 E29.85906
G1 X132.744 Y180.175 E29.8816
G1 X132.216 Y180.725 E29.90695
G1 X131.634 Y181.152 E29.93096
G1 X130.993 Y181.473 E29.95481
G1 X130.313 Y181.681 E29.97846
G1 X129.62 Y181.767 E30.00168
G1 X128.853 Y181.735 E30.02722
G1 X128.185 Y181.591 E30.04994
G1 X127.519 Y181.33 E30.07374
G1 X126.864 Y180.924 E30.09937
G1 X126.324 Y180.447 E30.12333
G1 X125.9 Y179.915 E30.14596
G1 X125.526 Y179.247 E30.17142
G1 X125.291 Y178.573 E30.19516
G1 X125.175 Y177.905 E30.21771
G1 X125.175 Y177.128 E30.24355
G1 X125.287 Y176.461 E30.26605
G1 X125.544 Y175.741 E30.29148
G1 X125.876 Y175.145 E30.31417
G1 X126.36 Y174.548 E30.33973
G1 X126.898 Y174.079 E30.36347
G1 X127.519 Y173.698 E30.3877
G1 X128.184 Y173.437 E30.41146
G1 X128.848 Y173.293 E30.43406
G0 F3600 X129.047 Y173.285
G1 F1500 E28.43406
G0 F3600 X157.272 Y175.884
G1 F1500 E30.43406
G1 F1800 X157.851 Y175.577 E30.45586
G1 X158.465 Y175.39 E30.4772
G1 X159.068 Y175.332 E30.49735
G1 X159.714 Y175.392 E30.51893
G1 X160.351 Y175.588 E30.5411
G1 X160.897 Y175.879 E30.56168
G1 X161.392 Y176.287 E30.58301
G1 X161.803 Y176.786 E30.60451
G1 X162.095 Y177.335 E30.6252
G1 X162.282 Y177.934 E30.64607
G1 X162.348 Y178.57 E30.66733
G1 X162.281 Y179.249 E30.69003
G1 X162.086 Y179.866 E30.71155
G1 X161.785 Y180.422 E30.73258
G1 X161.374 Y180.913 E30.75387
G1 X160.876 Y181.317 E30.7752
G1 X160.364 Y181.593 E30.79455
G1 X159.713 Y181.793 E30.8172
G1 X159.096 Y181.852 E30.83781
G1 X158.433 Y181.785 E30.85998
G1 X157.812 Y181.593 E30.8816
G1 X157.258 Y181.289 E30.90262
G1 X156.767 Y180.878 E30.92391
G1 X156.363 Y180.38 E30.94524
G1 X156.087 Y179.868 E30.96459
G1 X155.885 Y179.198 E30.98786
G1 X155.828 Y178.599 E31.00788
G1 X155.889 Y177.96 E31.02922
G1 X156.086 Y177.321 E31.05147
G1 X156.371 Y176.79 E31.07151
G1 X156.786 Y176.285 E31.09325
G1 X157.272 Y175.884 E31.11421
G0 F3600 X157.448 Y175.791
G1 F1500 E29.11421
G0 F3600 X155.895 Y120.748
G1 F1500 E31.11421
G1 F1800 X156.086 Y120.133 E31.13562
G1 X156.391 Y119.574 E31.1568
G1 X156.802 Y119.083 E31.1781
G1 X157.3 Y118.679 E31.19943
G1 X157.812 Y118.403 E31.21878
G1 X158.463 Y118.203 E31.24143
G1 X159.08 Y118.144 E31.26204
G1 X159.744 Y118.211 E31.28424
G1 X160.359 Y118.402 E31.30566
G1 X160.918 Y118.707 E31.32684
G1 X161.409 Y119.118 E31.34813
G1 X161.814 Y119.617 E31.36951
G1 X162.105 Y120.175 E31.39044
G1 X162.281 Y120.743 E31.41022
G1 X162.348 Y121.41 E31.43252
G1 X162.288 Y122.035 E31.4534
G1 X162.095 Y122.661 E31.47519
G1 X161.795 Y123.221 E31.49632
G1 X161.374 Y123.725 E31.51816
G1 X160.876 Y124.129 E31.53949
G1 X160.34 Y124.417 E31.55972
G1 X159.711 Y124.606 E31.58157
G1 X159.111 Y124.664 E31.60162
G1 X158.469 Y124.606 E31.62306
G1 X157.843 Y124.42 E31.64478
G1 X157.294 Y124.126 E31.66549
G1 X156.802 Y123.725 E31.6866
G1 X156.38 Y123.22 E31.70849
G1 X156.081 Y122.669 E31.72934
G1 X155.889 Y122.036 E31.75134
G1 X155.828 Y121.414 E31.77213
G1 X155.895 Y120.748 E31.79439
G0 F3600 X155.954 Y120.558
G0 X155.552 Y120.707
;TYPE:WALL-INNER
G1 F1800 X155.759 Y120.022 E31.81819
G1 X156.089 Y119.406 E31.84144
G1 X156.544 Y118.854 E31.86523
G1 X157.091 Y118.405 E31.88877
G1 X157.709 Y118.073 E31.9121
G1 X158.404 Y117.868 E31.9362
G1 X159.077 Y117.8 E31.9587
G1 X159.785 Y117.868 E31.98236
G1 X160.467 Y118.074 E32.00605
G1 X161.087 Y118.406 E32.02944
G1 X161.632 Y118.854 E32.05291
G1 X162.086 Y119.406 E32.07668
G1 X162.414 Y120.023 E32.09992
G1 X162.625 Y120.703 E32.1236
G1 X162.688 Y121.428 E32.14781
G1 X162.624 Y122.103 E32.17036
G1 X162.406 Y122.797 E32.19455
G1 X162.07 Y123.421 E32.21812
G1 X161.637 Y123.948 E32.24081
G1 X161.087 Y124.399 E32.26447
G1 X160.472 Y124.734 E32.28776
G1 X159.776 Y124.94 E32.3119
G1 X159.061 Y125.004 E32.33578
G1 X158.368 Y124.932 E32.35895
G1 X157.723 Y124.738 E32.38135
G1 X157.074 Y124.388 E32.40588
G1 X156.535 Y123.941 E32.42917
G1 X156.082 Y123.386 E32.45299
G1 X155.757 Y122.784 E32.47575
G1 X155.556 Y122.104 E32.49933
G1 X155.484 Y121.416 E32.52234
G1 X155.552 Y120.707 E32.54603
G0 F3600 X155.157 Y120.631
G1 F1800 X155.386 Y119.874 E32.57234
G1 X155.758 Y119.178 E32.59858
G1 X156.257 Y118.573 E32.62467
G1 X156.867 Y118.071 E32.65094
G1 X157.557 Y117.701 E32.67698
G1 X158.335 Y117.474 E32.70394
G1 X159.075 Y117.398 E32.72868
G1 X159.866 Y117.474 E32.75511
G1 X160.623 Y117.705 E32.78143
G1 X161.31 Y118.072 E32.80734
G1 X161.919 Y118.573 E32.83357
G1 X162.422 Y119.183 E32.85987
G1 X162.783 Y119.864 E32.8855
G1 X163.018 Y120.621 E32.91186
G1 X163.093 Y121.391 E32.9376
G1 X163.014 Y122.179 E32.96394
G1 X162.773 Y122.957 E32.99103
G1 X162.419 Y123.62 E33.01602
G1 X161.92 Y124.236 E33.04239
G1 X161.309 Y124.731 E33.06855
G1 X160.626 Y125.104 E33.09443
G1 X159.883 Y125.33 E33.12026
G1 X159.099 Y125.408 E33.14646
G1 X158.324 Y125.336 E33.17235
G1 X157.539 Y125.099 E33.19962
G1 X156.871 Y124.737 E33.2249
G1 X156.268 Y124.239 E33.25091
G1 X155.751 Y123.617 E33.27781
G1 X155.385 Y122.936 E33.30352
G1 X155.164 Y122.184 E33.32959
G1 X155.088 Y121.418 E33.35519
G1 X155.157 Y120.631 E33.38147
G0 F3600 X154.75 Y120.691
G1 F1800 X154.804 Y120.418 E33.39073
G1 X154.976 Y119.85 E33.41046
G1 X155.081 Y119.595 E33.41964
G1 X155.357 Y119.079 E33.4391
