;FLAVOR:Marlin
;TIME:8335
;Filament used: 11.7435m
;Layer height: 0.2
;MINX:111.069
;MINY:44.196
;MINZ:0.2
;MAXX:131.423
;MAXY:223.252
;MAXZ:30
;TARGET_MACHINE.NAME:Artillery Sidewinder X1
;Generated with Cura_SteamEngine 5.8.1
M140 S65
M105
M190 S65
M104 S210
M105
M109 S210
M82 ;absolute extrusion mode
G28 ; home all axes
M117 ; Purge extruder
M420 S1 ; enable bed mesh
G92 E0 ; reset extruder
G1 Z1.0 F3000 ; move z up little to prevent scratching of surface
G1 X2 Y20 Z0.3 F5000.0 ; move to start-line position
G1 X2 Y200.0 Z0.3 F1500.0 E15 ; draw 1st line
G1 X2 Y200.0 Z0.4 F5000.0 ; move to side a little
G1 X2 Y20 Z0.4 F1500.0 E30 ; draw 2nd line
G92 E0 ; reset extruder
G1 Z1.0 F3000 ; move z up little to prevent scratching of surface
G92 E0
G92 E0
G1 F1500 E-2
;LAYER_COUNT:150
;LAYER:0
M106 S51
;MESH:Bry??a1(1)
G0 F3600 X126.167 Y54.147 Z0.2
;TYPE:WALL-OUTER
G1 F1500 E0
G1 X125.267 Y54.152 E0.02964
G1 X124.347 Y53.959 E0.06059
G1 X123.578 Y53.616 E0.08831
G1 X122.833 Y53.073 E0.11867
G1 X122.245 Y52.421 E0.14758
G1 X121.798 Y51.659 E0.17667
G1 X121.526 Y50.825 E0.20555
G1 X121.428 Y49.906 E0.23599
G1 X121.522 Y49.026 E0.26513
G1 X121.791 Y48.189 E0.29408
G1 X122.253 Y47.391 E0.32444
G1 X122.849 Y46.74 E0.3535
G1 X123.561 Y46.22 E0.38253
G1 X124.358 Y45.866 E0.41125
G1 X125.223 Y45.679 E0.44039
G1 X126.148 Y45.679 E0.47084
G1 X127.011 Y45.862 E0.49989
G1 X127.838 Y46.237 E0.52979
G1 X128.514 Y46.729 E0.55732
G1 X129.121 Y47.394 E0.58697
G1 X129.592 Y48.207 E0.61791
G1 X129.854 Y49.023 E0.64613
G1 X129.948 Y49.894 E0.67497
G1 X129.859 Y50.775 E0.70413
G1 X129.57 Y51.67 E0.7351
G1 X129.136 Y52.42 E0.76363
G1 X128.557 Y53.06 E0.79205
G1 X127.834 Y53.594 E0.82165
G1 X126.987 Y53.971 E0.85217
G1 X126.167 Y54.147 E0.87979
G1 F1500 E-1.12021
G0 F3600 X125.479 Y169.759
G1 F1500 E0.87979
G1 X125.611 Y169.656 E0.8853
G1 X127.428 Y169.656 E0.94513
G1 X127.43 Y56.803 E4.6611
G1 X127.499 Y56.285 E4.67831
G1 X127.728 Y55.708 E4.69875
G1 X128.089 Y55.24 E4.71821
G1 X128.537 Y54.901 E4.73671
G1 X129.341 Y54.339 E4.76901
G1 X130.041 Y53.654 E4.80126
G1 X130.608 Y52.861 E4.83336
G1 X131.036 Y51.997 E4.86511
G1 X131.308 Y51.071 E4.89689
G1 X131.423 Y50.107 E4.92886
G1 X131.373 Y49.14 E4.96074
G1 X131.163 Y48.199 E4.99249
G1 X130.795 Y47.299 E5.0245
G1 X130.286 Y46.481 E5.05623
G1 X129.64 Y45.754 E5.08825
G1 X128.882 Y45.145 E5.12027
G1 X128.053 Y44.687 E5.15145
G1 X127.13 Y44.361 E5.18368
G1 X126.173 Y44.196 E5.21566
G1 X125.206 Y44.196 E5.2475
G1 X124.25 Y44.361 E5.27945
G1 X123.327 Y44.683 E5.31163
G1 X122.494 Y45.145 E5.343
G1 X121.733 Y45.754 E5.37509
G1 X121.097 Y46.473 E5.4067
G1 X120.585 Y47.292 E5.4385
G1 X120.213 Y48.199 E5.47078
G1 X120.003 Y49.132 E5.50227
G1 X119.953 Y50.103 E5.53429
G1 X120.068 Y51.068 E5.56629
G1 X120.336 Y51.989 E5.59787
G1 X120.768 Y52.869 E5.63015
G1 X121.331 Y53.65 E5.66185
G1 X122.019 Y54.331 E5.69373
G1 X122.854 Y54.909 E5.72717
G1 X123.292 Y55.244 E5.74533
G1 X123.648 Y55.713 E5.76471
G1 X123.873 Y56.252 E5.78395
G1 X123.946 Y56.802 E5.80221
G1 X123.948 Y199.656 E10.50604
G1 X125.428 Y199.656 E10.55478
G1 X125.428 Y169.916 E11.53404
G1 X125.479 Y169.759 E11.53948
G0 F3600 X125.207 Y169.555
;TYPE:WALL-INNER
G1 F1500 X125.457 Y169.362 E11.54988
G1 X125.688 Y169.316 E11.55763
G1 X127.088 Y169.316 E11.60373
G1 X127.093 Y56.758 E15.30999
G1 X127.172 Y56.167 E15.32962
G1 X127.43 Y55.54 E15.35195
G1 X127.842 Y55 E15.37431
G1 X128.343 Y54.623 E15.39496
G1 X129.123 Y54.076 E15.42633
G1 X129.782 Y53.432 E15.45667
G1 X130.315 Y52.685 E15.48688
G1 X130.718 Y51.872 E15.51676
G1 X130.973 Y51.003 E15.54658
G1 X131.082 Y50.095 E15.5767
G1 X131.035 Y49.186 E15.60667
G1 X130.837 Y48.301 E15.63653
G1 X130.491 Y47.454 E15.66665
G1 X130.013 Y46.685 E15.69647
G1 X129.405 Y46.001 E15.7266
G1 X128.692 Y45.429 E15.7567
G1 X127.913 Y44.998 E15.78602
G1 X127.044 Y44.691 E15.81636
G1 X126.145 Y44.536 E15.8464
G1 X125.235 Y44.536 E15.87637
G1 X124.335 Y44.691 E15.90644
G1 X123.467 Y44.994 E15.93671
G1 X122.684 Y45.428 E15.96619
G1 X121.968 Y46.001 E15.99638
G1 X121.371 Y46.677 E16.02608
G1 X120.889 Y47.447 E16.05599
G1 X120.539 Y48.301 E16.08638
G1 X120.34 Y49.179 E16.11603
G1 X120.294 Y50.091 E16.14609
G1 X120.403 Y51 E16.17624
G1 X120.654 Y51.866 E16.20593
G1 X121.06 Y52.694 E16.23629
G1 X121.59 Y53.428 E16.2661
G1 X122.237 Y54.068 E16.29607
G1 X123.061 Y54.639 E16.32908
G1 X123.537 Y55.003 E16.34881
G1 X123.948 Y55.548 E16.37129
G1 X124.203 Y56.163 E16.39321
G1 X124.283 Y56.758 E16.41298
G1 X124.288 Y199.316 E21.10706
G1 X125.088 Y199.316 E21.1334
G1 X125.088 Y169.916 E22.10147
G1 X125.207 Y169.555 E22.11399
G0 F3600 X124.688 Y169.916
G1 F1500 X124.688 Y198.916 E23.06889
G1 F1500 E21.06889
G0 F3600 X123.024 Y198.916
G0 X122.29 Y55.644
G0 X123.279 Y54.298
G1 F1500 E23.06889
G1 F1492.5 X123.121 Y54.2 E23.07504
G1 F1481.5 X122.416 Y53.697 E23.10391
G1 F1435.4 X121.902 Y53.161 E23.12947
G1 F1496.3 X121.652 Y52.848 E23.14269
G1 X121.412 Y52.483 E23.15711
G1 F1500 X121.144 Y51.981 E23.17585
G1 F1519 X121.033 Y51.72 E23.18507
G1 F1492.5 X120.793 Y50.921 E23.21268
G1 X120.687 Y49.994 E23.24355
G1 F1449.3 X120.746 Y49.234 E23.26953
G1 F1503.8 X120.81 Y48.866 E23.2818
G1 F1507.5 X120.929 Y48.424 E23.2968
G1 X121.116 Y47.913 E23.31463
G1 F1519 X121.25 Y47.632 E23.32475
G1 F1477.8 X121.662 Y46.946 E23.35149
G1 F1474.2 X122.295 Y46.241 E23.38324
G1 F1449.3 X122.911 Y45.768 E23.40971
G1 F1507.5 X123.207 Y45.583 E23.42114
G1 F1503.8 X123.634 Y45.368 E23.43684
G1 F1511.3 X124.118 Y45.179 E23.45382
G1 F1522.8 X124.436 Y45.085 E23.46458
G1 F1467 X125.214 Y44.936 E23.49125
G1 F1477.8 X126.161 Y44.936 E23.5229
G1 F1470.6 X126.942 Y45.084 E23.5496
G1 F1530.6 X127.252 Y45.175 E23.56002
G1 F1519 X127.746 Y45.371 E23.5773
G1 F1511.3 X128.163 Y45.581 E23.59256
G1 X128.464 Y45.769 E23.60416
G1 F1452.8 X129.081 Y46.242 E23.63059
G1 F1481.5 X129.692 Y46.925 E23.66114
G1 F1477.8 X130.129 Y47.639 E23.68912
G1 F1515.2 X130.259 Y47.914 E23.69904
G1 F1507.5 X130.447 Y48.423 E23.71681
G1 X130.565 Y48.864 E23.73177
G1 X130.63 Y49.241 E23.7443
G1 F1449.3 X130.688 Y49.991 E23.76994
G1 F1485.1 X130.582 Y50.923 E23.80114
G1 F1488.8 X130.34 Y51.725 E23.82893
G1 F1519 X130.231 Y51.979 E23.83791
G1 F1515.2 X129.966 Y52.476 E23.85628
G1 F1526.7 X129.728 Y52.842 E23.8704
G1 F1515.2 X129.471 Y53.165 E23.88385
G1 F1496.3 X129.058 Y53.592 E23.90346
G1 F1511.3 X128.864 Y53.764 E23.91194
G1 F1488.8 X128.257 Y54.198 E23.93669
G1 F1481.5 X128.095 Y54.3 E23.94307
G1 F1463.4 X127.24 Y54.673 E23.97456
G1 F1485.1 X126.225 Y54.892 E24.00909
G1 F1500 X125.167 Y54.892 E24.04393
G1 F1492.5 X124.146 Y54.679 E24.07844
G1 F1470.6 X123.279 Y54.298 E24.11025
G1 F1481.5 X123.712 Y54.633 E24.1285
G1 F1500 X123.901 Y54.822 E24.1373
G1 X124.217 Y55.239 E24.15453
G1 X124.344 Y55.458 E24.16287
G1 X124.593 Y56.059 E24.18429
G1 X124.688 Y56.766 E24.20777
G1 X124.688 Y169.916 E27.93353
G1 X124.887 Y169.315 E27.95437
G1 X125.303 Y168.992 E27.97171
G1 X125.688 Y168.916 E27.98464
G1 X126.688 Y168.916 E28.01756
G1 X126.688 Y56.765 E31.71042
G1 X126.783 Y56.063 E31.73374
G1 X127.03 Y55.46 E31.7552
G1 X127.162 Y55.231 E31.7639
G1 X127.483 Y54.812 E31.78128
G1 X127.669 Y54.63 E31.78985
G1 F1474.2 X128.095 Y54.3 E31.80791
G1 F1500 E29.80791
G0 F3600 X126.178 Y54.492
G1 F1500 E31.80791
G1 X125.205 Y54.492 E31.83995
G1 X124.264 Y54.295 E31.8716
G1 X123.384 Y53.902 E31.90334
G1 X122.618 Y53.341 E31.9346
G1 X121.969 Y52.62 E31.96654
G1 X121.476 Y51.78 E31.99861
G1 X121.184 Y50.854 E32.03058
G1 X121.084 Y49.922 E32.06145
G1 X121.19 Y48.951 E32.09361
G1 X121.476 Y48.06 E32.12442
G1 X121.965 Y47.202 E32.15694
G1 X122.605 Y46.498 E32.18827
G1 X123.396 Y45.923 E32.22047
G1 X124.246 Y45.545 E32.2511
G1 X125.202 Y45.336 E32.28332
G1 X126.169 Y45.336 E32.31516
G1 X127.124 Y45.54 E32.34732
G1 X127.975 Y45.922 E32.37803
G1 X128.76 Y46.487 E32.40988
G1 X129.408 Y47.206 E32.44175
G1 X129.893 Y48.034 E32.47335
G1 X130.191 Y48.956 E32.50526
G1 X130.291 Y49.914 E32.53697
G1 X130.192 Y50.868 E32.56855
G1 X129.898 Y51.779 E32.60007
G1 X129.413 Y52.617 E32.63195
G1 X128.769 Y53.334 E32.66369
G1 X127.985 Y53.904 E32.69561
G1 X127.122 Y54.289 E32.72672
G1 X126.178 Y54.492 E32.75852
G0 F3600 X126.776 Y55.138
;TYPE:SKIN
G1 F1500 X126.275 Y55.248 E32.77541
G1 X125.102 Y55.248 E32.81403
G1 X124.602 Y55.142 E32.83086
G1 X124.941 Y55.964 E32.86014
G1 X125.047 Y56.73 E32.8856
G1 X125.049 Y168.741 E36.57385
G1 X125.205 Y168.647 E36.57984
G1 X125.653 Y168.559 E36.59488
G1 X126.328 Y168.556 E36.6171
G1 X126.329 Y56.728 E40.29932
G1 X126.41 Y56.11 E40.31985
G1 X126.491 Y55.821 E40.32973
G1 X126.776 Y55.138 E40.3541
G0 F3600 X126.349 Y55.639
G1 F1500 X126.163 Y55.452 E40.36278
G0 F3600 X125.597 Y55.452
G1 F1500 X126.215 Y56.07 E40.39156
G0 F3600 X126.149 Y56.569
G1 F1500 X125.009 Y55.429 E40.44465
G0 F3600 X125.171 Y56.158
G1 F1500 X126.131 Y57.117 E40.48933
G0 F3600 X126.131 Y57.683
G1 F1500 X125.245 Y56.797 E40.53059
G0 F3600 X125.245 Y57.363
G1 F1500 X126.131 Y58.249 E40.57184
G0 F3600 X126.131 Y58.814
G1 F1500 X125.245 Y57.928 E40.6131
G0 F3600 X125.245 Y58.494
G1 F1500 X126.131 Y59.38 E40.65436
G0 F3600 X126.131 Y59.946
G1 F1500 X125.245 Y59.06 E40.69562
G0 F3600 X125.245 Y59.625
G1 F1500 X126.131 Y60.511 E40.73688
G0 F3600 X126.131 Y61.077
G1 F1500 X125.245 Y60.191 E40.77813
G0 F3600 X125.245 Y60.757
G1 F1500 X126.131 Y61.643 E40.81939
G0 F3600 X126.131 Y62.208
G1 F1500 X125.245 Y61.322 E40.86065
G0 F3600 X125.245 Y61.888
G1 F1500 X126.131 Y62.774 E40.90191
G0 F3600 X126.131 Y63.34
G1 F1500 X125.245 Y62.454 E40.94317
G0 F3600 X125.245 Y63.019
G1 F1500 X126.131 Y63.905 E40.98442
G0 F3600 X126.131 Y64.471
G1 F1500 X125.245 Y63.585 E41.02568
G0 F3600 X125.245 Y64.151
G1 F1500 X126.131 Y65.037 E41.06694
G0 F3600 X126.131 Y65.603
G1 F1500 X125.245 Y64.717 E41.1082
G0 F3600 X125.245 Y65.282
G1 F1500 X126.131 Y66.168 E41.14945
G0 F3600 X126.131 Y66.734
G1 F1500 X125.245 Y65.848 E41.19071
G0 F3600 X125.245 Y66.414
G1 F1500 X126.131 Y67.3 E41.23197
G0 F3600 X126.131 Y67.865
G1 F1500 X125.245 Y66.979 E41.27323
G0 F3600 X125.245 Y67.545
G1 F1500 X126.131 Y68.431 E41.31449
G0 F3600 X126.131 Y68.997
G1 F1500 X125.245 Y68.111 E41.35574
G0 F3600 X125.245 Y68.676
G1 F1500 X126.131 Y69.562 E41.397
G0 F3600 X126.131 Y70.128
G1 F1500 X125.245 Y69.242 E41.43826
G0 F3600 X125.245 Y69.808
G1 F1500 X126.131 Y70.694 E41.47952
G0 F3600 X126.131 Y71.259
G1 F1500 X125.245 Y70.373 E41.52078
G0 F3600 X125.245 Y70.939
G1 F1500 X126.131 Y71.825 E41.56203
G0 F3600 X126.131 Y72.391
G1 F1500 X125.245 Y71.505 E41.60329
G0 F3600 X125.245 Y72.07
G1 F1500 X126.131 Y72.956 E41.64455
G0 F3600 X126.131 Y73.522
G1 F1500 X125.245 Y72.636 E41.68581
G0 F3600 X125.245 Y73.202
G1 F1500 X126.131 Y74.088 E41.72707
G0 F3600 X126.131 Y74.654
G1 F1500 X125.245 Y73.768 E41.76832
G0 F3600 X125.245 Y74.333
G1 F1500 X126.131 Y75.219 E41.80958
G0 F3600 X126.131 Y75.785
G1 F1500 X125.245 Y74.899 E41.85084
G0 F3600 X125.246 Y75.465
G1 F1500 X126.131 Y76.351 E41.89208
G0 F3600 X126.131 Y76.916
G1 F1500 X125.246 Y76.031 E41.93329
G0 F3600 X125.246 Y76.597
G1 F1500 X126.131 Y77.482 E41.9745
G0 F3600 X126.131 Y78.048
G1 F1500 X125.246 Y77.162 E42.01573
G0 F3600 X125.246 Y77.728
G1 F1500 X126.131 Y78.613 E42.05694
G0 F3600 X126.131 Y79.179
G1 F1500 X125.246 Y78.294 E42.09816
G0 F3600 X125.246 Y78.859
G1 F1500 X126.131 Y79.745 E42.13939
G0 F3600 X126.131 Y80.31
G1 F1500 X125.246 Y79.425 E42.1806
G0 F3600 X125.246 Y79.991
G1 F1500 X126.131 Y80.876 E42.22181
G0 F3600 X126.131 Y81.442
G1 F1500 X125.246 Y80.556 E42.26305
G0 F3600 X125.246 Y81.122
G1 F1500 X126.131 Y82.007 E42.30426
G0 F3600 X126.131 Y82.573
G1 F1500 X125.246 Y81.688 E42.34547
G0 F3600 X125.246 Y82.253
G1 F1500 X126.131 Y83.139 E42.38671
G0 F3600 X126.131 Y83.704
G1 F1500 X125.246 Y82.819 E42.42792
G0 F3600 X125.246 Y83.385
G1 F1500 X126.131 Y84.27 E42.46913
G0 F3600 X126.13 Y84.835
G1 F1500 X125.246 Y83.951 E42.51029
G0 F3600 X125.246 Y84.516
G1 F1500 X126.13 Y85.401 E42.55148
G0 F3600 X126.13 Y85.967
G1 F1500 X125.246 Y85.082 E42.59267
G0 F3600 X125.246 Y85.648
G1 F1500 X126.13 Y86.532 E42.63383
G0 F3600 X126.13 Y87.098
G1 F1500 X125.246 Y86.213 E42.67502
G0 F3600 X125.246 Y86.779
G1 F1500 X126.13 Y87.664 E42.71621
G0 F3600 X126.13 Y88.229
G1 F1500 X125.246 Y87.345 E42.75738
G0 F3600 X125.246 Y87.91
G1 F1500 X126.13 Y88.795 E42.79856
G0 F3600 X126.13 Y89.361
G1 F1500 X125.246 Y88.476 E42.83975
G0 F3600 X125.246 Y89.042
G1 F1500 X126.13 Y89.926 E42.88092
G0 F3600 X126.13 Y90.492
G1 F1500 X125.246 Y89.607 E42.9221
G0 F3600 X125.246 Y90.173
G1 F1500 X126.13 Y91.058 E42.96329
G0 F3600 X126.13 Y91.623
G1 F1500 X125.246 Y90.739 E43.00446
G0 F3600 X125.246 Y91.304
G1 F1500 X126.13 Y92.189 E43.04565
G0 F3600 X126.13 Y92.755
G1 F1500 X125.246 Y91.87 E43.08683
G0 F3600 X125.246 Y92.436
G1 F1500 X126.13 Y93.32 E43.128
G0 F3600 X126.13 Y93.886
G1 F1500 X125.246 Y93.002 E43.16916
G0 F3600 X125.246 Y93.567
G1 F1500 X126.13 Y94.452 E43.21035
G0 F3600 X126.13 Y95.017
G1 F1500 X125.246 Y94.134 E43.25149
G0 F3600 X125.246 Y94.699
G1 F1500 X126.13 Y95.583 E43.29266
G0 F3600 X126.13 Y96.149
G1 F1500 X125.246 Y95.265 E43.33382
G0 F3600 X125.246 Y95.831
G1 F1500 X126.13 Y96.715 E43.37499
G0 F3600 X126.13 Y97.28
G1 F1500 X125.246 Y96.396 E43.41615
G0 F3600 X125.246 Y96.962
G1 F1500 X126.13 Y97.846 E43.45732
G0 F3600 X126.13 Y98.412
G1 F1500 X125.246 Y97.528 E43.49848
G0 F3600 X125.246 Y98.093
G1 F1500 X126.13 Y98.977 E43.53965
G0 F3600 X126.13 Y99.543
G1 F1500 X125.246 Y98.659 E43.58081
G0 F3600 X125.246 Y99.225
G1 F1500 X126.13 Y100.109 E43.62198
G0 F3600 X126.13 Y100.674
G1 F1500 X125.246 Y99.79 E43.66314
G0 F3600 X125.246 Y100.356
G1 F1500 X126.13 Y101.24 E43.70431
G0 F3600 X126.13 Y101.806
G1 F1500 X125.246 Y100.922 E43.74547
G0 F3600 X125.246 Y101.488
G1 F1500 X126.13 Y102.371 E43.78661
G0 F3600 X126.13 Y102.937
G1 F1500 X125.246 Y102.053 E43.82778
G0 F3600 X125.246 Y102.619
G1 F1500 X126.13 Y103.503 E43.86894
G0 F3600 X126.13 Y104.068
G1 F1500 X125.246 Y103.185 E43.91008
G0 F3600 X125.246 Y103.75
G1 F1500 X126.13 Y104.634 E43.95125
G0 F3600 X126.13 Y105.2
G1 F1500 X125.246 Y104.316 E43.99241
G0 F3600 X125.246 Y104.882
G1 F1500 X126.13 Y105.765 E44.03356
G0 F3600 X126.13 Y106.331
G1 F1500 X125.246 Y105.447 E44.07472
G0 F3600 X125.246 Y106.013
G1 F1500 X126.13 Y106.897 E44.11588
G0 F3600 X126.13 Y107.463
G1 F1500 X125.246 Y106.579 E44.15705
G0 F3600 X125.246 Y107.144
G1 F1500 X126.13 Y108.028 E44.19821
G0 F3600 X126.13 Y108.594
G1 F1500 X125.246 Y107.71 E44.23938
G0 F3600 X125.246 Y108.276
G1 F1500 X126.13 Y109.16 E44.28054
G0 F3600 X126.13 Y109.725
G1 F1500 X125.246 Y108.841 E44.32171
G0 F3600 X125.246 Y109.407
G1 F1500 X126.13 Y110.291 E44.36287
G0 F3600 X126.13 Y110.857
G1 F1500 X125.246 Y109.973 E44.40404
G0 F3600 X125.246 Y110.538
G1 F1500 X126.13 Y111.422 E44.4452
G0 F3600 X126.13 Y111.988
G1 F1500 X125.246 Y111.104 E44.48637
G0 F3600 X125.246 Y111.67
G1 F1500 X126.129 Y112.553 E44.52749
G0 F3600 X126.129 Y113.119
G1 F1500 X125.246 Y112.236 E44.56861
G0 F3600 X125.247 Y112.802
G1 F1500 X126.129 Y113.684 E44.60968
G0 F3600 X126.129 Y114.25
G1 F1500 X125.247 Y113.368 E44.65075
G0 F3600 X125.247 Y113.933
G1 F1500 X126.129 Y114.816 E44.69184
G0 F3600 X126.129 Y115.381
G1 F1500 X125.247 Y114.499 E44.73292
G0 F3600 X125.247 Y115.065
G1 F1500 X126.129 Y115.947 E44.77399
G0 F3600 X126.129 Y116.513
G1 F1500 X125.247 Y115.63 E44.81508
G0 F3600 X125.247 Y116.196
G1 F1500 X126.129 Y117.078 E44.85615
G0 F3600 X126.129 Y117.644
G1 F1500 X125.247 Y116.762 E44.89723
G0 F3600 X125.247 Y117.327
G1 F1500 X126.129 Y118.21 E44.93832
