;FLAVOR:Marlin
;TIME:1153
;Filament used: 1.92996m
;Layer height: 0.3
;MINX:115.384
;MINY:141.929
;MINZ:0.2
;MAXX:180.471
;MAXY:207.022
;MAXZ:3.5
;TARGET_MACHINE.NAME:Artillery Sidewinder X1
;Generated with Cura_SteamEngine 5.8.1
M140 S65
M105
M190 S65
M104 S210
M105
M109 S210
M82 ;absolute extrusion mode
G28 ; home all axes
M117 ; Purge extruder
M420 S1 ; enable bed mesh
G92 E0 ; reset extruder
G1 Z1.0 F3000 ; move z up little to prevent scratching of surface
G1 X2 Y20 Z0.3 F5000.0 ; move to start-line position
G1 X2 Y200.0 Z0.3 F1500.0 E15 ; draw 1st line
G1 X2 Y200.0 Z0.4 F5000.0 ; move to side a little
G1 X2 Y20 Z0.4 F1500.0 E30 ; draw 2nd line
G92 E0 ; reset extruder
G1 Z1.0 F3000 ; move z up little to prevent scratching of surface
G92 E0
G92 E0
G1 F1500 E-2
;LAYER_COUNT:12
;LAYER:0
M106 S51
G0 F3600 X126.207 Y150.24 Z0.2
;TYPE:SKIRT
G1 F1500 E0
G1 X127.677 Y148.999 E0.06335
G1 X129.274 Y147.808 E0.12894
G1 X130.9 Y146.74 E0.193
G1 X132.527 Y145.802 E0.25484
G1 X134.335 Y144.903 E0.32133
G1 X136.114 Y144.145 E0.385
G1 X137.803 Y143.541 E0.44406
G1 X139.835 Y142.951 E0.51374
G1 X141.734 Y142.521 E0.57785
G1 X143.656 Y142.208 E0.64197
G1 X145.592 Y142.008 E0.70606
G1 X147.37 Y141.929 E0.76466
G1 X149.485 Y141.963 E0.83431
G1 X151.259 Y142.096 E0.89289
G1 X153.351 Y142.378 E0.96239
G1 X155.098 Y142.72 E1.02101
G1 X157.107 Y143.247 E1.0894
G1 X159.002 Y143.867 E1.15505
G1 X160.813 Y144.582 E1.21916
G1 X162.493 Y145.363 E1.28017
G1 X164.163 Y146.262 E1.34262
G1 X165.943 Y147.361 E1.4115
G1 X167.532 Y148.485 E1.47559
G1 X168.961 Y149.626 E1.5358
G1 X170.45 Y150.969 E1.60183
G1 X171.861 Y152.403 E1.66807
G1 X173.06 Y153.78 E1.72819
G1 X174.263 Y155.337 E1.79298
G1 X175.414 Y157.029 E1.86036
G1 X176.344 Y158.588 E1.92013
G1 X177.3 Y160.436 E1.98865
G1 X178.089 Y162.218 E2.05282
G1 X178.714 Y163.886 E2.11147
G1 X179.336 Y165.906 E2.18106
G1 X179.793 Y167.792 E2.24496
G1 X180.111 Y169.542 E2.30353
G1 X180.358 Y171.647 E2.37332
G1 X180.471 Y173.582 E2.43714
G1 X180.464 Y175.542 E2.50168
G1 X180.343 Y177.484 E2.56575
G1 X180.118 Y179.346 E2.62751
G1 X179.756 Y181.332 E2.69398
G1 X179.333 Y183.06 E2.75256
G1 X178.71 Y185.075 E2.822
G1 X178.085 Y186.744 E2.88069
G1 X177.22 Y188.682 E2.95057
G1 X176.316 Y190.41 E3.01478
G1 X175.324 Y192.058 E3.07812
G1 X174.21 Y193.683 E3.14299
G1 X173.032 Y195.198 E3.20618
G1 X171.733 Y196.682 E3.27112
G1 X170.413 Y198.017 E3.33294
G1 X168.91 Y199.363 E3.39938
G1 X167.381 Y200.576 E3.46364
G1 X165.788 Y201.691 E3.52767
G1 X164.17 Y202.686 E3.59021
G1 X162.454 Y203.606 E3.65432
G1 X160.731 Y204.404 E3.71685
G1 X158.827 Y205.146 E3.78413
G1 X157.04 Y205.725 E3.84599
G1 X155.087 Y206.232 E3.91243
G1 X153.34 Y206.575 E3.97105
G1 X151.243 Y206.856 E4.04072
G1 X149.303 Y206.996 E4.10476
G1 X147.354 Y207.022 E4.16894
G1 X145.412 Y206.928 E4.23296
G1 X143.545 Y206.729 E4.29479
G1 X141.548 Y206.394 E4.36146
G1 X139.657 Y205.955 E4.42538
G1 X137.792 Y205.406 E4.4894
G1 X136.114 Y204.806 E4.54808
G1 X134.181 Y203.978 E4.61732
G1 X132.557 Y203.165 E4.67712
G1 X130.743 Y202.118 E4.74609
G1 X129.257 Y201.136 E4.80474
G1 X127.568 Y199.867 E4.8743
G1 X126.102 Y198.619 E4.93769
G1 X124.697 Y197.271 E5.0018
G1 X123.439 Y195.912 E5.06278
G1 X122.127 Y194.314 E5.13086
G1 X121.053 Y192.834 E5.19108
G1 X119.971 Y191.133 E5.25746
G1 X119.072 Y189.518 E5.31832
G1 X118.165 Y187.633 E5.3872
G1 X117.425 Y185.822 E5.45162
G1 X116.802 Y183.98 E5.51564
G1 X116.329 Y182.266 E5.57419
G1 X115.889 Y180.202 E5.64368
G1 X115.624 Y178.441 E5.70232
G1 X115.437 Y176.328 E5.77217
G1 X115.384 Y174.386 E5.83614
G1 X115.438 Y172.607 E5.89474
G1 X115.625 Y170.498 E5.96446
G1 X115.891 Y168.737 E6.0231
G1 X116.318 Y166.736 E6.09047
G1 X116.855 Y164.797 E6.15672
G1 X117.43 Y163.114 E6.21528
G1 X118.21 Y161.217 E6.28282
G1 X119.088 Y159.399 E6.3493
G1 X120.015 Y157.745 E6.41173
G1 X121.023 Y156.167 E6.47339
G1 X122.236 Y154.5 E6.54127
G1 X123.483 Y152.994 E6.60565
G1 X124.813 Y151.565 E6.66993
G1 X126.207 Y150.24 E6.73326
G0 F3600 X126.465 Y150.546
G1 F1500 X127.916 Y149.32 E6.79581
G1 X129.494 Y148.142 E6.86065
G1 X131.1 Y147.087 E6.92392
G1 X132.727 Y146.149 E6.98576
G1 X134.492 Y145.271 E7.05067
G1 X136.249 Y144.522 E7.11356
G1 X137.938 Y143.918 E7.17263
G1 X139.923 Y143.341 E7.24069
G1 X141.798 Y142.916 E7.304
G1 X143.697 Y142.606 E7.36736
G1 X145.61 Y142.408 E7.43068
G1 X147.388 Y142.329 E7.48929
G1 X149.455 Y142.362 E7.55736
G1 X151.229 Y142.495 E7.61593
G1 X153.274 Y142.771 E7.68388
G1 X155.021 Y143.113 E7.7425
G1 X157.005 Y143.634 E7.81004
G1 X158.855 Y144.239 E7.87413
G1 X160.644 Y144.945 E7.93746
G1 X162.324 Y145.726 E7.99846
G1 X163.973 Y146.614 E8.06013
G1 X165.712 Y147.688 E8.12743
G1 X167.282 Y148.798 E8.19074
G1 X168.711 Y149.939 E8.25096
G1 X170.182 Y151.266 E8.31619
G1 X171.559 Y152.666 E8.38085
G1 X172.743 Y154.025 E8.4402
G1 X173.946 Y155.582 E8.50499
G1 X175.07 Y157.234 E8.57078
G1 X176 Y158.793 E8.63055
G1 X176.934 Y160.598 E8.69747
G1 X177.714 Y162.358 E8.76086
G1 X178.339 Y164.026 E8.81952
G1 X178.947 Y166 E8.88753
G1 X179.399 Y167.864 E8.95068
G1 X179.717 Y169.614 E9.00925
G1 X179.959 Y171.67 E9.07742
G1 X180.071 Y173.581 E9.14045
G1 X180.065 Y175.517 E9.2042
G1 X179.946 Y177.436 E9.26751
G1 X179.721 Y179.298 E9.32926
G1 X179.367 Y181.237 E9.39417
G1 X178.944 Y182.965 E9.45274
G1 X178.335 Y184.935 E9.52064
G1 X177.71 Y186.604 E9.57932
G1 X176.865 Y188.497 E9.64758
G1 X175.973 Y190.204 E9.711
G1 X174.994 Y191.832 E9.77355
G1 X173.894 Y193.437 E9.83762
G1 X172.716 Y194.952 E9.90081
G1 X171.449 Y196.401 E9.96419
G1 X170.146 Y197.719 E10.02522
G1 X168.661 Y199.05 E10.09088
G1 X167.152 Y200.248 E10.15433
G1 X165.578 Y201.35 E10.21759
G1 X163.981 Y202.333 E10.27934
G1 X162.265 Y203.253 E10.34345
G1 X160.586 Y204.031 E10.40439
G1 X158.704 Y204.765 E10.4709
G1 X156.917 Y205.344 E10.53276
G1 X155.01 Y205.839 E10.59763
G1 X153.263 Y206.182 E10.65625
G1 X151.214 Y206.457 E10.72433
G1 X149.298 Y206.596 E10.78758
G1 X147.373 Y206.622 E10.85097
G1 X145.454 Y206.53 E10.91423
G1 X143.587 Y206.331 E10.97606
G1 X141.638 Y206.004 E11.04113
G1 X139.77 Y205.571 E11.10427
G1 X137.927 Y205.029 E11.16752
G1 X136.249 Y204.429 E11.2262
G1 X134.36 Y203.62 E11.29387
G1 X132.757 Y202.818 E11.35289
G1 X130.964 Y201.784 E11.42104
G1 X129.478 Y200.802 E11.47969
G1 X127.827 Y199.562 E11.54768
G1 X126.379 Y198.33 E11.61028
G1 X124.991 Y196.999 E11.6736
G1 X123.733 Y195.64 E11.73458
G1 X122.451 Y194.079 E11.80109
G1 X121.391 Y192.619 E11.8605
G1 X120.309 Y190.918 E11.92688
G1 X119.421 Y189.323 E11.98699
G1 X118.535 Y187.482 E12.05426
G1 X117.804 Y185.694 E12.11787
G1 X117.188 Y183.874 E12.18114
G1 X116.715 Y182.16 E12.23968
G1 X116.285 Y180.142 E12.30762
G1 X116.02 Y178.381 E12.36626
G1 X115.837 Y176.317 E12.43449
G1 X115.784 Y174.398 E12.4977
G1 X115.838 Y172.619 E12.55631
G1 X116.021 Y170.558 E12.62444
G1 X116.287 Y168.797 E12.68308
G1 X116.709 Y166.82 E12.74965
G1 X117.234 Y164.926 E12.81436
G1 X117.809 Y163.243 E12.87292
G1 X118.57 Y161.391 E12.93885
G1 X119.437 Y159.595 E13.00452
G1 X120.364 Y157.941 E13.06695
G1 X121.36 Y156.382 E13.12787
G1 X122.544 Y154.755 E13.19413
G1 X123.776 Y153.266 E13.25776
G1 X125.089 Y151.855 E13.32123
G1 X126.465 Y150.546 E13.38376
G0 F3600 X126.723 Y150.852
G1 F1500 X128.174 Y149.626 E13.44631
G1 X129.714 Y148.476 E13.5096
G1 X131.3 Y147.434 E13.57208
G1 X132.927 Y146.496 E13.63392
G1 X134.649 Y145.639 E13.69726
G1 X136.384 Y144.899 E13.75937
G1 X138.073 Y144.295 E13.81843
G1 X140.011 Y143.731 E13.88489
G1 X141.863 Y143.311 E13.94742
G1 X143.738 Y143.004 E14.00998
G1 X145.628 Y142.808 E14.07255
G1 X147.406 Y142.729 E14.13115
G1 X149.425 Y142.761 E14.19764
G1 X151.199 Y142.894 E14.25622
G1 X153.197 Y143.164 E14.32261
G1 X154.944 Y143.506 E14.38122
G1 X156.881 Y144.014 E14.44716
G1 X158.708 Y144.611 E14.51045
G1 X160.475 Y145.308 E14.57299
G1 X162.155 Y146.089 E14.634
G1 X163.763 Y146.954 E14.69412
G1 X165.481 Y148.015 E14.76061
G1 X167.032 Y149.111 E14.82314
G1 X168.461 Y150.252 E14.88336
G1 X169.914 Y151.563 E14.9478
G1 X171.257 Y152.929 E15.01087
G1 X172.426 Y154.27 E15.06945
G1 X173.629 Y155.827 E15.13424
G1 X174.726 Y157.439 E15.19844
G1 X175.656 Y158.998 E15.25822
G1 X176.568 Y160.76 E15.32355
G1 X177.339 Y162.498 E15.38615
G1 X177.964 Y164.166 E15.4448
G1 X178.558 Y166.094 E15.51123
G1 X179.005 Y167.936 E15.57365
G1 X179.323 Y169.686 E15.63221
G1 X179.56 Y171.694 E15.69879
G1 X179.671 Y173.58 E15.761
G1 X179.666 Y175.492 E15.82396
G1 X179.549 Y177.388 E15.88651
G1 X179.324 Y179.25 E15.94826
G1 X178.978 Y181.142 E16.0116
G1 X178.555 Y182.87 E16.07017
G1 X177.96 Y184.795 E16.13652
G1 X177.335 Y186.464 E16.1952
G1 X176.51 Y188.312 E16.26184
G1 X175.63 Y189.998 E16.32446
G1 X174.664 Y191.606 E16.38623
G1 X173.578 Y193.192 E16.44952
G1 X172.415 Y194.689 E16.51194
G1 X171.164 Y196.12 E16.57453
G1 X169.879 Y197.421 E16.63474
G1 X168.412 Y198.737 E16.69963
G1 X166.923 Y199.92 E16.76225
G1 X165.368 Y201.009 E16.82476
G1 X163.792 Y201.98 E16.88572
G1 X162.076 Y202.9 E16.94983
G1 X160.44 Y203.658 E17.0092
G1 X158.581 Y204.384 E17.07491
G1 X156.794 Y204.963 E17.13677
G1 X154.933 Y205.446 E17.20007
G1 X153.186 Y205.789 E17.2587
G1 X151.185 Y206.058 E17.32518
G1 X149.293 Y206.196 E17.38764
G1 X147.392 Y206.222 E17.45024
G1 X145.496 Y206.132 E17.51274
G1 X143.629 Y205.933 E17.57457
G1 X141.728 Y205.614 E17.63804
G1 X139.883 Y205.187 E17.7004
G1 X138.062 Y204.652 E17.76289
G1 X136.384 Y204.052 E17.82157
G1 X134.539 Y203.262 E17.88765
G1 X132.936 Y202.46 E17.94668
G1 X131.185 Y201.45 E18.01324
G1 X129.699 Y200.468 E18.07188
G1 X128.086 Y199.257 E18.1383
G1 X126.656 Y198.041 E18.20011
G1 X125.285 Y196.727 E18.26264
G1 X124.027 Y195.368 E18.32362
G1 X122.775 Y193.844 E18.38856
G1 X121.729 Y192.404 E18.44716
G1 X120.647 Y190.703 E18.51354
G1 X119.77 Y189.128 E18.5729
G1 X118.905 Y187.331 E18.63857
G1 X118.183 Y185.566 E18.70136
G1 X117.574 Y183.768 E18.76387
G1 X117.101 Y182.054 E18.82242
G1 X116.681 Y180.082 E18.88881
G1 X116.416 Y178.321 E18.94745
G1 X116.237 Y176.306 E19.01406
G1 X116.184 Y174.41 E19.07651
G1 X116.238 Y172.631 E19.13512
G1 X116.417 Y170.618 E19.20166
G1 X116.683 Y168.857 E19.26031
G1 X117.095 Y166.927 E19.32529
G1 X117.613 Y165.055 E19.38924
G1 X118.188 Y163.372 E19.44781
G1 X118.93 Y161.565 E19.51213
G1 X119.786 Y159.791 E19.57698
G1 X120.713 Y158.137 E19.63942
G1 X121.697 Y156.597 E19.69959
G1 X122.852 Y155.01 E19.76422
G1 X124.069 Y153.538 E19.82711
G1 X125.365 Y152.145 E19.88976
G1 X126.723 Y150.852 E19.95151
G0 F3600 X126.981 Y151.158
G1 F1500 X128.432 Y149.932 E20.01405
G1 X129.934 Y148.81 E20.07579
G1 X131.5 Y147.781 E20.13749
G1 X133.127 Y146.843 E20.19933
G1 X134.806 Y146.007 E20.26109
G1 X136.519 Y145.276 E20.32241
G1 X138.208 Y144.672 E20.38148
G1 X140.1 Y144.121 E20.44636
G1 X141.928 Y143.706 E20.50809
G1 X143.779 Y143.402 E20.56985
G1 X145.646 Y143.208 E20.63166
G1 X147.424 Y143.129 E20.69026
G1 X149.395 Y143.16 E20.75517
G1 X151.169 Y143.293 E20.81375
G1 X153.12 Y143.557 E20.87857
G1 X154.867 Y143.899 E20.93719
G1 X156.779 Y144.401 E21.00228
G1 X158.561 Y144.983 E21.06401
G1 X160.306 Y145.671 E21.12577
G1 X161.986 Y146.452 E21.18677
G1 X163.573 Y147.306 E21.24612
G1 X165.25 Y148.342 E21.31102
G1 X166.782 Y149.424 E21.37278
G1 X168.211 Y150.565 E21.43299
G1 X169.629 Y151.844 E21.49587
G1 X170.955 Y153.192 E21.55813
G1 X172.124 Y154.533 E21.61671
G1 X173.298 Y156.052 E21.67993
G1 X174.382 Y157.644 E21.74334
G1 X175.312 Y159.203 E21.80312
G1 X176.202 Y160.922 E21.86686
G1 X176.964 Y162.638 E21.92868
G1 X177.589 Y164.306 E21.98733
G1 X178.169 Y166.188 E22.05218
G1 X178.611 Y168.008 E22.11385
G1 X178.929 Y169.758 E22.17242
G1 X179.161 Y171.718 E22.2374
G1 X179.271 Y173.579 E22.29879
G1 X179.267 Y175.467 E22.36096
G1 X179.152 Y177.34 E22.42275
G1 X178.93 Y179.178 E22.48371
G1 X178.589 Y181.047 E22.54626
G1 X178.166 Y182.775 E22.60484
G1 X177.585 Y184.655 E22.66964
G1 X176.96 Y186.324 E22.72832
G1 X176.155 Y188.127 E22.79334
G1 X175.287 Y189.792 E22.85516
G1 X174.334 Y191.38 E22.91614
G1 X173.262 Y192.947 E22.97866
G1 X172.114 Y194.426 E23.04031
G1 X170.879 Y195.839 E23.1021
G1 X169.612 Y197.123 E23.1615
G1 X168.163 Y198.424 E23.22562
G1 X166.694 Y199.592 E23.28742
G1 X165.158 Y200.668 E23.34917
G1 X163.582 Y201.639 E23.41012
G1 X161.908 Y202.537 E23.47267
G1 X160.294 Y203.285 E23.53125
G1 X158.458 Y204.003 E23.59616
G1 X156.671 Y204.582 E23.65802
G1 X154.856 Y205.053 E23.71976
G1 X153.109 Y205.396 E23.77838
G1 X151.156 Y205.659 E23.84327
G1 X149.287 Y205.796 E23.90498
G1 X147.411 Y205.822 E23.96675
G1 X145.538 Y205.734 E24.02849
G1 X143.671 Y205.535 E24.09032
G1 X141.818 Y205.224 E24.15219
G1 X139.996 Y204.803 E24.21376
G1 X138.197 Y204.275 E24.2755
G1 X136.519 Y203.675 E24.33418
G1 X134.718 Y202.904 E24.39868
G1 X133.115 Y202.102 E24.4577
G1 X131.406 Y201.116 E24.52267
G1 X129.92 Y200.134 E24.58132
G1 X128.345 Y198.952 E24.64616
G1 X126.933 Y197.752 E24.70718
G1 X125.579 Y196.455 E24.76891
G1 X124.321 Y195.096 E24.82989
G1 X123.099 Y193.609 E24.89327
G1 X122.053 Y192.169 E24.95187
G1 X120.996 Y190.508 E25.0167
G1 X120.119 Y188.933 E25.07606
G1 X119.275 Y187.179 E25.14015
G1 X118.562 Y185.438 E25.2021
G1 X117.96 Y183.662 E25.26385
G1 X117.487 Y181.948 E25.3224
G1 X117.077 Y180.022 E25.38723
G1 X116.812 Y178.261 E25.44587
G1 X116.637 Y176.295 E25.51086
G1 X116.584 Y174.422 E25.57256
G1 X116.638 Y172.643 E25.63117
G1 X116.813 Y170.678 E25.69613
G1 X117.079 Y168.917 E25.75477
G1 X117.486 Y167.011 E25.81894
G1 X117.992 Y165.184 E25.88137
G1 X118.567 Y163.501 E25.93993
G1 X119.29 Y161.739 E26.00264
G1 X120.135 Y159.986 E26.06672
G1 X121.05 Y158.352 E26.12839
G1 X122.034 Y156.812 E26.18856
G1 X123.16 Y155.265 E26.25156
G1 X124.362 Y153.81 E26.31371
G1 X125.641 Y152.435 E26.37554
G1 X126.981 Y151.158 E26.43649
G0 F3600 X127.257 Y151.448
G1 F1500 X128.671 Y150.252 E26.49747
G1 X130.154 Y149.144 E26.55843
G1 X131.7 Y148.127 E26.61936
G1 X133.305 Y147.201 E26.68038
G1 X134.963 Y146.375 E26.74137
G1 X136.654 Y145.653 E26.80191
G1 X138.343 Y145.049 E26.86098
G1 X140.189 Y144.511 E26.92429
G1 X141.993 Y144.101 E26.98521
G1 X143.82 Y143.8 E27.04618
G1 X145.664 Y143.608 E27.10722
G1 X147.442 Y143.529 E27.16582
G1 X149.365 Y143.559 E27.22915
G1 X151.139 Y143.692 E27.28773
G1 X153.043 Y143.95 E27.351
G1 X154.79 Y144.292 E27.40961
G1 X156.655 Y144.781 E27.4731
G1 X158.414 Y145.355 E27.53402
G1 X160.137 Y146.034 E27.595
G1 X161.817 Y146.815 E27.65601
G1 X163.383 Y147.658 E27.71457
G1 X165.019 Y148.669 E27.77789
G1 X166.532 Y149.737 E27.83888
G1 X167.961 Y150.878 E27.89909
G1 X169.344 Y152.125 E27.9604
G1 X170.653 Y153.455 E28.02185
G1 X171.822 Y154.796 E28.08043
G1 X172.967 Y156.277 E28.14207
G1 X174.038 Y157.849 E28.2047
G1 X174.968 Y159.408 E28.26448
G1 X175.836 Y161.084 E28.32663
G1 X176.589 Y162.778 E28.38767
G1 X177.214 Y164.446 E28.44632
G1 X177.78 Y166.282 E28.50958
G1 X178.217 Y168.08 E28.57051
G1 X178.535 Y169.83 E28.62908
G1 X178.762 Y171.742 E28.69248
G1 X178.871 Y173.578 E28.75304
G1 X178.868 Y175.443 E28.81445
G1 X178.755 Y177.292 E28.87544
G1 X178.533 Y179.13 E28.9364
G1 X178.2 Y180.952 E28.99739
G1 X177.777 Y182.68 E29.05597
G1 X177.21 Y184.515 E29.11921
G1 X176.585 Y186.184 E29.17789
G1 X175.8 Y187.942 E29.24129
G1 X174.944 Y189.586 E29.30232
G1 X174.004 Y191.154 E29.36252
G1 X172.946 Y192.702 E29.42426
G1 X171.813 Y194.163 E29.48514
G1 X170.594 Y195.558 E29.54614
G1 X169.345 Y196.825 E29.60472
G1 X167.914 Y198.111 E29.66807
G1 X166.464 Y199.264 E29.72907
G1 X164.948 Y200.327 E29.79004
G1 X163.372 Y201.298 E29.85099
G1 X161.74 Y202.174 E29.91198
