;FLAVOR:Marlin
;TIME:3189
;Filament used: 10.098m
;Layer height: 0.3
;MINX:87.3
;MINY:87.307
;MINZ:0.2
;MAXX:212.672
;MAXY:212.693
;MAXZ:16.3
;TARGET_MACHINE.NAME:Artillery Sidewinder X1
;Generated with Cura_SteamEngine 5.10.0
M140 S55
M105
M190 S55
M104 S200
M105
M109 S200
G28 ; home all axes
M117 ; Purge extruder
M420 S1 ; enable bed mesh
G92 E0 ; reset extruder
G1 Z1.0 F3000 ; move z up little to prevent scratching of surface
G1 X2 Y20 Z0.3 F5000.0 ; move to start-line position
G1 X2 Y200.0 Z0.3 F1500.0 E15 ; draw 1st line
G1 X2 Y200.0 Z0.4 F5000.0 ; move to side a little
G1 X2 Y20 Z0.4 F1500.0 E30 ; draw 2nd line
G92 E0 ; reset extruder
G1 Z1.0 F3000 ; move z up little to prevent scratching of surface
M82 ;absolute extrusion mode
G92 E0
G92 E0
G1 F1500 E-2
;LAYER_COUNT:54
;LAYER:0
M106 S76.5
G1 F300 Z0.4
G0 F3600 X105.626 Y106.272 Z0.4
;TYPE:SKIRT
G1 F300 Z0.2
G1 F1500 E0
G1 F1800 X108.32 Y103.696 E0.12397
G1 X111.164 Y101.286 E0.24796
G1 X114.146 Y99.052 E0.37189
G1 X117.258 Y96.998 E0.49591
G1 X120.47 Y95.143 E0.61927
G1 X123.821 Y93.468 E0.74388
G1 X127.231 Y92.01 E0.86723
G1 X130.758 Y90.746 E0.99184
G1 X134.336 Y89.702 E1.11581
G1 X137.968 Y88.873 E1.23971
G1 X141.647 Y88.263 E1.36375
G1 X145.355 Y87.873 E1.48776
G1 X149.078 Y87.707 E1.61171
G1 X152.804 Y87.763 E1.73565
G1 X156.52 Y88.043 E1.85959
G1 X160.214 Y88.544 E1.98358
G1 X163.872 Y89.263 E2.10758
G1 X167.502 Y90.21 E2.23235
G1 X171.024 Y91.355 E2.35553
G1 X174.495 Y92.718 E2.47956
G1 X177.897 Y94.296 E2.60429
G1 X181.157 Y96.051 E2.72743
G1 X184.329 Y98.011 E2.85145
G1 X187.376 Y100.157 E2.9754
G1 X190.29 Y102.482 E3.09939
G1 X193.06 Y104.976 E3.22336
G1 X195.663 Y107.617 E3.3467
G1 X198.126 Y110.438 E3.47125
G1 X200.406 Y113.387 E3.59523
G1 X202.507 Y116.468 E3.71927
G1 X204.408 Y119.652 E3.84261
G1 X206.134 Y122.977 E3.96721
G1 X207.65 Y126.382 E4.09118
G1 X208.959 Y129.873 E4.21518
G1 X210.053 Y133.418 E4.33858
G1 X210.94 Y137.055 E4.46309
G1 X211.606 Y140.722 E4.58705
G1 X212.048 Y144.405 E4.71042
G1 X212.272 Y148.144 E4.83501
G1 X212.27 Y151.897 E4.95983
G1 X212.048 Y155.594 E5.08302
G1 X211.603 Y159.294 E5.20697
G1 X210.937 Y162.962 E5.33096
G1 X210.053 Y166.582 E5.4549
G1 X208.951 Y170.15 E5.5791
G1 X207.643 Y173.635 E5.70291
G1 X206.126 Y177.039 E5.82686
G1 X204.397 Y180.368 E5.95163
G1 X202.497 Y183.547 E6.07481
G1 X200.396 Y186.627 E6.19881
G1 X198.116 Y189.574 E6.32274
G1 X195.664 Y192.382 E6.44673
G1 X193.048 Y195.035 E6.57065
G1 X190.277 Y197.529 E6.69465
G1 X187.362 Y199.853 E6.81864
G1 X184.314 Y201.999 E6.94262
G1 X181.143 Y203.957 E7.06658
G1 X177.859 Y205.723 E7.1906
G1 X174.479 Y207.289 E7.3145
G1 X171.007 Y208.651 E7.43854
G1 X167.462 Y209.802 E7.56251
G1 X163.854 Y210.74 E7.6865
G1 X160.196 Y211.459 E7.81049
G1 X156.502 Y211.959 E7.93448
G1 X152.786 Y212.238 E8.05842
G1 X149.061 Y212.293 E8.18233
G1 X145.331 Y212.125 E8.30651
G1 X141.629 Y211.735 E8.43032
G1 X137.926 Y211.119 E8.55518
G1 X134.319 Y210.294 E8.67825
G1 X130.741 Y209.248 E8.80223
G1 X127.231 Y207.99 E8.92625
G1 X123.821 Y206.532 E9.0496
G1 X120.47 Y204.857 E9.1742
G1 X117.258 Y203.002 E9.29757
G1 X114.131 Y200.938 E9.42218
G1 X111.15 Y198.703 E9.5461
G1 X108.307 Y196.292 E9.67009
G1 X105.614 Y193.715 E9.79406
G1 X103.078 Y190.982 E9.91806
G1 X100.721 Y188.117 E10.04146
G1 X98.519 Y185.086 E10.16606
G1 X96.514 Y181.945 E10.29
G1 X94.7 Y178.69 E10.41394
G1 X93.083 Y175.332 E10.53791
G1 X91.668 Y171.881 E10.66196
G1 X90.465 Y168.355 E10.78587
G1 X89.476 Y164.762 E10.90982
G1 X88.699 Y161.116 E11.03381
G1 X88.144 Y157.428 E11.15786
G1 X87.811 Y153.716 E11.28181
G1 X87.7 Y149.968 E11.40653
G1 X87.812 Y146.266 E11.52971
G1 X88.149 Y142.53 E11.65448
G1 X88.699 Y138.884 E11.77711
G1 X89.485 Y135.196 E11.90253
G1 X90.47 Y131.628 E12.02564
G1 X91.675 Y128.102 E12.14958
G1 X93.093 Y124.646 E12.27383
G1 X94.708 Y121.294 E12.39758
G1 X96.523 Y118.04 E12.5215
G1 X98.529 Y114.899 E12.64546
G1 X100.736 Y111.864 E12.77027
G1 X103.078 Y109.018 E12.89286
G1 X105.626 Y106.272 E13.01746
G0 F3600 X105.35 Y105.983
G1 F1800 X108.061 Y103.391 E13.14221
G1 X110.924 Y100.966 E13.267
G1 X113.926 Y98.718 E13.39174
G1 X117.058 Y96.652 E13.51653
G1 X120.291 Y94.785 E13.6407
G1 X123.664 Y93.1 E13.76611
G1 X127.096 Y91.633 E13.89025
G1 X130.623 Y90.369 E14.01486
G1 X134.247 Y89.312 E14.14042
G1 X137.903 Y88.478 E14.26514
G1 X141.605 Y87.865 E14.38995
G1 X145.337 Y87.473 E14.51476
G1 X149.06 Y87.307 E14.63871
G1 X152.834 Y87.364 E14.76425
G1 X156.55 Y87.644 E14.88819
G1 X160.291 Y88.152 E15.01376
G1 X163.973 Y88.876 E15.13857
G1 X167.626 Y89.83 E15.26414
G1 X171.17 Y90.983 E15.3881
G1 X174.663 Y92.355 E15.51292
G1 X178.087 Y93.944 E15.63846
G1 X181.347 Y95.699 E15.76161
G1 X184.559 Y97.684 E15.88719
G1 X187.625 Y99.844 E16.01193
G1 X190.558 Y102.185 E16.13675
G1 X193.345 Y104.695 E16.26149
G1 X195.948 Y107.336 E16.38483
G1 X198.442 Y110.193 E16.51097
G1 X200.722 Y113.142 E16.63495
G1 X202.85 Y116.263 E16.76058
G1 X204.763 Y119.468 E16.88473
G1 X206.499 Y122.814 E17.0101
G1 X208.025 Y126.242 E17.13491
G1 X209.334 Y129.733 E17.25891
G1 X210.442 Y133.323 E17.38387
G1 X211.334 Y136.984 E17.5092
G1 X212 Y140.651 E17.63316
G1 X212.447 Y144.381 E17.75811
G1 X212.672 Y148.144 E17.88349
G1 X212.669 Y151.921 E18.00911
G1 X212.445 Y155.642 E18.1331
G1 X211.997 Y159.365 E18.25782
G1 X211.326 Y163.057 E18.38263
G1 X210.442 Y166.677 E18.50657
G1 X209.325 Y170.291 E18.63238
G1 X208.008 Y173.798 E18.75698
G1 X206.481 Y177.223 E18.8817
G1 X204.74 Y180.573 E19.00727
G1 X202.827 Y183.772 E19.13124
G1 X200.712 Y186.872 E19.25606
G1 X198.417 Y189.837 E19.38077
G1 X195.949 Y192.663 E19.50556
G1 X193.316 Y195.332 E19.63026
G1 X190.526 Y197.842 E19.75508
G1 X187.592 Y200.18 E19.87986
G1 X184.524 Y202.339 E20.00463
G1 X181.332 Y204.309 E20.12939
G1 X178.027 Y206.086 E20.2542
G1 X174.647 Y207.652 E20.3781
G1 X171.131 Y209.031 E20.50371
G1 X167.563 Y210.189 E20.62848
G1 X163.955 Y211.127 E20.75247
G1 X160.25 Y211.855 E20.87805
G1 X156.532 Y212.358 E21.00284
G1 X152.792 Y212.638 E21.12758
G1 X149.043 Y212.693 E21.25229
G1 X145.289 Y212.523 E21.37728
G1 X141.563 Y212.13 E21.50189
G1 X137.86 Y211.514 E21.62674
G1 X134.207 Y210.678 E21.75138
G1 X130.606 Y209.625 E21.87617
G1 X127.096 Y208.367 E22.00018
G1 X123.642 Y206.89 E22.12513
G1 X120.291 Y205.215 E22.24973
G1 X117.038 Y203.336 E22.37468
G1 X113.891 Y201.258 E22.50011
G1 X110.891 Y199.008 E22.62483
G1 X108.03 Y196.581 E22.74962
G1 X105.337 Y194.004 E22.87359
G1 X102.769 Y191.236 E22.99917
G1 X100.397 Y188.352 E23.12337
G1 X98.195 Y185.321 E23.24798
G1 X96.165 Y182.14 E23.37349
G1 X94.34 Y178.864 E23.49821
G1 X92.713 Y175.484 E23.62298
G1 X91.289 Y172.01 E23.74785
G1 X90.079 Y168.461 E23.87257
G1 X89.09 Y164.868 E23.99651
G1 X88.303 Y161.176 E24.12207
G1 X87.748 Y157.488 E24.24611
G1 X87.411 Y153.728 E24.37167
G1 X87.3 Y149.956 E24.49719
G1 X87.412 Y146.254 E24.62037
G1 X87.753 Y142.47 E24.74674
G1 X88.303 Y138.824 E24.86938
G1 X89.099 Y135.09 E24.99636
G1 X90.091 Y131.499 E25.12027
G1 X91.296 Y127.973 E25.2442
G1 X92.733 Y124.472 E25.37008
G1 X94.359 Y121.099 E25.49462
G1 X96.186 Y117.825 E25.61932
G1 X98.205 Y114.664 E25.74407
G1 X100.427 Y111.61 E25.86969
G1 X102.785 Y108.746 E25.99307
G1 X105.35 Y105.983 E26.11847
;MESH:Bry??a1
G0 F3600 X106.026 Y106.663
;TYPE:WALL-OUTER
G1 F1800 X103.496 Y109.384 E26.24204
G1 X101.166 Y112.22 E26.36412
G1 X98.991 Y115.211 E26.48713
G1 X96.992 Y118.342 E26.61068
G1 X95.203 Y121.552 E26.7329
G1 X93.602 Y124.874 E26.85556
G1 X92.192 Y128.316 E26.97927
G1 X91.005 Y131.793 E27.10147
G1 X90.021 Y135.346 E27.22409
G1 X89.252 Y138.967 E27.34721
G1 X88.703 Y142.616 E27.46994
G1 X88.368 Y146.296 E27.59285
G1 X88.261 Y149.985 E27.7156
G1 X88.368 Y153.7 E27.83921
G1 X88.699 Y157.356 E27.96131
G1 X89.252 Y161.033 E28.08498
G1 X90.017 Y164.626 E28.20716
G1 X91.005 Y168.203 E28.33059
G1 X92.192 Y171.68 E28.45279
G1 X93.594 Y175.102 E28.57578
G1 X95.203 Y178.448 E28.69927
G1 X96.992 Y181.654 E28.82138
G1 X98.991 Y184.785 E28.94493
G1 X101.15 Y187.756 E29.06708
G1 X103.496 Y190.612 E29.19001
G1 X106.018 Y193.329 E29.31331
G1 X108.679 Y195.874 E29.43578
G1 X111.515 Y198.276 E29.55939
G1 X114.454 Y200.479 E29.68156
G1 X117.537 Y202.514 E29.80442
G1 X120.736 Y204.362 E29.9273
G1 X124.05 Y206.019 E30.05053
G1 X127.452 Y207.473 E30.17359
G1 X130.929 Y208.72 E30.29644
G1 X134.458 Y209.752 E30.41873
G1 X138.043 Y210.568 E30.54102
G1 X141.724 Y211.182 E30.66514
G1 X145.352 Y211.564 E30.78648
G1 X149.08 Y211.731 E30.9106
G1 X152.76 Y211.676 E31.03301
G1 X156.452 Y211.397 E31.15615
G1 X160.121 Y210.903 E31.27929
G1 X163.726 Y210.194 E31.40149
G1 X167.319 Y209.258 E31.52498
G1 X170.816 Y208.123 E31.64726
G1 X174.273 Y206.764 E31.77081
G1 X177.623 Y205.211 E31.89362
G1 X180.862 Y203.47 E32.01593
G1 X184.004 Y201.53 E32.13874
G1 X187.039 Y199.391 E32.26224
G1 X189.927 Y197.089 E32.38508
G1 X192.656 Y194.632 E32.50721
G1 X195.261 Y191.987 E32.63069
G1 X197.679 Y189.218 E32.75296
G1 X199.953 Y186.279 E32.87655
G1 X202.02 Y183.243 E32.99871
G1 X203.916 Y180.077 E33.12145
G1 X205.617 Y176.795 E33.2444
G1 X207.131 Y173.401 E33.36801
G1 X208.488 Y169.788 E33.49637
G1 X208.478 Y169.775 E33.49692
G1 X209.517 Y166.414 E33.61392
G1 X210.393 Y162.826 E33.73677
G1 X211.046 Y159.209 E33.85901
G1 X211.488 Y155.524 E33.98246
G1 X211.708 Y151.86 E34.10454
G1 X211.711 Y148.16 E34.2276
G1 X211.488 Y144.456 E34.35102
G1 X211.046 Y140.787 E34.47394
G1 X210.389 Y137.151 E34.59683
G1 X209.517 Y133.586 E34.7189
G1 X208.486 Y130.245 E34.83519
G1 X208.496 Y130.232 E34.83573
G1 X207.131 Y126.595 E34.96494
G1 X205.617 Y123.201 E35.08855
G1 X203.928 Y119.939 E35.21072
G1 X202.02 Y116.753 E35.33424
G1 X199.953 Y113.717 E35.4564
G1 X197.679 Y110.778 E35.57999
G1 X195.261 Y108.013 E35.70216
G1 X192.656 Y105.368 E35.82564
G1 X189.927 Y102.907 E35.94786
G1 X187.039 Y100.605 E36.0707
G1 X184.004 Y98.466 E36.19419
G1 X180.858 Y96.526 E36.31712
G1 X177.647 Y94.797 E36.43842
G1 X174.273 Y93.232 E36.56213
G1 X170.816 Y91.873 E36.68567
G1 X167.343 Y90.746 E36.80711
G1 X163.726 Y89.806 E36.93141
G1 X160.121 Y89.097 E37.05361
G1 X156.452 Y88.599 E37.17676
G1 X152.76 Y88.32 E37.29991
G1 X149.08 Y88.265 E37.42232
G1 X145.376 Y88.432 E37.54564
G1 X141.723 Y88.818 E37.66782
G1 X138.067 Y89.424 E37.79107
G1 X134.458 Y90.248 E37.9142
G1 X130.929 Y91.276 E38.03645
G1 X127.452 Y92.523 E38.15931
G1 X124.054 Y93.976 E38.28223
G1 X120.736 Y95.638 E38.40565
G1 X117.537 Y97.482 E38.52846
G1 X114.454 Y99.517 E38.65133
G1 X111.515 Y101.724 E38.77357
G1 X108.679 Y104.126 E38.89719
G1 X106.026 Y106.663 E39.01928
G0 F3600 X105.89 Y106.809
G1 F1500 E37.01928
G1 F300 Z0.4
G0 F3600 X113.046 Y113.187 Z0.4
G1 F300 Z0.2
G1 F1500 E39.01928
G1 F1800 X113.118 Y113.11 E39.02278
G1 X115.619 Y110.769 E39.13672
G1 X118.248 Y108.612 E39.24983
G1 X121.022 Y106.627 E39.36328
G1 X123.917 Y104.826 E39.47668
G1 X126.932 Y103.215 E39.59038
G1 X130.044 Y101.804 E39.70402
G1 X133.236 Y100.607 E39.81741
G1 X136.521 Y99.61 E39.93159
G1 X139.817 Y98.843 E40.04415
G1 X143.206 Y98.281 E40.1584
G1 X146.587 Y97.948 E40.2714
G1 X150.009 Y97.84 E40.38527
G1 X153.426 Y97.949 E40.49898
G1 X156.807 Y98.283 E40.61198
G1 X160.195 Y98.846 E40.72621
G1 X163.496 Y99.615 E40.83894
G1 X166.776 Y100.612 E40.95296
G1 X169.956 Y101.805 E41.06593
G1 X173.079 Y103.222 E41.17999
G1 X176.094 Y104.835 E41.29372
G1 X178.988 Y106.636 E41.40709
G1 X181.761 Y108.623 E41.52056
G1 X184.383 Y110.774 E41.63336
G1 X186.886 Y113.118 E41.74741
G1 X189.224 Y115.616 E41.86121
G1 X191.384 Y118.248 E41.97445
G1 X193.369 Y121.022 E42.08791
G1 X195.17 Y123.917 E42.20131
G1 X196.781 Y126.928 E42.31489
G1 X198.196 Y130.052 E42.42895
G1 X199.389 Y133.232 E42.54192
G1 X200.386 Y136.52 E42.65619
G1 X201.154 Y139.8 E42.76824
G1 X201.715 Y143.206 E42.88305
G1 X202.048 Y146.587 E42.99605
G1 X202.161 Y149.997 E43.10952
G1 X202.047 Y153.426 E43.22364
G1 X201.713 Y156.803 E43.3365
G1 X201.154 Y160.196 E43.45088
G1 X200.381 Y163.496 E43.56361
G1 X199.388 Y166.772 E43.67746
G1 X198.189 Y169.96 E43.79075
G1 X196.778 Y173.075 E43.90449
G1 X195.165 Y176.09 E44.01821
G1 X193.36 Y178.988 E44.13177
G1 X191.382 Y181.752 E44.24482
G1 X189.218 Y184.386 E44.3582
G1 X186.886 Y186.879 E44.47174
G1 X184.383 Y189.222 E44.58577
G1 X181.759 Y191.376 E44.69868
G1 X178.974 Y193.369 E44.81259
G1 X176.079 Y195.17 E44.92599
G1 X173.064 Y196.781 E45.03968
G1 X169.952 Y198.192 E45.15333
G1 X166.76 Y199.389 E45.26672
G1 X163.48 Y200.386 E45.38074
G1 X160.179 Y201.157 E45.49349
G1 X156.79 Y201.715 E45.60772
G1 X153.42 Y202.048 E45.72036
G1 X149.991 Y202.16 E45.83446
G1 X146.57 Y202.047 E45.94831
G1 X143.189 Y201.713 E46.06131
G1 X139.8 Y201.154 E46.17555
G1 X136.5 Y200.381 E46.28828
G1 X133.22 Y199.384 E46.4023
G1 X130.033 Y198.188 E46.51552
G1 X126.917 Y196.774 E46.62933
G1 X123.909 Y195.166 E46.74278
G1 X121.008 Y193.36 E46.85643
G1 X118.244 Y191.381 E46.9695
G1 X115.61 Y189.218 E47.08286
G1 X113.106 Y186.874 E47.19694
G1 X110.767 Y184.373 E47.31083
G1 X108.608 Y181.744 E47.42398
G1 X106.627 Y178.974 E47.53725
G1 X104.826 Y176.075 E47.65076
G1 X103.215 Y173.06 E47.76446
G1 X101.8 Y169.944 E47.87828
G1 X100.609 Y166.765 E47.99119
G1 X99.61 Y163.479 E48.10542
G1 X98.843 Y160.179 E48.21811
G1 X98.282 Y156.799 E48.33206
G1 X97.948 Y153.409 E48.44536
G1 X97.84 Y149.991 E48.5591
G1 X97.949 Y146.57 E48.67294
G1 X98.283 Y143.193 E48.78581
G1 X98.846 Y139.801 E48.90017
G1 X99.615 Y136.504 E49.01277
G1 X100.612 Y133.224 E49.1268
G1 X101.807 Y130.036 E49.24003
G1 X103.222 Y126.921 E49.35383
G1 X104.835 Y123.902 E49.46767
G1 X106.636 Y121.008 E49.58104
G1 X108.618 Y118.243 E49.6942
G1 X110.778 Y115.61 E49.80747
G1 X113.046 Y113.187 E49.91785
G0 F3600 X113.118 Y113.11
G0 X113.187 Y113.046
G0 X112.797 Y112.956
;TYPE:WALL-INNER
G1 F1800 X112.886 Y112.861 E49.92218
G1 X115.378 Y110.529 E50.0357
G1 X118.05 Y108.336 E50.15067
G1 X120.843 Y106.338 E50.26489
G1 X123.757 Y104.526 E50.37902
G1 X126.771 Y102.915 E50.49268
G1 X129.899 Y101.496 E50.60693
G1 X133.137 Y100.281 E50.72195
G1 X136.412 Y99.287 E50.83579
G1 X139.756 Y98.508 E50.94999
G1 X143.173 Y97.942 E51.06519
G1 X146.537 Y97.61 E51.17762
G1 X150.02 Y97.5 E51.29352
G1 X153.459 Y97.61 E51.40796
G1 X156.845 Y97.945 E51.52113
G1 X160.252 Y98.51 E51.63599
G1 X163.595 Y99.289 E51.75016
G1 X166.87 Y100.285 E51.86401
G1 X170.08 Y101.489 E51.97804
G1 X173.209 Y102.907 E52.0923
G1 X176.255 Y104.535 E52.20717
G1 X179.186 Y106.36 E52.32201
G1 X181.971 Y108.354 E52.43594
G1 X184.618 Y110.529 E52.54988
G1 X187.135 Y112.885 E52.66455
G1 X189.48 Y115.392 E52.77873
G1 X191.647 Y118.032 E52.89233
G1 X193.658 Y120.843 E53.00728
G1 X195.455 Y123.731 E53.12041
G1 X197.091 Y126.788 E53.23573
G1 X198.501 Y129.899 E53.34934
G1 X199.715 Y133.133 E53.46423
G1 X200.717 Y136.443 E53.57926
G1 X201.491 Y139.753 E53.69232
G1 X202.052 Y143.16 E53.80716
G1 X202.386 Y146.537 E53.92003
G1 X202.501 Y149.997 E54.03517
G1 X202.388 Y153.436 E54.14961
G1 X202.049 Y156.858 E54.26399
G1 X201.491 Y160.243 E54.37809
G1 X200.716 Y163.563 E54.49148
G1 X199.718 Y166.858 E54.60599
G1 X198.499 Y170.1 E54.72119
G1 X197.078 Y173.235 E54.83568
G1 X195.454 Y176.27 E54.95016
G1 X193.658 Y179.154 E55.06316
G1 X191.651 Y181.96 E55.17791
G1 X189.467 Y184.619 E55.29235
G1 X187.111 Y187.135 E55.407
G1 X184.61 Y189.474 E55.52089
G1 X181.971 Y191.642 E55.63449
G1 X179.182 Y193.639 E55.74858
G1 X176.239 Y195.47 E55.86386
G1 X173.204 Y197.091 E55.9783
G1 X170.071 Y198.51 E56.09269
G1 X166.859 Y199.715 E56.20679
G1 X163.557 Y200.717 E56.32157
G1 X160.252 Y201.489 E56.43445
G1 X156.823 Y202.054 E56.55004
