;FLAVOR:Marlin
;TIME:2328
;Filament used: 4.20742m
;Layer height: 0.3
;MINX:125.365
;MINY:99.639
;MINZ:0.2
;MAXX:174.62
;MAXY:200.361
;MAXZ:5.2
;TARGET_MACHINE.NAME:Artillery Sidewinder X1
;Generated with Cura_SteamEngine 5.10.0
M140 S55
M105
M190 S55
M104 S200
M105
M109 S200
G28 ; home all axes
M117 ; Purge extruder
M420 S1 ; enable bed mesh
G92 E0 ; reset extruder
G1 Z1.0 F3000 ; move z up little to prevent scratching of surface
G1 X2 Y20 Z0.3 F5000.0 ; move to start-line position
G1 X2 Y200.0 Z0.3 F1500.0 E15 ; draw 1st line
G1 X2 Y200.0 Z0.4 F5000.0 ; move to side a little
G1 X2 Y20 Z0.4 F1500.0 E30 ; draw 2nd line
G92 E0 ; reset extruder
G1 Z1.0 F3000 ; move z up little to prevent scratching of surface
M82 ;absolute extrusion mode
G92 E0
G92 E0
G1 F1500 E-2
;LAYER_COUNT:17
;LAYER:0
M106 S76.5
G1 F300 Z0.4
G0 F3600 X127.975 Y108.419 Z0.4
;TYPE:SKIRT
G1 F300 Z0.2
G1 F1500 E0
G1 F1800 X128.619 Y107.678 E0.03233
G1 X129.327 Y107.003 E0.06454
G1 X130.074 Y106.415 E0.09584
G1 X131.697 Y105.326 E0.1602
G1 X133.358 Y104.344 E0.22373
G1 X135.072 Y103.454 E0.28732
G1 X136.817 Y102.671 E0.3503
G1 X138.637 Y101.974 E0.41447
G1 X140.459 Y101.391 E0.47747
G1 X142.343 Y100.903 E0.54155
G1 X144.238 Y100.526 E0.60517
G1 X146.149 Y100.255 E0.66872
G1 X148.073 Y100.093 E0.7323
G1 X150.001 Y100.039 E0.79581
G1 X151.929 Y100.094 E0.85932
G1 X153.853 Y100.257 E0.9229
G1 X155.763 Y100.529 E0.98642
G1 X157.658 Y100.906 E1.05004
G1 X159.526 Y101.391 E1.11359
G1 X161.365 Y101.98 E1.17718
G1 X163.168 Y102.671 E1.24076
G1 X164.913 Y103.454 E1.30373
G1 X166.643 Y104.352 E1.36792
G1 X168.302 Y105.335 E1.43141
G1 X169.91 Y106.414 E1.49517
G1 X170.658 Y107.003 E1.52652
G1 X171.386 Y107.698 E1.55966
G1 X172.026 Y108.44 E1.59193
G1 X172.594 Y109.238 E1.62418
G1 X173.083 Y110.088 E1.65647
G1 X173.489 Y110.98 E1.68874
G1 X173.808 Y111.908 E1.72105
G1 X174.032 Y112.83 E1.7523
G1 X174.175 Y113.829 E1.78553
G1 X174.22 Y114.78 E1.81688
G1 X174.22 Y189.675 E4.28298
G1 X174.166 Y190.72 E4.31744
G1 X173.992 Y191.819 E4.35408
G1 X173.711 Y192.858 E4.38952
G1 X173.336 Y193.835 E4.42398
G1 X172.833 Y194.823 E4.46048
G1 X172.244 Y195.727 E4.49601
G1 X171.564 Y196.564 E4.53152
G1 X170.801 Y197.324 E4.56698
G1 X169.96 Y198.003 E4.60257
G1 X169.084 Y198.572 E4.63696
G1 X168.097 Y199.075 E4.67344
G1 X167.088 Y199.462 E4.70903
G1 X166.079 Y199.732 E4.74342
G1 X164.981 Y199.906 E4.78002
G1 X163.936 Y199.961 E4.81448
G1 X136.049 Y199.961 E5.73273
G1 X135.004 Y199.906 E5.76719
G1 X133.907 Y199.732 E5.80376
G1 X132.868 Y199.452 E5.83919
G1 X131.888 Y199.075 E5.87377
G1 X130.901 Y198.572 E5.91024
G1 X129.999 Y197.984 E5.9457
G1 X129.161 Y197.304 E5.98123
G1 X128.401 Y196.541 E6.01669
G1 X127.724 Y195.702 E6.05219
G1 X127.137 Y194.796 E6.08774
G1 X126.649 Y193.835 E6.12323
G1 X126.264 Y192.828 E6.15873
G1 X125.993 Y191.819 E6.19313
G1 X125.819 Y190.721 E6.22973
G1 X125.765 Y189.662 E6.26465
G1 X125.766 Y114.749 E8.73135
G1 X125.81 Y113.832 E8.76158
G1 X125.953 Y112.83 E8.79491
G1 X126.177 Y111.908 E8.82615
G1 X126.508 Y110.954 E8.8594
G1 X126.915 Y110.064 E8.89162
G1 X127.39 Y109.24 E8.92294
G1 X127.975 Y108.419 E8.95613
G0 F3600 X127.649 Y108.187
G1 F1800 X128.343 Y107.388 E8.99098
G1 X129.051 Y106.713 E9.02319
G1 X129.851 Y106.083 E9.05672
G1 X131.493 Y104.982 E9.12182
G1 X133.174 Y103.989 E9.18611
G1 X134.908 Y103.089 E9.25043
G1 X136.674 Y102.297 E9.31416
G1 X138.515 Y101.593 E9.37907
G1 X140.359 Y101.004 E9.44281
G1 X142.265 Y100.511 E9.50763
G1 X144.182 Y100.13 E9.57199
G1 X146.115 Y99.856 E9.63627
G1 X148.062 Y99.693 E9.70061
G1 X150.012 Y99.639 E9.76484
G1 X151.963 Y99.695 E9.82911
G1 X153.887 Y99.858 E9.89269
G1 X155.841 Y100.137 E9.95768
G1 X157.759 Y100.519 E10.02208
G1 X159.648 Y101.01 E10.08634
G1 X161.508 Y101.606 E10.15066
G1 X163.332 Y102.306 E10.21499
G1 X165.097 Y103.099 E10.2787
G1 X166.847 Y104.008 E10.34363
G1 X168.525 Y105.003 E10.40787
G1 X170.133 Y106.082 E10.47163
G1 X170.934 Y106.714 E10.50523
G1 X171.689 Y107.437 E10.53965
G1 X172.352 Y108.208 E10.57313
G1 X172.941 Y109.039 E10.60667
G1 X173.447 Y109.922 E10.64018
G1 X173.853 Y110.814 E10.67245
G1 X174.197 Y111.814 E10.70727
G1 X174.428 Y112.773 E10.73975
G1 X174.575 Y113.81 E10.77424
G1 X174.62 Y114.761 E10.80559
G1 X174.619 Y189.696 E13.27302
G1 X174.561 Y190.783 E13.30886
G1 X174.387 Y191.882 E13.3455
G1 X174.097 Y192.962 E13.38232
G1 X173.692 Y194.016 E13.4195
G1 X173.168 Y195.041 E13.4574
G1 X172.579 Y195.945 E13.49293
G1 X171.846 Y196.847 E13.5312
G1 X171.052 Y197.635 E13.56804
G1 X170.178 Y198.338 E13.60497
G1 X169.266 Y198.928 E13.64073
G1 X168.279 Y199.431 E13.67721
G1 X167.191 Y199.848 E13.71558
G1 X166.142 Y200.127 E13.75132
G1 X165.044 Y200.301 E13.78792
G1 X163.936 Y200.361 E13.82446
G1 X136.028 Y200.36 E14.7434
G1 X134.941 Y200.301 E14.77925
G1 X133.844 Y200.127 E14.81582
G1 X132.724 Y199.825 E14.85402
G1 X131.706 Y199.431 E14.88996
G1 X130.719 Y198.928 E14.92644
G1 X129.747 Y198.295 E14.96463
G1 X128.909 Y197.615 E15.00017
G1 X128.09 Y196.792 E15.0384
G1 X127.388 Y195.92 E15.07526
G1 X126.801 Y195.014 E15.11081
G1 X126.275 Y193.978 E15.14906
G1 X125.89 Y192.971 E15.18456
G1 X125.598 Y191.882 E15.22169
G1 X125.424 Y190.784 E15.25829
G1 X125.365 Y189.662 E15.29529
G1 X125.366 Y114.73 E17.76261
G1 X125.41 Y113.813 E17.79284
G1 X125.564 Y112.736 E17.82867
G1 X125.799 Y111.777 E17.86118
G1 X126.144 Y110.788 E17.89567
G1 X126.568 Y109.864 E17.92914
G1 X127.043 Y109.04 E17.96046
G1 X127.649 Y108.187 E17.99492
G1 F1500 E15.99492
G1 F300 Z0.4
;MESH:Bry??a4
G0 F3600 X128.979 Y109.244 Z0.4
;TYPE:WALL-INNER
G1 F300 Z0.2
G1 F1500 E17.99492
G1 F1800 X128.491 Y109.929 E18.02261
G1 X128.071 Y110.659 E18.05034
G1 X127.71 Y111.448 E18.07891
G1 X127.425 Y112.274 E18.10768
G1 X127.227 Y113.091 E18.13536
G1 X127.105 Y113.925 E18.16312
G1 X127.064 Y114.792 E18.1917
G1 X127.065 Y189.641 E20.65629
G1 X127.116 Y190.602 E20.68798
G1 X127.264 Y191.535 E20.71908
G1 X127.505 Y192.434 E20.74973
G1 X127.844 Y193.317 E20.78087
G1 X128.272 Y194.163 E20.81209
G1 X128.782 Y194.946 E20.84286
G1 X129.368 Y195.669 E20.87351
G1 X130.051 Y196.352 E20.90531
G1 X130.777 Y196.941 E20.93609
G1 X131.561 Y197.449 E20.96685
G1 X132.405 Y197.881 E20.99807
G1 X133.286 Y198.219 E21.02915
G1 X134.184 Y198.46 E21.05976
G1 X135.121 Y198.608 E21.091
G1 X136.099 Y198.66 E21.12325
G1 X148.037 Y198.659 E21.51633
G1 X147.667 Y198.427 E21.53071
G1 X147.157 Y197.986 E21.55291
G1 X146.709 Y197.411 E21.57692
G1 X146.361 Y196.748 E21.60157
G1 X146.156 Y196.032 E21.6261
G1 X146.087 Y195.3 E21.6503
G1 X146.157 Y194.554 E21.67498
G1 X146.364 Y193.854 E21.69901
G1 X146.706 Y193.191 E21.72358
G1 X147.162 Y192.616 E21.74774
G1 X147.726 Y192.125 E21.77236
G1 X148.369 Y191.751 E21.79686
G1 X149.069 Y191.504 E21.8213
G1 X149.799 Y191.396 E21.8456
G1 X150.552 Y191.438 E21.87043
G1 X151.265 Y191.614 E21.89461
G1 X151.943 Y191.919 E21.91909
G1 X152.551 Y192.354 E21.94371
G1 X153.068 Y192.905 E21.96859
G1 X153.461 Y193.516 E21.99251
G1 X153.729 Y194.189 E22.01636
G1 X153.876 Y194.919 E22.04088
G1 X153.876 Y195.676 E22.06581
G1 X153.737 Y196.402 E22.09015
G1 X153.457 Y197.094 E22.11473
G1 X153.067 Y197.705 E22.1386
G1 X152.538 Y198.256 E22.16375
G1 X151.959 Y198.66 E22.18699
G1 X163.881 Y198.66 E22.57956
G1 X164.863 Y198.608 E22.61194
G1 X165.795 Y198.46 E22.64301
G1 X166.694 Y198.219 E22.67366
G1 X167.576 Y197.881 E22.70476
G1 X168.423 Y197.448 E22.73608
G1 X169.207 Y196.941 E22.76682
G1 X169.933 Y196.352 E22.79761
G1 X170.619 Y195.665 E22.82957
G1 X171.201 Y194.948 E22.85998
G1 X171.708 Y194.163 E22.89075
G1 X172.141 Y193.316 E22.92208
G1 X172.479 Y192.434 E22.95318
G1 X172.72 Y191.535 E22.98382
G1 X172.868 Y190.603 E23.0149
G1 X172.92 Y189.625 E23.04715
G1 X172.92 Y114.81 E25.51062
G1 X172.875 Y113.924 E25.53983
G1 X172.756 Y113.089 E25.5676
G1 X172.559 Y112.274 E25.59521
G1 X172.274 Y111.449 E25.62395
G1 X171.918 Y110.672 E25.65209
G1 X171.485 Y109.921 E25.68064
G1 X171.004 Y109.243 E25.70801
G1 X170.428 Y108.58 E25.73693
G1 X169.823 Y108.004 E25.76444
G1 X169.122 Y107.449 E25.79388
G1 X167.59 Y106.423 E25.85459
G1 X165.994 Y105.479 E25.91565
G1 X164.162 Y104.527 E25.98363
G1 X164.146 Y104.537 E25.98425
G1 X162.647 Y103.864 E26.03835
G1 X160.916 Y103.2 E26.0994
G1 X159.166 Y102.642 E26.15988
G1 X157.356 Y102.172 E26.22146
G1 X155.527 Y101.807 E26.28287
G1 X153.695 Y101.547 E26.3438
G1 X151.855 Y101.391 E26.4046
G1 X149.992 Y101.337 E26.46597
G1 X148.125 Y101.391 E26.52747
G1 X146.285 Y101.547 E26.58828
G1 X144.457 Y101.807 E26.64907
G1 X142.628 Y102.171 E26.71048
G1 X140.818 Y102.641 E26.77206
G1 X139.067 Y103.201 E26.83259
G1 X137.333 Y103.864 E26.89372
G1 X135.837 Y104.537 E26.94773
G1 X135.822 Y104.527 E26.94832
G1 X133.989 Y105.479 E27.01634
G1 X132.389 Y106.423 E27.07751
G1 X130.858 Y107.449 E27.13819
G1 X130.162 Y108 E27.16742
G1 X129.557 Y108.579 E27.195
G1 X128.979 Y109.244 E27.22401
G0 F3600 X128.664 Y108.996
G1 F1800 X128.154 Y109.713 E27.25298
G1 X127.715 Y110.476 E27.28196
G1 X127.338 Y111.299 E27.31177
G1 X127.041 Y112.161 E27.34179
G1 X126.834 Y113.015 E27.37073
G1 X126.706 Y113.886 E27.39972
G1 X126.664 Y114.783 E27.42928
G1 X126.665 Y189.651 E29.8945
G1 X126.718 Y190.644 E29.92725
G1 X126.872 Y191.619 E29.95975
G1 X127.124 Y192.558 E29.99176
G1 X127.478 Y193.48 E30.02428
G1 X127.925 Y194.363 E30.05687
G1 X128.458 Y195.182 E30.08905
G1 X129.071 Y195.937 E30.12107
G1 X129.783 Y196.649 E30.15422
G1 X130.542 Y197.265 E30.18641
G1 X131.361 Y197.795 E30.21853
G1 X132.242 Y198.247 E30.25114
G1 X133.162 Y198.6 E30.28358
G1 X134.101 Y198.852 E30.3156
G1 X135.079 Y199.006 E30.3482
G1 X136.088 Y199.06 E30.38147
G1 X148.505 Y199.06 E30.79033
G1 F1961.9 X149.898 Y199.094 E30.83243
G1 F2117.6 X150.442 Y199.087 E30.84765
G1 F1925.1 X151.122 Y199.059 E30.86861
G1 F1800 X163.892 Y199.06 E31.28909
G1 X164.905 Y199.006 E31.32249
G1 X165.879 Y198.852 E31.35496
G1 X166.818 Y198.6 E31.38698
G1 X167.739 Y198.247 E31.41945
G1 X168.623 Y197.795 E31.45215
G1 X169.442 Y197.265 E31.48427
G1 X170.201 Y196.649 E31.51645
G1 X170.917 Y195.933 E31.5498
G1 X171.525 Y195.183 E31.58159
G1 X172.055 Y194.363 E31.61374
G1 X172.507 Y193.479 E31.64643
G1 X172.86 Y192.558 E31.67891
G1 X173.112 Y191.619 E31.71092
G1 X173.266 Y190.645 E31.74339
G1 X173.32 Y189.636 E31.77666
G1 X173.32 Y114.8 E34.24083
G1 X173.274 Y113.886 E34.27096
G1 X173.15 Y113.014 E34.29996
G1 X172.943 Y112.161 E34.32886
G1 X172.646 Y111.3 E34.35885
G1 X172.274 Y110.488 E34.38826
G1 X171.822 Y109.705 E34.41803
G1 X171.319 Y108.996 E34.44666
G1 X170.717 Y108.304 E34.47686
G1 X170.086 Y107.702 E34.50557
G1 X169.358 Y107.126 E34.53614
G1 X167.804 Y106.084 E34.59775
G1 X166.188 Y105.129 E34.65956
G1 X164.326 Y104.162 E34.72864
G1 X164.31 Y104.172 E34.72926
G1 X162.801 Y103.495 E34.78372
G1 X161.049 Y102.823 E34.84551
G1 X159.277 Y102.257 E34.90676
G1 X157.445 Y101.782 E34.96908
G1 X155.595 Y101.412 E35.0312
G1 X153.74 Y101.149 E35.09289
G1 X151.878 Y100.992 E35.15442
G1 X149.992 Y100.937 E35.21655
G1 X148.102 Y100.992 E35.27881
G1 X146.24 Y101.149 E35.34034
G1 X144.39 Y101.412 E35.40187
G1 X142.539 Y101.781 E35.46401
G1 X140.707 Y102.257 E35.52634
G1 X138.935 Y102.823 E35.58759
G1 X137.179 Y103.495 E35.6495
G1 X135.674 Y104.172 E35.70384
G1 X135.658 Y104.162 E35.70446
G1 X133.795 Y105.129 E35.77358
G1 X132.176 Y106.085 E35.83549
G1 X130.622 Y107.126 E35.89708
G1 X129.899 Y107.698 E35.92743
G1 X129.267 Y108.303 E35.95624
G1 X128.664 Y108.996 E35.98649
G1 F1500 E33.98649
G1 F300 Z0.4
G0 F3600 X130.525 Y120.146 Z0.4
G1 F300 Z0.2
G1 F1500 E35.98649
G1 F1800 X131.245 Y119.973 E36.01087
G1 X132.02 Y119.938 E36.03642
G1 X132.749 Y120.055 E36.06073
G1 X133.411 Y120.284 E36.08379
G1 X134.064 Y120.653 E36.10849
G1 X134.612 Y121.132 E36.13246
G1 X135.067 Y121.702 E36.15647
G1 X135.427 Y122.378 E36.18169
G1 X135.636 Y123.106 E36.20663
G1 X135.709 Y123.832 E36.23066
G1 X135.639 Y124.578 E36.25533
G1 X135.427 Y125.299 E36.28007
G1 X135.09 Y125.939 E36.30389
G1 X134.635 Y126.526 E36.32835
G1 X134.073 Y127.018 E36.35294
G1 X133.418 Y127.393 E36.37779
G1 X132.716 Y127.634 E36.40223
G1 X132.016 Y127.734 E36.42552
G1 X131.253 Y127.705 E36.45066
G1 X130.525 Y127.53 E36.47531
G1 X129.852 Y127.218 E36.49974
G1 X129.245 Y126.788 E36.52423
G1 X128.737 Y126.253 E36.54852
G1 X128.332 Y125.625 E36.57313
G1 X128.058 Y124.934 E36.59761
G1 X127.92 Y124.206 E36.622
G1 X127.92 Y123.463 E36.64647
G1 X128.06 Y122.737 E36.67081
G1 X128.333 Y122.049 E36.69519
G1 X128.741 Y121.419 E36.7199
G1 X129.243 Y120.89 E36.74391
G1 X129.847 Y120.459 E36.76835
G1 X130.525 Y120.146 E36.79294
G0 F3600 X130.663 Y120.525
G1 F1800 X131.303 Y120.371 E36.81461
G1 X131.963 Y120.34 E36.83637
G1 X132.626 Y120.436 E36.85843
G1 X133.25 Y120.65 E36.88015
G1 X133.835 Y120.982 E36.9023
G1 X134.329 Y121.415 E36.92393
G1 X134.753 Y121.946 E36.9463
G1 X135.062 Y122.554 E36.96876
G1 X135.242 Y123.178 E36.99014
G1 X135.308 Y123.834 E37.01185
G1 X135.245 Y124.499 E37.03385
G1 X135.055 Y125.149 E37.05615
G1 X134.751 Y125.731 E37.07777
G1 X134.342 Y126.251 E37.09955
G1 X133.838 Y126.692 E37.1216
G1 X133.284 Y127.01 E37.14264
G1 X132.608 Y127.244 E37.16619
G1 X131.989 Y127.335 E37.18679
G1 X131.304 Y127.306 E37.20937
G1 X130.657 Y127.15 E37.23128
G1 X130.056 Y126.871 E37.2531
G1 X129.506 Y126.482 E37.27528
G1 X129.052 Y126.004 E37.29699
G1 X128.691 Y125.443 E37.31896
G1 X128.445 Y124.826 E37.34083
G1 X128.32 Y124.169 E37.36285
G1 X128.32 Y123.498 E37.38494
G1 X128.445 Y122.85 E37.40667
G1 X128.69 Y122.234 E37.4285
G1 X129.057 Y121.667 E37.45074
G1 X129.506 Y121.194 E37.47222
G1 X130.05 Y120.805 E37.49424
G1 X130.663 Y120.525 E37.51643
G1 F1500 E35.51643
G1 F300 Z0.4
G0 F3600 X140.94 Y123.709 Z0.4
G1 F300 Z0.2
G1 F1500 E37.51643
G1 F1800 X141.908 Y122.96 E37.55673
G1 X143.01 Y122.252 E37.59986
G1 X144.117 Y121.679 E37.6409
G1 X145.29 Y121.197 E37.68266
G1 X146.496 Y120.827 E37.7242
G1 X147.795 Y120.553 E37.76791
G1 X149.019 Y120.415 E37.80847
G1 X150.318 Y120.384 E37.85126
G1 X151.545 Y120.467 E37.89175
G1 X152.824 Y120.671 E37.9344
G1 X154.034 Y120.978 E37.9755
G1 X155.268 Y121.415 E38.01861
G1 X156.41 Y121.942 E38.06002
G1 X157.51 Y122.58 E38.10189
G1 X158.595 Y123.347 E38.14564
G1 X159.511 Y124.133 E38.18539
G1 X160.408 Y125.05 E38.22763
G1 X161.234 Y126.07 E38.27084
G1 X161.891 Y127.046 E38.30958
G1 X162.538 Y128.228 E38.35395
G1 X163.021 Y129.341 E38.3939
G1 X163.414 Y130.523 E38.43492
G1 X163.716 Y131.807 E38.47835
G1 X163.891 Y133.104 E38.52145
G1 X163.948 Y134.332 E38.56192
G1 X163.883 Y135.657 E38.60561
G1 X163.718 Y136.857 E38.64549
G1 X163.439 Y138.066 E38.68635
G1 X163.055 Y139.249 E38.7273
G1 X162.498 Y140.529 E38.77327
G1 X161.942 Y141.545 E38.8114
G1 X161.181 Y142.675 E38.85626
G1 X160.441 Y143.587 E38.89493
G1 X159.477 Y144.574 E38.94036
G1 X158.519 Y145.384 E38.98167
G1 X157.518 Y146.093 E39.02206
G1 X156.371 Y146.749 E39.06557
G1 X155.211 Y147.279 E39.10756
G1 X154.023 Y147.697 E39.14903
G1 X152.834 Y148.003 E39.18946
G1 X151.532 Y148.206 E39.23285
G1 X150.344 Y148.291 E39.27207
G1 X149.048 Y148.263 E39.31475
G1 X147.82 Y148.122 E39.35545
G1 X146.574 Y147.87 E39.39731
G1 X145.355 Y147.501 E39.43925
G1 X144.139 Y147.008 E39.48245
G1 X143.048 Y146.445 E39.52288
G1 X141.962 Y145.755 E39.56524
G1 X140.901 Y144.932 E39.60946
G1 X140.041 Y144.12 E39.6484
G1 X139.132 Y143.104 E39.69329
G1 X138.432 Y142.16 E39.73199
G1 X137.772 Y141.079 E39.77369
G1 X137.174 Y139.859 E39.81843
G1 X136.72 Y138.664 E39.86053
G1 X136.384 Y137.441 E39.90229
G1 X136.16 Y136.195 E39.94397
G1 X136.048 Y134.92 E39.98612
G1 X136.052 Y133.665 E40.02744
