;FLAVOR:Marlin
;TIME:3295
;Filament used: 2.76361m
;Layer height: 0.2
;MINX:119.14
;MINY:108.58
;MINZ:0.2
;MAXX:183.124
;MAXY:180.041
;MAXZ:25
;TARGET_MACHINE.NAME:Artillery Sidewinder X1
;Generated with Cura_SteamEngine 5.8.1
M140 S65
M105
M190 S65
M104 S210
M105
M109 S210
M82 ;absolute extrusion mode
G28 ; home all axes
M117 Purge extruder
M420 S1 ; enable bed mesh
G92 E0 ; reset extruder
G1 Z1.0 F3000 ; move z up little to prevent scratching of surface
G1 X2 Y20 Z0.3 F5000.0 ; move to start-line position
G1 X2 Y200.0 Z0.3 F1500.0 E15 ; draw 1st line
G1 X2 Y200.0 Z0.4 F5000.0 ; move to side a little
G1 X2 Y20 Z0.4 F1500.0 E30 ; draw 2nd line
G92 E0 ; reset extruder
G1 Z1.0 F3000 ; move z up little to prevent scratching of surface
G92 E0
G92 E0
G1 F1500 E-2
;LAYER_COUNT:125
;LAYER:0
M107
;MESH:Stacker-Body.stl
G0 F4800 X151.135 Y163.397 Z0.2
;TYPE:WALL-OUTER
G1 F1500 E0
G1 F1800 X135.601 Y154.426 E0.59067
G1 X135.475 Y154.245 E0.59793
G1 X135.475 Y136.183 E1.19266
G1 X135.539 Y136.038 E1.19788
G1 X151.206 Y126.995 E1.79353
G1 X151.426 Y127.014 E1.8008
G1 X167.035 Y136.025 E2.39426
G1 X167.121 Y136.183 E2.40018
G1 X167.117 Y154.245 E2.99492
G1 X167.019 Y154.406 E3.00113
G1 X151.386 Y163.433 E3.59554
G1 X151.165 Y163.414 E3.60284
G1 X151.135 Y163.397 E3.60398
G1 F1500 E1.60398
G0 F4800 X151.012 Y178.159
G1 F1500 E3.60398
G1 F1800 X151.296 Y178.323 E3.61477
G1 X179.972 Y161.769 E4.70504
G1 X179.972 Y128.659 E5.79527
G1 X151.3 Y112.105 E6.88543
G1 X122.62 Y128.659 E7.97581
G1 X122.624 Y161.769 E9.06604
G1 X151.012 Y178.159 E10.1454
G0 F4800 X151.016 Y177.769
;TYPE:WALL-INNER
G1 F1800 X151.296 Y177.931 E10.15605
G1 X179.632 Y161.573 E11.23339
G1 X179.632 Y128.855 E12.31072
G1 X151.3 Y112.497 E13.38795
G1 X122.96 Y128.855 E14.46541
G1 X122.964 Y161.573 E15.54273
G1 X151.016 Y177.769 E16.60931
G0 F4800 X151.019 Y177.309
G1 F1800 X151.296 Y177.469 E16.61985
G1 X179.232 Y161.342 E17.68198
G1 X179.232 Y129.086 E18.74409
G1 X151.3 Y112.959 E19.80611
G1 X123.36 Y129.086 E20.86837
G1 X123.364 Y161.342 E21.93048
G1 X151.019 Y177.309 E22.98197
G1 F1500 E20.98197
G0 F4800 X151.132 Y163.768
G1 F1500 E22.98197
G1 F1800 X151.095 Y163.766 E22.98319
G1 X135.367 Y154.683 E23.58123
G1 X135.178 Y154.432 E23.59157
G1 X135.137 Y154.28 E23.59676
G1 X135.132 Y136.151 E24.1937
G1 X135.254 Y135.864 E24.20397
G1 X135.367 Y135.745 E24.20937
G1 X151.059 Y126.684 E24.80602
G1 X151.297 Y126.639 E24.814
G1 X151.525 Y126.684 E24.82165
G1 X167.23 Y135.746 E25.41869
G1 X167.418 Y135.996 E25.42899
G1 X167.459 Y136.147 E25.43414
G1 X167.46 Y154.277 E26.03112
G1 X167.414 Y154.432 E26.03644
G1 X167.261 Y154.661 E26.04551
G1 X151.535 Y163.744 E26.6435
G1 X151.373 Y163.784 E26.64899
G1 X151.132 Y163.768 E26.65694
G0 F4800 X151.129 Y164.167
G1 F1800 X151.041 Y164.156 E26.65986
G1 X150.795 Y164.054 E26.66863
G1 X135.152 Y155.02 E27.26344
G1 X134.936 Y154.806 E27.27346
G1 X134.809 Y154.587 E27.28179
G1 X134.732 Y154.295 E27.29173
G1 X134.732 Y136.103 E27.89075
G1 X134.828 Y135.776 E27.90197
G1 X135.076 Y135.452 E27.91541
G1 X150.911 Y126.307 E28.51752
G1 X151.297 Y126.239 E28.53043
G1 X151.639 Y126.283 E28.54178
G1 X167.443 Y135.406 E29.14265
G1 X167.66 Y135.622 E29.15273
G1 X167.787 Y135.841 E29.16107
G1 X167.864 Y136.133 E29.17101
G1 X167.86 Y154.383 E29.77194
G1 X167.727 Y154.7 E29.78326
G1 X167.516 Y154.977 E29.79472
G1 X151.64 Y164.145 E30.39838
G1 X151.296 Y164.188 E30.4098
G1 X151.129 Y164.167 E30.41534
G0 F4800 X151.122 Y164.535
;TYPE:SKIN
G1 F1800 X150.736 Y164.434 E30.42848
G1 X134.902 Y155.291 E31.03053
G1 X134.577 Y154.939 E31.04631
G1 X134.373 Y154.431 E31.06433
G1 X134.378 Y135.967 E31.67231
G1 X134.554 Y135.544 E31.68739
G1 X134.761 Y135.271 E31.69867
G1 X135.047 Y135.05 E31.71057
G1 X150.761 Y125.975 E32.30809
G1 X151.227 Y125.867 E32.32384
G1 X151.765 Y125.94 E32.34171
G1 X167.697 Y135.138 E32.94747
G1 X168.002 Y135.461 E32.96209
G1 X168.223 Y135.993 E32.98106
G1 X168.218 Y154.339 E33.58515
G1 X168.122 Y154.697 E33.59736
G1 X167.94 Y155.025 E33.60971
G1 X167.669 Y155.298 E33.62237
G1 X151.827 Y164.449 E34.22478
G1 X151.464 Y164.535 E34.23707
G1 X151.122 Y164.535 E34.24833
G1 F1500 E32.24833
G0 F4800 X151.023 Y176.895
G1 F1500 E34.24833
G1 F1800 X151.296 Y177.053 E34.25872
G1 X178.872 Y161.132 E35.30719
G1 X178.872 Y129.292 E36.35561
G1 X151.3 Y113.371 E37.40397
G1 X123.72 Y129.292 E38.45257
G1 X123.724 Y161.132 E39.50098
G1 X151.023 Y176.895 E40.53896
G1 F1500 E38.53896
G0 F4800 X150.01 Y178.65
G0 X121.705 Y162.302
G0 X121.699 Y160.694
G0 X123.923 Y160.693
G1 F1500 E40.53896
G1 F1800 X124.69 Y161.459 E40.57465
G1 F1500 E38.57465
G0 F4800 X123.923 Y160.127
G1 F1500 E40.57465
G1 F1800 X126.028 Y162.232 E40.67267
G1 F1500 E38.67267
G0 F4800 X127.367 Y163.005
G1 F1500 E40.67267
G1 F1800 X123.923 Y159.561 E40.83305
G0 F4800 X123.923 Y158.996
G1 F1800 X128.706 Y163.779 E41.05578
G1 F1500 E39.05578
G0 F4800 X130.045 Y164.552
G1 F1500 E41.05578
G1 F1800 X123.923 Y158.43 E41.34086
G0 F4800 X123.923 Y157.864
G1 F1800 X131.383 Y165.324 E41.68824
G1 F1500 E39.68824
G0 F4800 X132.722 Y166.097
G1 F1500 E41.68824
G1 F1800 X123.923 Y157.299 E42.09796
G0 F4800 X123.923 Y156.733
G1 F1800 X134.06 Y166.87 E42.57
G1 F1500 E40.57
G0 F4800 X135.399 Y167.643
G1 F1500 E42.57
G1 F1800 X123.923 Y156.167 E43.1044
G0 F4800 X123.923 Y155.601
G1 F1800 X136.737 Y168.416 E43.70113
G1 F1500 E41.70113
G0 F4800 X138.076 Y169.189
G1 F1500 E43.70113
G1 F1800 X123.923 Y155.035 E44.36021
G0 F4800 X123.923 Y154.47
G1 F1800 X139.415 Y169.962 E45.08162
G1 F1500 E43.08162
G0 F4800 X140.753 Y170.734
G1 F1500 E45.08162
G1 F1800 X123.923 Y153.904 E45.86533
G0 F4800 X123.923 Y153.338
G1 F1800 X142.092 Y171.507 E46.7114
G1 F1500 E44.7114
G0 F4800 X143.431 Y172.281
G1 F1500 E46.7114
G1 F1800 X123.923 Y152.773 E47.61982
G0 F4800 X123.923 Y152.207
G1 F1800 X144.77 Y173.054 E48.5906
G1 F1500 E46.5906
G0 F4800 X146.108 Y173.827
G1 F1500 E48.5906
G1 F1800 X123.923 Y151.641 E49.6237
G0 F4800 X123.923 Y151.075
G1 F1800 X147.447 Y174.6 E50.71915
G1 F1500 E48.71915
G0 F4800 X148.785 Y175.372
G1 F1500 E50.71915
G1 F1800 X123.923 Y150.51 E51.87689
G0 F4800 X123.922 Y149.943
G1 F1800 X150.124 Y176.145 E53.09703
G0 F4800 X151.34 Y176.796
G1 F1800 X123.922 Y149.378 E54.37379
G0 F4800 X123.922 Y148.812
G1 F1800 X151.698 Y176.589 E55.66725
G0 F4800 X152.057 Y176.381
G1 F1800 X123.922 Y148.246 E56.9774
G0 F4800 X123.922 Y147.681
G1 F1800 X152.415 Y176.174 E58.30422
G0 F4800 X152.775 Y175.968
G1 F1800 X123.922 Y147.115 E59.6478
G0 F4800 X123.922 Y146.549
G1 F1800 X153.133 Y175.761 E61.00808
G0 F4800 X153.492 Y175.553
G1 F1800 X123.922 Y145.984 E62.38503
G0 F4800 X123.922 Y145.418
G1 F1800 X153.85 Y175.346 E63.77868
G0 F4800 X154.209 Y175.139
G1 F1800 X123.921 Y144.852 E65.18906
G0 F4800 X123.921 Y144.286
G1 F1800 X134.214 Y154.578 E65.66835
G0 F4800 X134.176 Y153.975
G1 F1800 X123.921 Y143.72 E66.14589
G0 F4800 X123.921 Y143.154
G1 F1800 X134.176 Y153.409 E66.62343
G0 F4800 X134.176 Y152.843
G1 F1800 X123.921 Y142.589 E67.10094
G0 F4800 X123.921 Y142.023
G1 F1800 X134.176 Y152.278 E67.57848
G0 F4800 X134.176 Y151.712
G1 F1800 X123.921 Y141.457 E68.05602
G0 F4800 X123.921 Y140.892
G1 F1800 X134.176 Y151.146 E68.53354
G0 F4800 X134.176 Y150.581
G1 F1800 X123.921 Y140.326 E69.01108
G0 F4800 X123.92 Y139.76
G1 F1800 X134.176 Y150.015 E69.48865
G0 F4800 X134.176 Y149.449
G1 F1800 X123.92 Y139.194 E69.96621
G0 F4800 X123.92 Y138.628
G1 F1800 X134.176 Y148.883 E70.44377
G0 F4800 X134.176 Y148.318
G1 F1800 X123.92 Y138.063 E70.92134
G0 F4800 X123.92 Y137.497
G1 F1800 X134.176 Y147.753 E71.39892
G0 F4800 X134.176 Y147.187
G1 F1800 X123.92 Y136.931 E71.87651
G0 F4800 X123.92 Y136.366
G1 F1800 X134.176 Y146.621 E72.35407
G0 F4800 X134.176 Y146.056
G1 F1800 X123.92 Y135.8 E72.83166
G0 F4800 X123.92 Y135.234
G1 F1800 X134.176 Y145.49 E73.30925
G0 F4800 X134.176 Y144.924
G1 F1800 X123.92 Y134.668 E73.78683
G0 F4800 X123.92 Y134.102
G1 F1800 X134.176 Y144.359 E74.26444
G0 F4800 X134.176 Y143.793
G1 F1800 X123.92 Y133.536 E74.74205
G0 F4800 X123.92 Y132.971
G1 F1800 X134.176 Y143.227 E75.21964
G0 F4800 X134.176 Y142.662
G1 F1800 X123.92 Y132.405 E75.69725
G0 F4800 X123.92 Y131.839
G1 F1800 X134.177 Y142.097 E76.17491
G0 F4800 X134.177 Y141.531
G1 F1800 X123.92 Y131.274 E76.65254
G0 F4800 X123.92 Y130.708
G1 F1800 X134.177 Y140.965 E77.13017
G0 F4800 X134.177 Y140.4
G1 F1800 X123.92 Y130.142 E77.60783
G0 F4800 X123.92 Y129.577
G1 F1800 X134.177 Y139.834 E78.08546
G0 F4800 X134.177 Y139.268
G1 F1800 X124.171 Y129.263 E78.55138
G0 F4800 X124.53 Y129.055
G1 F1800 X134.177 Y138.703 E79.00063
G0 F4800 X134.177 Y138.137
G1 F1800 X124.888 Y128.848 E79.43319
G0 F4800 X125.247 Y128.641
G1 F1800 X134.177 Y137.571 E79.84903
G0 F4800 X134.177 Y137.005
G1 F1800 X125.605 Y128.434 E80.24818
G0 F4800 X125.965 Y128.227
G1 F1800 X134.177 Y136.44 E80.6306
G0 F4800 X134.193 Y135.89
G1 F1800 X126.323 Y128.02 E80.99708
G0 F4800 X126.682 Y127.813
G1 F1800 X134.361 Y135.492 E81.35467
G0 F4800 X134.596 Y135.161
G1 F1800 X127.04 Y127.606 E81.7065
G0 F4800 X127.399 Y127.399
G1 F1800 X134.907 Y134.907 E82.05612
G0 F4800 X135.261 Y134.695
G1 F1800 X127.758 Y127.192 E82.40551
G0 F4800 X128.116 Y126.985
G1 F1800 X135.62 Y134.488 E82.75492
G0 F4800 X135.978 Y134.281
G1 F1800 X128.475 Y126.778 E83.10431
G0 F4800 X128.833 Y126.571
G1 F1800 X136.337 Y134.074 E83.45373
G0 F4800 X136.695 Y133.867
G1 F1800 X129.193 Y126.364 E83.80309
G0 F4800 X129.551 Y126.157
G1 F1800 X137.054 Y133.66 E84.15248
G0 F4800 X137.413 Y133.453
G1 F1800 X129.91 Y125.95 E84.50187
G0 F4800 X130.268 Y125.743
G1 F1800 X137.771 Y133.246 E84.85126
G0 F4800 X138.13 Y133.039
G1 F1800 X130.627 Y125.535 E85.20067
G0 F4800 X130.986 Y125.329
G1 F1800 X138.488 Y132.831 E85.55001
G0 F4800 X138.847 Y132.625
G1 F1800 X131.344 Y125.122 E85.8994
G0 F4800 X131.703 Y124.915
G1 F1800 X139.206 Y132.418 E86.24879
G0 F4800 X139.564 Y132.211
G1 F1800 X132.061 Y124.707 E86.5982
G0 F4800 X132.42 Y124.5
G1 F1800 X139.923 Y132.003 E86.94759
G0 F4800 X140.282 Y131.797
G1 F1800 X132.779 Y124.294 E87.29698
G0 F4800 X133.138 Y124.087
G1 F1800 X140.641 Y131.59 E87.64637
G0 F4800 X140.999 Y131.383
G1 F1800 X133.496 Y123.879 E87.99578
G0 F4800 X133.855 Y123.672
G1 F1800 X141.358 Y131.175 E88.34517
G0 F4800 X141.716 Y130.968
G1 F1800 X134.214 Y123.466 E88.69451
G0 F4800 X134.572 Y123.259
G1 F1800 X142.075 Y130.762 E89.0439
G0 F4800 X142.434 Y130.555
G1 F1800 X134.931 Y123.051 E89.39331
G0 F4800 X135.289 Y122.844
G1 F1800 X142.792 Y130.347 E89.7427
G0 F4800 X143.151 Y130.14
G1 F1800 X135.648 Y122.637 E90.09209
G0 F4800 X136.007 Y122.431
G1 F1800 X143.509 Y129.933 E90.44143
G0 F4800 X143.869 Y129.727
G1 F1800 X136.366 Y122.223 E90.79085
G0 F4800 X136.724 Y122.016
G1 F1800 X144.227 Y129.519 E91.14024
G0 F4800 X144.586 Y129.312
G1 F1800 X137.083 Y121.809 E91.48962
G0 F4800 X137.441 Y121.602
G1 F1800 X144.944 Y129.105 E91.83901
G0 F4800 X145.303 Y128.898
G1 F1800 X137.8 Y121.395 E92.1884
G0 F4800 X138.159 Y121.188
G1 F1800 X145.662 Y128.691 E92.53779
G0 F4800 X146.02 Y128.484
G1 F1800 X138.517 Y120.981 E92.88718
G0 F4800 X138.876 Y120.774
G1 F1800 X146.379 Y128.277 E93.23657
G0 F4800 X146.737 Y128.07
G1 F1800 X139.235 Y120.567 E93.58593
G0 F4800 X139.593 Y120.36
G1 F1800 X147.097 Y127.863 E93.93535
G0 F4800 X147.455 Y127.656
G1 F1800 X139.952 Y120.153 E94.28474
G0 F4800 X140.31 Y119.946
G1 F1800 X147.814 Y127.449 E94.63415
G0 F4800 X148.172 Y127.242
G1 F1800 X140.669 Y119.739 E94.98354
G0 F4800 X141.028 Y119.532
G1 F1800 X148.531 Y127.035 E95.33293
G0 F4800 X148.89 Y126.828
G1 F1800 X141.387 Y119.325 E95.68231
G0 F4800 X141.745 Y119.118
G1 F1800 X149.248 Y126.621 E96.0317
G0 F4800 X149.607 Y126.414
G1 F1800 X142.104 Y118.911 E96.38109
G0 F4800 X142.462 Y118.703
G1 F1800 X149.965 Y126.207 E96.7305
G0 F4800 X150.324 Y125.999
G1 F1800 X142.821 Y118.497 E97.07987
G0 F4800 X143.18 Y118.29
G1 F1800 X150.683 Y125.793 E97.42926
G0 F4800 X151.136 Y125.68
G1 F1800 X143.538 Y118.083 E97.78305
G0 F4800 X143.897 Y117.875
G1 F1800 X151.761 Y125.739 E98.14925
G0 F4800 X153.023 Y126.436
G1 F1800 X144.256 Y117.669 E98.5575
G0 F4800 X144.615 Y117.462
G1 F1800 X154.361 Y127.208 E99.01133
G1 F1500 E97.01133
G0 F4800 X155.699 Y127.981
G1 F1500 E99.01133
G1 F1800 X144.973 Y117.255 E99.51081
G0 F4800 X145.332 Y117.047
G1 F1800 X157.038 Y128.754 E100.05594
G1 F1500 E98.05594
G0 F4800 X158.376 Y129.526
G1 F1500 E100.05594
G1 F1800 X145.69 Y116.84 E100.64668
G0 F4800 X146.049 Y116.634
G1 F1800 X159.715 Y130.299 E101.28304
G1 F1500 E99.28304
G0 F4800 X161.053 Y131.072
G1 F1500 E101.28304
G1 F1800 X146.408 Y116.427 E101.96501
G0 F4800 X146.766 Y116.219
G1 F1800 X162.392 Y131.845 E102.69265
G1 F1500 E100.69265
G0 F4800 X163.731 Y132.618
G1 F1500 E102.69265
G1 F1800 X147.125 Y116.012 E103.46594
G0 F4800 X147.483 Y115.805
G1 F1800 X165.069 Y133.391 E104.28486
G1 F1500 E102.28486
G0 F4800 X166.408 Y134.164
G1 F1500 E104.28486
G1 F1800 X147.843 Y115.599 E105.14937
G0 F4800 X148.201 Y115.391
G1 F1800 X167.746 Y134.936 E106.05951
G0 F4800 X168.192 Y135.382
G1 F1800 X178.672 Y145.863 E106.54755
G0 F4800 X178.672 Y146.428
G1 F1800 X168.423 Y136.179 E107.02481
G0 F4800 X168.423 Y136.745
G1 F1800 X178.672 Y146.994 E107.50207
G0 F4800 X178.672 Y147.56
G1 F1800 X168.423 Y137.31 E107.97936
G0 F4800 X168.422 Y137.875
G1 F1800 X178.672 Y148.125 E108.45666
G0 F4800 X178.672 Y148.691
G1 F1800 X168.422 Y138.441 E108.93397
G0 F4800 X168.422 Y139.006
G1 F1800 X178.672 Y149.257 E109.4113
G0 F4800 X178.672 Y149.822
G1 F1800 X168.422 Y139.572 E109.88861
G0 F4800 X168.422 Y140.137
G1 F1800 X178.672 Y150.388 E110.36594
G0 F4800 X178.672 Y150.954
G1 F1800 X168.421 Y140.702 E110.84332
G0 F4800 X168.421 Y141.268
G1 F1800 X178.672 Y151.52 E111.32069
G0 F4800 X178.672 Y152.085
G1 F1800 X168.42 Y141.833 E111.79809
G0 F4800 X168.42 Y142.399
G1 F1800 X178.672 Y152.651 E112.27549
G0 F4800 X178.672 Y153.217
G1 F1800 X168.42 Y142.964 E112.75292
G0 F4800 X168.419 Y143.529
G1 F1800 X178.672 Y153.782 E113.23037
G0 F4800 X178.672 Y154.348
G1 F1800 X168.419 Y144.095 E113.70781
G0 F4800 X168.419 Y144.66
G1 F1800 X178.672 Y154.914 E114.18528
G0 F4800 X178.672 Y155.479
G1 F1800 X168.419 Y145.226 E114.66273
G0 F4800 X168.419 Y145.791
G1 F1800 X178.672 Y156.045 E115.1402
G0 F4800 X178.672 Y156.611
G1 F1800 X168.418 Y146.356 E115.61772
G0 F4800 X168.418 Y146.922
G1 F1800 X178.672 Y157.176 E116.09521
G0 F4800 X178.672 Y157.742
G1 F1800 X168.417 Y147.487 E116.57275
G0 F4800 X168.417 Y148.053
G1 F1800 X178.672 Y158.308 E117.05029
G0 F4800 X178.672 Y158.873
G1 F1800 X168.417 Y148.618 E117.52783
G0 F4800 X168.417 Y149.183
G1 F1800 X178.672 Y159.439 E118.00539
G0 F4800 X178.672 Y160.005
G1 F1800 X168.417 Y149.749 E118.48296
G0 F4800 X168.416 Y150.314
G1 F1800 X178.672 Y160.571 E118.96057
G0 F4800 X178.596 Y161.06
G1 F1800 X168.416 Y150.88 E119.43462
G0 F4800 X168.416 Y151.445
G1 F1800 X178.238 Y161.267 E119.89199
G0 F4800 X177.879 Y161.474
G1 F1800 X168.415 Y152.01 E120.3327
G0 F4800 X168.415 Y152.576
G1 F1800 X177.52 Y161.681 E120.75669
G0 F4800 X177.161 Y161.888
G1 F1800 X168.414 Y153.141 E121.164
G0 F4800 X168.414 Y153.707
G1 F1800 X176.803 Y162.095 E121.55463
G0 F4800 X176.444 Y162.302
G1 F1800 X168.414 Y154.272 E121.92856
G0 F4800 X168.316 Y154.74
G1 F1800 X176.086 Y162.509 E122.29036
G0 F4800 X175.727 Y162.717
G1 F1800 X168.12 Y155.11 E122.64459
G0 F4800 X167.845 Y155.4
G1 F1800 X175.368 Y162.923 E122.99491
G0 F4800 X175.01 Y163.13
G1 F1800 X167.504 Y155.624 E123.34444
G0 F4800 X167.144 Y155.831
G1 F1800 X174.651 Y163.337 E123.69399
G0 F4800 X174.293 Y163.545
