;FLAVOR:Marlin
;TIME:13175
;Filament used: 31.801m
;Layer height: 0.3
;MINX:69.4
;MINY:90.9
;MINZ:0.2
;MAXX:230.6
;MAXY:209.1
;MAXZ:20
;TARGET_MACHINE.NAME:Artillery Sidewinder X1
;Generated with Cura_SteamEngine 5.10.0
M140 S55
M105
M190 S55
M104 S210
M105
M109 S210
G28 ; home all axes
M117 ; Purge extruder
M420 S1 ; enable bed mesh
G92 E0 ; reset extruder
G1 Z1.0 F3000 ; move z up little to prevent scratching of surface
G1 X2 Y20 Z0.3 F5000.0 ; move to start-line position
G1 X2 Y200.0 Z0.3 F1500.0 E15 ; draw 1st line
G1 X2 Y200.0 Z0.4 F5000.0 ; move to side a little
G1 X2 Y20 Z0.4 F1500.0 E30 ; draw 2nd line
G92 E0 ; reset extruder
G1 Z1.0 F3000 ; move z up little to prevent scratching of surface
M82 ;absolute extrusion mode
G92 E0
G92 E0
G1 F1500 E-2
;LAYER_COUNT:67
;LAYER:0
M106 S51
G0 F3600 X71.818 Y92.415 Z0.2
;TYPE:SKIRT
G1 F1500 E0
G1 X72.489 Y91.944 E0.02699
G1 X72.823 Y91.746 E0.03978
G1 X73.443 Y91.432 E0.06266
G1 X74.091 Y91.199 E0.08534
G1 X74.601 Y91.076 E0.10261
G1 X74.975 Y91.006 E0.11514
G1 X75.913 Y90.912 E0.14618
G1 X76.747 Y90.9 E0.17365
G1 X223.417 Y90.9 E5.00313
G1 X224.201 Y90.912 E5.02895
G1 X224.891 Y90.967 E5.05174
G1 X225.558 Y91.097 E5.07411
G1 X226.316 Y91.336 E5.10028
G1 X227.024 Y91.664 E5.12598
G1 X227.317 Y91.826 E5.137
G1 X227.923 Y92.216 E5.16073
G1 X228.577 Y92.765 E5.18885
G1 X229.085 Y93.318 E5.21357
G1 X229.556 Y93.989 E5.24057
G1 X229.754 Y94.323 E5.25335
G1 X230.068 Y94.943 E5.27624
G1 X230.301 Y95.591 E5.29891
G1 X230.424 Y96.101 E5.31618
G1 X230.494 Y96.475 E5.32871
G1 X230.588 Y97.413 E5.35975
G1 X230.6 Y98.253 E5.38742
G1 X230.599 Y201.971 E8.80259
G1 X230.588 Y202.699 E8.82657
G1 X230.533 Y203.388 E8.84933
G1 X230.391 Y204.101 E8.87327
G1 X230.164 Y204.816 E8.89797
G1 X229.836 Y205.524 E8.92366
G1 X229.674 Y205.817 E8.93468
G1 X229.284 Y206.423 E8.95841
G1 X228.735 Y207.077 E8.98653
G1 X228.182 Y207.585 E9.01126
G1 X227.512 Y208.056 E9.03822
G1 X227.168 Y208.26 E9.05139
G1 X226.546 Y208.574 E9.07433
G1 X225.772 Y208.849 E9.10138
G1 X224.932 Y209.028 E9.12966
G1 X224.251 Y209.084 E9.15216
G1 X223.334 Y209.098 E9.18236
G1 X76.584 Y209.1 E14.01447
G1 X75.802 Y209.088 E14.04023
G1 X75.114 Y209.033 E14.06295
G1 X74.433 Y208.901 E14.08579
G1 X73.668 Y208.66 E14.1122
G1 X72.981 Y208.34 E14.13716
G1 X72.647 Y208.154 E14.14975
G1 X72.104 Y207.806 E14.17098
G1 X71.421 Y207.232 E14.20036
G1 X70.914 Y206.679 E14.22506
G1 X70.44 Y206.003 E14.25225
G1 X70.242 Y205.669 E14.26503
G1 X69.929 Y205.049 E14.2879
G1 X69.697 Y204.401 E14.31057
G1 X69.577 Y203.902 E14.32747
G1 X69.507 Y203.529 E14.33996
G1 X69.412 Y202.587 E14.37114
G1 X69.4 Y201.74 E14.39903
G1 X69.401 Y98 E17.81493
G1 X69.412 Y97.298 E17.83805
G1 X69.467 Y96.609 E17.86081
G1 X69.597 Y95.942 E17.88319
G1 X69.836 Y95.184 E17.90936
G1 X70.164 Y94.476 E17.93505
G1 X70.326 Y94.183 E17.94607
G1 X70.716 Y93.577 E17.9698
G1 X71.265 Y92.923 E17.99792
G1 X71.818 Y92.415 E18.02264
G0 F3600 X72.089 Y92.71
G1 F1500 X72.718 Y92.272 E18.04788
G1 X73.005 Y92.102 E18.05887
G1 X73.579 Y91.808 E18.0801
G1 X74.185 Y91.588 E18.10133
G1 X74.676 Y91.469 E18.11797
G1 X75.015 Y91.404 E18.12933
G1 X75.919 Y91.312 E18.15925
G1 X76.753 Y91.3 E18.18672
G1 X223.411 Y91.3 E23.0158
G1 X224.171 Y91.311 E23.04083
G1 X224.814 Y91.36 E23.06206
G1 X225.481 Y91.49 E23.08444
G1 X226.195 Y91.717 E23.10911
G1 X226.83 Y92.014 E23.13219
G1 X227.123 Y92.176 E23.14322
G1 X227.667 Y92.523 E23.16446
G1 X228.282 Y93.036 E23.19083
G1 X228.79 Y93.589 E23.21556
G1 X229.228 Y94.218 E23.2408
G1 X229.398 Y94.505 E23.25178
G1 X229.692 Y95.079 E23.27302
G1 X229.912 Y95.685 E23.29424
G1 X230.031 Y96.176 E23.31088
G1 X230.096 Y96.515 E23.32225
G1 X230.188 Y97.419 E23.35217
G1 X230.2 Y98.253 E23.37963
G1 X230.199 Y201.965 E26.79461
G1 X230.189 Y202.669 E26.81779
G1 X230.14 Y203.312 E26.83903
G1 X230.01 Y203.98 E26.86144
G1 X229.783 Y204.695 E26.88614
G1 X229.486 Y205.33 E26.90922
G1 X229.324 Y205.623 E26.92024
G1 X228.977 Y206.167 E26.94149
G1 X228.464 Y206.782 E26.96786
G1 X227.911 Y207.29 E26.99259
G1 X227.283 Y207.728 E27.0178
G1 X226.986 Y207.904 E27.02917
G1 X226.412 Y208.197 E27.05039
G1 X225.638 Y208.472 E27.07743
G1 X224.899 Y208.629 E27.10231
G1 X224.218 Y208.685 E27.12481
G1 X223.331 Y208.699 E27.15402
G1 X76.59 Y208.7 E31.98584
G1 X75.832 Y208.689 E32.0108
G1 X75.189 Y208.64 E32.03203
G1 X74.552 Y208.519 E32.05338
G1 X73.837 Y208.297 E32.07804
G1 X73.15 Y207.977 E32.10299
G1 X72.863 Y207.817 E32.11381
G1 X72.32 Y207.469 E32.13505
G1 X71.716 Y206.962 E32.16101
G1 X71.209 Y206.409 E32.18572
G1 X70.768 Y205.775 E32.21115
G1 X70.598 Y205.487 E32.22216
G1 X70.305 Y204.913 E32.24338
G1 X70.086 Y204.307 E32.2646
G1 X69.97 Y203.826 E32.28089
G1 X69.905 Y203.488 E32.29222
G1 X69.812 Y202.581 E32.32224
G1 X69.8 Y201.74 E32.34994
G1 X69.801 Y98.006 E35.76564
G1 X69.811 Y97.328 E35.78797
G1 X69.86 Y96.686 E35.80917
G1 X69.99 Y96.019 E35.83155
G1 X70.217 Y95.305 E35.85622
G1 X70.514 Y94.67 E35.8793
G1 X70.676 Y94.377 E35.89032
G1 X71.023 Y93.833 E35.91157
G1 X71.536 Y93.218 E35.93794
G1 X72.089 Y92.71 E35.96267
G1 F1500 E33.96267
;MESH:platform connector.stl
G0 F3600 X74.335 Y101.456
G0 X76.801 Y101.456
;TYPE:WALL-INNER
G1 F1500 E35.96267
G1 X76.984 Y100.977 E35.97955
G1 X77.1 Y100.736 E35.98836
G1 X77.341 Y100.32 E36.00419
G1 X77.49 Y100.101 E36.01291
G1 X77.781 Y99.732 E36.02838
G1 X77.979 Y99.521 E36.03791
G1 X78.411 Y99.124 E36.05723
G1 X78.9 Y98.786 E36.0768
G1 X79.143 Y98.646 E36.08604
G1 X79.559 Y98.445 E36.10125
G1 X79.931 Y98.301 E36.11439
G1 X76.801 Y98.301 E36.21745
G1 X76.801 Y101.456 E36.32134
G1 F1500 E34.32134
G0 F3600 X79.044 Y102.63
G0 X82.047 Y105.424
G0 X82.512 Y107.436
G1 F1500 E36.32134
G1 X81.845 Y107.54 E36.34356
G1 X81.158 Y107.54 E36.36619
G1 X80.487 Y107.442 E36.38851
G1 X79.829 Y107.236 E36.41122
G1 X79.214 Y106.941 E36.43368
G1 X78.662 Y106.559 E36.45578
G1 X78.162 Y106.1 E36.47813
G1 X77.739 Y105.565 E36.50059
G1 X77.395 Y104.974 E36.5231
G1 X77.187 Y104.44 E36.54197
G1 F1339.3 X76.948 Y103.747 E36.56901
G1 F1234.6 X76.914 Y103 E36.59892
G1 F1237.1 X76.948 Y102.257 E36.62862
G1 F1342.3 X77.188 Y101.552 E36.65602
G1 F1500 X77.393 Y101.029 E36.67452
G1 X77.737 Y100.433 E36.69718
G1 X78.16 Y99.898 E36.71964
G1 X78.662 Y99.437 E36.74208
G1 X79.214 Y99.055 E36.76418
G1 X79.733 Y98.806 E36.78314
G1 F1415.1 X80.385 Y98.565 E36.8074
G1 F1234.6 X80.573 Y98.483 E36.8156
G1 F1190.5 X81.139 Y98.417 E36.83925
G1 F1239.7 X81.857 Y98.417 E36.86785
G1 F1188.1 X82.423 Y98.483 E36.89154
G1 F1232 X82.608 Y98.564 E36.89964
G1 F1415.1 X83.272 Y98.808 E36.92433
G1 F1500 X83.777 Y99.053 E36.94281
G1 X84.343 Y99.44 E36.96539
G1 X84.834 Y99.897 E36.98747
G1 X85.257 Y100.429 E37.00985
G1 X85.597 Y101.02 E37.0323
G1 X85.847 Y101.637 E37.05423
G1 X86.005 Y102.33 E37.07763
G1 X86.052 Y103 E37.09975
G1 X86.005 Y103.675 E37.12203
G1 X85.849 Y104.35 E37.14484
G1 X85.607 Y104.953 E37.16623
G1 X85.25 Y105.57 E37.1897
G1 X84.855 Y106.07 E37.21069
G1 X84.342 Y106.557 E37.23398
G1 X83.758 Y106.953 E37.25721
G1 X83.18 Y107.228 E37.27829
G1 X82.512 Y107.436 E37.30132
G0 F3600 X82.422 Y107.047
G1 F1500 X81.818 Y107.14 E37.32145
G1 X81.181 Y107.14 E37.34242
G1 X80.577 Y107.051 E37.36252
G1 X79.97 Y106.861 E37.38347
G1 X79.422 Y106.597 E37.4035
G1 X78.909 Y106.243 E37.42402
G1 X78.457 Y105.828 E37.44422
G1 X78.07 Y105.34 E37.46473
G1 X77.759 Y104.805 E37.48511
G1 X77.531 Y104.221 E37.50575
G1 X77.399 Y103.637 E37.52547
G1 X77.352 Y103 E37.5465
G1 X77.391 Y102.393 E37.56653
G1 X77.531 Y101.774 E37.58742
G1 X77.757 Y101.198 E37.6078
G1 X78.07 Y100.656 E37.62841
G1 X78.455 Y100.171 E37.6488
G1 X78.909 Y99.753 E37.66912
G1 X79.422 Y99.399 E37.68964
G1 X79.973 Y99.134 E37.70977
G1 X80.57 Y98.952 E37.73032
G1 X81.174 Y98.856 E37.75046
G1 X81.822 Y98.856 E37.7718
G1 X82.424 Y98.952 E37.79187
G1 X83.022 Y99.132 E37.81243
G1 X83.577 Y99.401 E37.83274
G1 X84.089 Y99.751 E37.85316
G1 X84.542 Y100.172 E37.87353
G1 X84.926 Y100.656 E37.89387
G1 X85.236 Y101.193 E37.91429
G1 X85.466 Y101.766 E37.93462
G1 X85.609 Y102.389 E37.95567
G1 X85.651 Y103.003 E37.97593
G1 X85.605 Y103.615 E37.99614
G1 X85.466 Y104.232 E38.01697
G1 X85.244 Y104.785 E38.03659
G1 X84.901 Y105.371 E38.05894
G1 X84.509 Y105.855 E38.07945
G1 X84.08 Y106.249 E38.09863
G1 X83.552 Y106.606 E38.11962
G1 X83.032 Y106.857 E38.13863
G1 X82.422 Y107.047 E38.15967
G0 F3600 X82.332 Y106.657
G1 F1500 X81.824 Y106.734 E38.17659
G1 X81.26 Y106.74 E38.19516
G1 X80.668 Y106.66 E38.21483
G1 X80.16 Y106.501 E38.23236
G1 X79.623 Y106.25 E38.25188
G1 X79.194 Y105.954 E38.26904
G1 X78.748 Y105.552 E38.28881
G1 X78.381 Y105.079 E38.30852
G1 X78.1 Y104.582 E38.32732
G1 X77.907 Y104.068 E38.3454
G1 X77.793 Y103.568 E38.36229
G1 X77.752 Y103 E38.38104
G1 X77.785 Y102.494 E38.39773
G1 X77.906 Y101.93 E38.41673
G1 X78.101 Y101.416 E38.43483
G1 X78.38 Y100.92 E38.45357
G1 X78.746 Y100.445 E38.47331
G1 X79.195 Y100.042 E38.49318
G1 X79.62 Y99.748 E38.5102
G1 X80.12 Y99.507 E38.52847
G1 X80.707 Y99.335 E38.54861
G1 X81.167 Y99.263 E38.56394
G1 X81.783 Y99.255 E38.58423
G1 X82.37 Y99.353 E38.60383
G1 X82.834 Y99.493 E38.61978
G1 X83.335 Y99.728 E38.63801
G1 X83.803 Y100.04 E38.65653
G1 X84.25 Y100.446 E38.67641
G1 X84.616 Y100.92 E38.69613
G1 X84.893 Y101.412 E38.71472
G1 X85.083 Y101.886 E38.73153
G1 X85.215 Y102.494 E38.75202
G1 X85.247 Y103.042 E38.7701
G1 X85.21 Y103.555 E38.78703
G1 X85.066 Y104.154 E38.80732
G1 X84.881 Y104.617 E38.82373
G1 X84.603 Y105.099 E38.84206
G1 X84.255 Y105.541 E38.86058
G1 X83.85 Y105.921 E38.87887
G1 X83.36 Y106.255 E38.89839
G1 X82.883 Y106.486 E38.91584
G1 X82.332 Y106.657 E38.93484
G1 F1500 E36.93484
G0 F3600 X114.918 Y122.278
G1 F1500 E38.93484
G1 X114.159 Y122.365 E38.96
G1 X113.472 Y122.329 E38.98265
G1 X112.726 Y122.198 E39.00759
G1 X111.993 Y121.927 E39.03332
G1 X111.376 Y121.6 E39.05631
G1 X110.757 Y121.124 E39.08203
G1 X110.241 Y120.593 E39.10641
G1 X109.828 Y120.003 E39.13012
G1 X109.484 Y119.315 E39.15545
G1 X109.259 Y118.618 E39.17957
G1 X109.145 Y117.868 E39.20454
G1 X109.146 Y117.103 E39.22973
G1 X109.266 Y116.375 E39.25403
G1 X109.474 Y115.704 E39.27716
G1 X109.818 Y115.015 E39.30252
G1 X110.238 Y114.416 E39.32661
G1 X110.648 Y113.978 E39.34636
G1 X110.862 Y113.787 E39.35581
G1 X111.354 Y113.419 E39.37604
G1 X111.877 Y113.126 E39.39578
G1 X112.123 Y113.014 E39.40468
G1 X112.747 Y112.792 E39.42649
G1 X113.434 Y112.671 E39.44945
G1 X114.204 Y112.636 E39.47484
G1 X114.92 Y112.727 E39.4986
G1 X115.673 Y112.926 E39.52425
G1 X116.326 Y113.229 E39.54795
G1 X116.94 Y113.628 E39.57206
G1 X117.477 Y114.097 E39.59554
G1 X117.95 Y114.671 E39.62003
G1 X118.352 Y115.316 E39.64505
G1 X118.644 Y116.036 E39.67064
G1 X118.808 Y116.752 E39.69482
G1 X118.865 Y117.485 E39.71903
G1 X118.809 Y118.233 E39.74373
G1 X118.643 Y118.95 E39.76797
G1 X118.361 Y119.649 E39.79278
G1 X117.975 Y120.299 E39.81768
G1 X117.507 Y120.874 E39.84209
G1 X116.918 Y121.392 E39.86792
G1 X116.314 Y121.779 E39.89154
G1 X115.623 Y122.084 E39.91641
G1 X114.918 Y122.278 E39.94048
G0 F3600 X114.876 Y121.874
G1 F1500 X114.168 Y121.96 E39.96397
G1 X113.476 Y121.93 E39.98678
G1 X112.806 Y121.804 E40.00922
G1 X112.161 Y121.564 E40.03188
G1 X111.559 Y121.238 E40.05443
G1 X111.029 Y120.835 E40.07635
G1 X110.552 Y120.341 E40.09896
G1 X110.158 Y119.774 E40.1217
G1 X109.86 Y119.168 E40.14393
G1 X109.647 Y118.521 E40.16636
G1 X109.544 Y117.827 E40.18946
G1 X109.545 Y117.197 E40.21021
G1 X109.644 Y116.517 E40.23283
G1 X109.849 Y115.848 E40.25587
G1 X110.163 Y115.218 E40.27905
G1 X110.548 Y114.669 E40.30113
G1 X111.017 Y114.177 E40.32351
G1 X111.572 Y113.754 E40.34649
G1 X112.163 Y113.424 E40.36878
G1 X112.81 Y113.193 E40.3914
G1 X113.479 Y113.068 E40.41381
G1 X114.187 Y113.037 E40.43715
G1 X114.846 Y113.12 E40.45902
G1 X115.497 Y113.292 E40.48119
G1 X116.134 Y113.58 E40.50421
G1 X116.698 Y113.946 E40.52635
G1 X117.192 Y114.383 E40.54806
G1 X117.629 Y114.909 E40.57058
G1 X117.993 Y115.505 E40.59358
G1 X118.258 Y116.161 E40.61687
G1 X118.401 Y116.772 E40.63753
G1 X118.464 Y117.49 E40.66127
G1 X118.405 Y118.199 E40.68469
G1 X118.26 Y118.835 E40.70617
G1 X117.996 Y119.485 E40.72927
G1 X117.644 Y120.076 E40.75192
G1 X117.183 Y120.626 E40.77555
G1 X116.693 Y121.061 E40.79713
G1 X116.166 Y121.398 E40.81773
G1 X115.503 Y121.706 E40.8418
G1 X114.876 Y121.874 E40.86317
G0 F3600 X114.793 Y121.483
G1 F1500 X114.154 Y121.564 E40.88438
G1 X113.525 Y121.53 E40.90512
G1 X112.927 Y121.422 E40.92513
G1 X112.332 Y121.206 E40.94597
G1 X111.781 Y120.905 E40.96665
G1 X111.262 Y120.501 E40.98831
G1 X110.863 Y120.084 E41.00731
G1 X110.494 Y119.548 E41.02874
G1 X110.23 Y119.016 E41.04829
G1 X110.052 Y118.474 E41.06708
G1 X109.944 Y117.804 E41.08942
G1 X109.95 Y117.15 E41.11096
G1 X110.052 Y116.53 E41.13165
G1 X110.218 Y116.01 E41.14962
G1 X110.507 Y115.422 E41.17119
G1 X110.857 Y114.923 E41.19126
G1 X111.283 Y114.47 E41.21174
G1 X111.79 Y114.089 E41.23262
G1 X112.327 Y113.791 E41.25284
G1 X112.915 Y113.579 E41.27343
G1 X113.524 Y113.466 E41.29382
G1 X114.155 Y113.44 E41.31462
G1 X114.771 Y113.513 E41.33504
G1 X115.363 Y113.669 E41.3552
G1 X115.94 Y113.927 E41.37601
G1 X116.455 Y114.264 E41.39628
G1 X116.909 Y114.665 E41.41622
G1 X117.308 Y115.148 E41.43685
G1 X117.624 Y115.662 E41.45672
G1 X117.88 Y116.281 E41.47878
G1 X118.019 Y116.918 E41.50024
G1 X118.06 Y117.534 E41.52057
G1 X118.016 Y118.098 E41.5392
G1 X117.879 Y118.708 E41.55979
G1 X117.643 Y119.288 E41.5804
G1 X117.305 Y119.855 E41.60214
G1 X116.923 Y120.325 E41.62208
G1 X116.479 Y120.716 E41.64156
G1 X115.92 Y121.077 E41.66347
G1 X115.392 Y121.316 E41.68256
G1 X114.793 Y121.483 E41.70303
G0 F3600 X114.667 Y121.099
G1 F1500 X114.151 Y121.16 E41.72014
G1 X113.571 Y121.133 E41.73926
G1 X113.031 Y121.032 E41.75735
G1 X112.527 Y120.851 E41.77498
G1 X112.036 Y120.593 E41.79325
G1 X111.573 Y120.243 E41.81236
G1 X111.172 Y119.83 E41.83131
G1 X110.867 Y119.393 E41.84886
G1 X110.592 Y118.843 E41.86911
G1 X110.426 Y118.318 E41.88724
G1 X110.345 Y117.765 E41.90564
G1 X110.344 Y117.237 E41.92303
G1 X110.432 Y116.658 E41.94231
G1 X110.593 Y116.15 E41.95986
G1 X110.851 Y115.626 E41.97909
G1 X111.167 Y115.176 E41.9972
G1 X111.551 Y114.773 E42.01553
G1 X112.008 Y114.425 E42.03444
G1 X112.495 Y114.158 E42.05273
G1 X113.021 Y113.962 E42.07121
G1 X113.568 Y113.863 E42.08952
G1 X114.14 Y113.84 E42.10837
G1 X114.696 Y113.906 E42.1268
G1 X115.229 Y114.046 E42.14495
G1 X115.749 Y114.281 E42.16374
G1 X116.212 Y114.582 E42.18192
G1 X116.651 Y114.975 E42.20132
G1 X116.986 Y115.386 E42.21878
G1 X117.277 Y115.863 E42.23718
G1 X117.494 Y116.398 E42.25619
G1 X117.614 Y116.918 E42.27376
G1 X117.66 Y117.471 E42.29203
G1 X117.619 Y118.044 E42.31095
G1 X117.492 Y118.595 E42.32957
G1 X117.271 Y119.138 E42.34887
G1 X116.966 Y119.64 E42.36821
G1 X116.651 Y120.025 E42.38459
G1 X116.221 Y120.41 E42.4036
G1 X115.745 Y120.717 E42.42225
G1 X115.227 Y120.951 E42.44097
G1 X114.667 Y121.099 E42.46004
G1 F1500 E40.46004
G0 F3600 X138.933 Y110.274
G1 F1500 E42.46004
G1 X138.163 Y110.367 E42.48558
G1 X137.372 Y110.317 E42.51167
G1 X136.718 Y110.195 E42.53358
G1 X136.048 Y109.951 E42.55706
G1 X135.365 Y109.595 E42.58242
G1 X134.748 Y109.123 E42.608
G1 X134.246 Y108.6 E42.63187
G1 X133.816 Y107.982 E42.65666
G1 X133.488 Y107.325 E42.68084
G1 X133.257 Y106.611 E42.70555
G1 X133.149 Y105.864 E42.7304
G1 X133.148 Y105.135 E42.75441
G1 X133.236 Y104.526 E42.77467
G1 X133.3 Y104.254 E42.78387
G1 X133.44 Y103.814 E42.79907
G1 X133.543 Y103.561 E42.80807
G1 X133.755 Y103.132 E42.82382
G1 X133.894 Y102.897 E42.83281
G1 X134.158 Y102.521 E42.84794
