;FLAVOR:Marlin
;TIME:3598
;Filament used: 10.8623m
;Layer height: 0.3
;MINX:87.324
;MINY:87.324
;MINZ:0.2
;MAXX:212.675
;MAXY:212.675
;MAXZ:16.3
;TARGET_MACHINE.NAME:Artillery Sidewinder X1
;Generated with Cura_SteamEngine 5.10.0
M140 S55
M105
M190 S55
M104 S200
M105
M109 S200
G28 ; home all axes
M117 ; Purge extruder
M420 S1 ; enable bed mesh
G92 E0 ; reset extruder
G1 Z1.0 F3000 ; move z up little to prevent scratching of surface
G1 X2 Y20 Z0.3 F5000.0 ; move to start-line position
G1 X2 Y200.0 Z0.3 F1500.0 E15 ; draw 1st line
G1 X2 Y200.0 Z0.4 F5000.0 ; move to side a little
G1 X2 Y20 Z0.4 F1500.0 E30 ; draw 2nd line
G92 E0 ; reset extruder
G1 Z1.0 F3000 ; move z up little to prevent scratching of surface
M82 ;absolute extrusion mode
G92 E0
G92 E0
G1 F1500 E-2
;LAYER_COUNT:54
;LAYER:0
M106 S76.5
G1 F300 Z0.4
G0 F3600 X92.204 Y93.27 Z0.4
;TYPE:SKIRT
G1 F300 Z0.2
G1 F1500 E0
G1 F1800 X93.27 Y92.204 E0.05014
G1 X94.413 Y91.348 E0.09764
G1 X95.743 Y90.623 E0.14802
G1 X97.076 Y90.125 E0.19535
G1 X98.514 Y89.809 E0.24432
G1 X100 Y89.7 E0.29387
G1 X134.35 Y89.7 E1.43636
G1 X137.746 Y88.916 E1.55228
G1 X141.224 Y88.321 E1.66964
G1 X144.729 Y87.923 E1.78697
G1 X148.251 Y87.725 E1.90429
G1 X151.752 Y87.724 E2.02074
G1 X155.257 Y87.921 E2.1375
G1 X158.779 Y88.322 E2.2554
G1 X162.258 Y88.916 E2.37278
G1 X165.651 Y89.7 E2.48861
G1 X200.021 Y89.701 E3.63176
G1 X201.486 Y89.809 E3.68062
G1 X202.924 Y90.125 E3.72959
G1 X204.257 Y90.623 E3.77692
G1 X205.587 Y91.348 E3.8273
G1 X206.73 Y92.204 E3.87479
G1 X207.796 Y93.27 E3.92493
G1 X208.652 Y94.413 E3.97243
G1 X209.377 Y95.743 E4.02281
G1 X209.875 Y97.076 E4.07014
G1 X210.191 Y98.514 E4.11911
G1 X210.3 Y99.999 E4.16863
G1 X210.3 Y134.349 E5.31112
G1 X211.083 Y137.74 E5.42687
G1 X211.68 Y141.242 E5.54503
G1 X212.078 Y144.747 E5.66236
G1 X212.274 Y148.243 E5.77882
G1 X212.275 Y151.772 E5.89619
G1 X212.077 Y155.277 E6.01295
G1 X211.679 Y158.772 E6.12995
G1 X211.08 Y162.278 E6.24825
G1 X210.3 Y165.651 E6.3634
G1 X210.299 Y200.021 E7.50655
G1 X210.191 Y201.486 E7.5554
G1 X209.876 Y202.921 E7.60427
G1 X209.377 Y204.257 E7.6517
G1 X208.652 Y205.587 E7.70208
G1 X207.796 Y206.73 E7.74958
G1 X206.73 Y207.796 E7.79972
G1 X205.587 Y208.652 E7.84722
G1 X204.256 Y209.377 E7.89763
G1 X202.924 Y209.875 E7.94492
G1 X201.486 Y210.191 E7.99389
G1 X200 Y210.3 E8.04345
G1 X165.65 Y210.3 E9.18594
G1 X162.241 Y211.086 E9.3023
G1 X158.764 Y211.679 E9.41961
G1 X155.258 Y212.078 E9.53697
G1 X151.736 Y212.275 E9.6543
G1 X148.235 Y212.276 E9.77074
G1 X144.73 Y212.078 E9.88751
G1 X141.207 Y211.677 E10.00544
G1 X137.746 Y211.085 E10.12222
G1 X134.349 Y210.3 E10.23818
G1 X99.979 Y210.299 E11.38134
G1 X98.514 Y210.191 E11.43019
G1 X97.076 Y209.875 E11.47916
G1 X95.744 Y209.377 E11.52646
G1 X94.413 Y208.652 E11.57687
G1 X93.27 Y207.796 E11.62437
G1 X92.204 Y206.73 E11.67451
G1 X91.348 Y205.587 E11.722
G1 X90.623 Y204.257 E11.77239
G1 X90.124 Y202.921 E11.81982
G1 X89.809 Y201.486 E11.86868
G1 X89.7 Y200.001 E11.91821
G1 X89.7 Y165.65 E13.06073
G1 X88.915 Y162.249 E13.17682
G1 X88.321 Y158.77 E13.29421
G1 X87.923 Y155.265 E13.41153
G1 X87.725 Y151.744 E13.52883
G1 X87.724 Y148.241 E13.64534
G1 X87.924 Y144.71 E13.76297
G1 X88.322 Y141.215 E13.87996
G1 X88.917 Y137.735 E13.99739
G1 X89.7 Y134.349 E14.11298
G1 X89.701 Y99.979 E15.25613
G1 X89.809 Y98.514 E15.30499
G1 X90.124 Y97.079 E15.35385
G1 X90.623 Y95.743 E15.40128
G1 X91.348 Y94.413 E15.45167
G1 X92.204 Y93.27 E15.49916
G0 F3600 X91.921 Y92.987
G1 F1800 X92.987 Y91.921 E15.5493
G1 X94.173 Y91.028 E15.59868
G1 X95.603 Y90.248 E15.65286
G1 X96.99 Y89.734 E15.70206
G1 X98.428 Y89.418 E15.75102
G1 X99.971 Y89.301 E15.80249
G1 X134.303 Y89.3 E16.94438
G1 X137.656 Y88.526 E17.05883
G1 X141.179 Y87.924 E17.17771
G1 X144.707 Y87.524 E17.2958
G1 X148.251 Y87.325 E17.41386
G1 X151.752 Y87.324 E17.5303
G1 X155.302 Y87.524 E17.64856
G1 X158.846 Y87.928 E17.7672
G1 X162.348 Y88.526 E17.88536
G1 X165.698 Y89.3 E17.99972
G1 X200.05 Y89.302 E19.14227
G1 X201.572 Y89.418 E19.19304
G1 X203.064 Y89.75 E19.24388
G1 X204.397 Y90.248 E19.29121
G1 X205.827 Y91.028 E19.34539
G1 X207.013 Y91.921 E19.39476
G1 X208.079 Y92.987 E19.44491
G1 X208.972 Y94.173 E19.49428
G1 X209.752 Y95.603 E19.54846
G1 X210.266 Y96.99 E19.59766
G1 X210.582 Y98.428 E19.64663
G1 X210.699 Y99.97 E19.69806
G1 X210.7 Y134.302 E20.83995
G1 X211.473 Y137.65 E20.95423
G1 X212.077 Y141.197 E21.07391
G1 X212.477 Y144.725 E21.192
G1 X212.674 Y148.243 E21.30919
G1 X212.675 Y151.772 E21.42657
G1 X212.474 Y155.322 E21.54483
G1 X212.073 Y158.839 E21.66256
G1 X211.47 Y162.368 E21.78164
G1 X210.7 Y165.698 E21.89532
G1 X210.698 Y200.05 E23.03787
G1 X210.582 Y201.572 E23.08864
G1 X210.251 Y203.061 E23.13937
G1 X209.752 Y204.397 E23.18681
G1 X208.972 Y205.827 E23.24098
G1 X208.079 Y207.013 E23.29036
G1 X207.013 Y208.079 E23.3405
G1 X205.827 Y208.972 E23.38988
G1 X204.396 Y209.752 E23.44409
G1 X203.01 Y210.266 E23.49325
G1 X201.572 Y210.582 E23.54222
G1 X200.029 Y210.699 E23.59369
G1 X165.697 Y210.7 E24.73558
G1 X162.331 Y211.476 E24.85047
G1 X158.809 Y212.076 E24.9693
G1 X155.28 Y212.477 E25.08743
G1 X151.736 Y212.675 E25.20549
G1 X148.212 Y212.675 E25.32269
G1 X144.685 Y212.475 E25.44019
G1 X141.14 Y212.071 E25.55886
G1 X137.656 Y211.475 E25.67642
G1 X134.302 Y210.7 E25.79092
G1 X99.95 Y210.698 E26.93347
G1 X98.428 Y210.582 E26.98424
G1 X96.936 Y210.25 E27.03508
G1 X95.604 Y209.752 E27.08237
G1 X94.173 Y208.972 E27.13658
G1 X92.987 Y208.079 E27.18596
G1 X91.921 Y207.013 E27.2361
G1 X91.028 Y205.827 E27.28548
G1 X90.248 Y204.397 E27.33966
G1 X89.733 Y203.007 E27.38896
G1 X89.418 Y201.572 E27.43782
G1 X89.301 Y200.03 E27.48926
G1 X89.3 Y165.697 E28.63118
G1 X88.525 Y162.339 E28.7458
G1 X87.924 Y158.815 E28.8647
G1 X87.524 Y155.287 E28.9828
G1 X87.325 Y151.744 E29.10082
G1 X87.324 Y148.241 E29.21733
G1 X87.527 Y144.665 E29.33646
G1 X87.928 Y141.148 E29.4542
G1 X88.527 Y137.645 E29.5724
G1 X89.3 Y134.302 E29.68652
G1 X89.302 Y99.95 E30.82907
G1 X89.418 Y98.428 E30.87984
G1 X89.749 Y96.939 E30.93057
G1 X90.248 Y95.603 E30.97801
G1 X91.028 Y94.173 E31.03218
G1 X91.921 Y92.987 E31.08156
;MESH:Bry??a1
G0 F3600 X92.634 Y93.627
;TYPE:WALL-OUTER
G1 F1800 X91.808 Y94.733 E31.12747
G1 X91.142 Y95.949 E31.17359
G1 X90.651 Y97.266 E31.22034
G1 X90.362 Y98.605 E31.2659
G1 X90.26 Y100.022 E31.31315
G1 X90.259 Y134.401 E32.4566
G1 X89.464 Y137.864 E32.57478
G1 X88.874 Y141.309 E32.69102
G1 X88.48 Y144.759 E32.80652
G1 X88.285 Y148.272 E32.92354
G1 X88.284 Y151.724 E33.03835
G1 X88.48 Y155.214 E33.15462
G1 X88.874 Y158.687 E33.27087
G1 X89.463 Y162.136 E33.38724
G1 X90.26 Y165.599 E33.50543
G1 X90.26 Y199.978 E34.64889
G1 X90.363 Y201.395 E34.69614
G1 X90.651 Y202.73 E34.74156
G1 X91.141 Y204.047 E34.7883
G1 X91.808 Y205.263 E34.83443
G1 X92.634 Y206.373 E34.88045
G1 X93.627 Y207.362 E34.92706
G1 X94.733 Y208.188 E34.97297
G1 X95.949 Y208.854 E35.01909
G1 X97.266 Y209.345 E35.06584
G1 X98.606 Y209.633 E35.11142
G1 X100.022 Y209.74 E35.15865
G1 X134.405 Y209.739 E36.30224
G1 X137.84 Y210.528 E36.41946
G1 X141.301 Y211.122 E36.53626
G1 X144.763 Y211.516 E36.65215
G1 X148.268 Y211.716 E36.76891
G1 X151.716 Y211.712 E36.88359
G1 X155.222 Y211.516 E37.00039
G1 X158.683 Y211.122 E37.11624
G1 X162.144 Y210.532 E37.23302
G1 X165.561 Y209.746 E37.34963
G1 X199.978 Y209.74 E38.49435
G1 X201.394 Y209.634 E38.54158
G1 X202.73 Y209.345 E38.58704
G1 X204.047 Y208.854 E38.63379
G1 X205.263 Y208.188 E38.6799
G1 X206.373 Y207.362 E38.72592
G1 X207.362 Y206.373 E38.77244
G1 X208.188 Y205.263 E38.81846
G1 X208.854 Y204.047 E38.86457
G1 X209.345 Y202.73 E38.91132
G1 X209.633 Y201.394 E38.95678
G1 X209.74 Y199.978 E39.00401
G1 X209.741 Y165.595 E40.14759
G1 X210.532 Y162.148 E40.26522
G1 X211.126 Y158.675 E40.38241
G1 X211.516 Y155.226 E40.49785
G1 X211.712 Y151.736 E40.61411
G1 X211.712 Y148.26 E40.72973
G1 X211.516 Y144.775 E40.84582
G1 X211.122 Y141.321 E40.96145
G1 X210.529 Y137.832 E41.07916
G1 X209.746 Y134.435 E41.1951
G1 X209.74 Y100.022 E42.33968
G1 X209.634 Y98.606 E42.38691
G1 X209.345 Y97.266 E42.43251
G1 X208.855 Y95.949 E42.47924
G1 X208.188 Y94.733 E42.52537
G1 X207.362 Y93.627 E42.57128
G1 X206.373 Y92.634 E42.6179
G1 X205.263 Y91.808 E42.66392
G1 X204.047 Y91.141 E42.71005
G1 X202.73 Y90.651 E42.75678
G1 X201.395 Y90.363 E42.80221
G1 X199.978 Y90.26 E42.84946
G1 X165.59 Y90.259 E43.99321
G1 X162.144 Y89.464 E44.11084
G1 X158.679 Y88.874 E44.22774
G1 X155.222 Y88.48 E44.34347
G1 X151.716 Y88.285 E44.46026
G1 X148.268 Y88.284 E44.57494
G1 X144.762 Y88.484 E44.69174
G1 X141.301 Y88.874 E44.80758
G1 X137.84 Y89.467 E44.92437
G1 X134.397 Y90.26 E45.04188
G1 X100.022 Y90.26 E46.1852
G1 X98.605 Y90.362 E46.23245
G1 X97.266 Y90.651 E46.27801
G1 X95.949 Y91.141 E46.32475
G1 X94.733 Y91.808 E46.37088
G1 X93.627 Y92.634 E46.41679
G1 X92.634 Y93.627 E46.4635
G0 F3600 X92.515 Y93.787
G1 F1500 E44.4635
G1 F300 Z0.4
G0 F3600 X95.548 Y95.701 Z0.4
G1 F300 Z0.2
G1 F1500 E46.4635
G1 F1800 X95.613 Y95.614 E46.46711
G1 X96.164 Y95.197 E46.49009
G1 X96.811 Y94.927 E46.51341
G1 X97.501 Y94.837 E46.53655
G1 X98.198 Y94.933 E46.55996
G1 X98.828 Y95.197 E46.58267
G1 X99.381 Y95.612 E46.60567
G1 X99.804 Y96.164 E46.6288
G1 X100.068 Y96.815 E46.65217
G1 X100.156 Y97.503 E46.67524
G1 X100.061 Y98.206 E46.69883
G1 X99.808 Y98.82 E46.72092
G1 X99.382 Y99.379 E46.74429
G1 X98.842 Y99.795 E46.76697
G1 X98.198 Y100.063 E46.79017
G1 X97.503 Y100.156 E46.81349
G1 X96.815 Y100.068 E46.83656
G1 X96.164 Y99.803 E46.85993
G1 X95.613 Y99.381 E46.88302
G1 X95.198 Y98.834 E46.90586
G1 X94.933 Y98.198 E46.92877
G1 X94.837 Y97.5 E46.95221
G1 X94.933 Y96.796 E46.97584
G1 X95.191 Y96.178 E46.99811
G1 X95.548 Y95.701 E47.01793
G0 F3600 X95.613 Y95.614
G0 X95.685 Y95.56
G1 F1500 E45.01793
G1 F300 Z0.4
G0 F3600 X112.068 Y112.794 Z0.4
G1 F300 Z0.2
G1 F1500 E47.01793
G1 F1800 X113.367 Y111.473 E47.07955
G1 X116.064 Y109.078 E47.19951
G1 X118.884 Y106.894 E47.31815
G1 X121.882 Y104.882 E47.43824
G1 X125.009 Y103.078 E47.55831
G1 X128.217 Y101.503 E47.67717
G1 X131.545 Y100.145 E47.79672
G1 X134.954 Y99.012 E47.9162
G1 X138.432 Y98.112 E48.03569
G1 X141.945 Y97.453 E48.15457
G1 X145.518 Y97.028 E48.27425
G1 X149.117 Y96.848 E48.3941
G1 X152.694 Y96.908 E48.51309
G1 X156.278 Y97.209 E48.63271
G1 X159.821 Y97.754 E48.75194
G1 X163.342 Y98.538 E48.87192
G1 X166.767 Y99.552 E48.99072
G1 X170.143 Y100.802 E49.11046
G1 X173.423 Y102.278 E49.23009
G1 X176.578 Y103.959 E49.34899
G1 X179.629 Y105.861 E49.46857
G1 X182.547 Y107.967 E49.58826
G1 X185.319 Y110.271 E49.70815
G1 X187.908 Y112.728 E49.82686
G1 X190.339 Y115.377 E49.94644
G1 X192.586 Y118.179 E50.0659
G1 X194.636 Y121.126 E50.1853
G1 X196.48 Y124.205 E50.30467
G1 X198.116 Y127.401 E50.42409
G1 X199.538 Y130.709 E50.54385
G1 X200.719 Y134.078 E50.66259
G1 X201.679 Y137.551 E50.78243
G1 X202.402 Y141.064 E50.90172
G1 X202.888 Y144.63 E51.02143
G1 X203.128 Y148.181 E51.1398
G1 X203.128 Y151.81 E51.2605
G1 X202.886 Y155.387 E51.37975
G1 X202.403 Y158.941 E51.49904
G1 X201.675 Y162.466 E51.61876
G1 X200.718 Y165.923 E51.73806
G1 X199.538 Y169.287 E51.85663
G1 X198.116 Y172.595 E51.97639
G1 X196.484 Y175.787 E52.09563
G1 X194.63 Y178.877 E52.21548
G1 X192.586 Y181.817 E52.33458
G1 X190.31 Y184.657 E52.45563
G1 X187.896 Y187.281 E52.57422
G1 X185.306 Y189.741 E52.69302
G1 X182.533 Y192.039 E52.81281
G1 X179.622 Y194.141 E52.93223
G1 X176.563 Y196.046 E53.05209
G1 X173.407 Y197.73 E53.17107
G1 X170.143 Y199.194 E53.29005
G1 X166.75 Y200.45 E53.41038
G1 X163.325 Y201.462 E53.52917
G1 X159.804 Y202.245 E53.64914
G1 X156.271 Y202.788 E53.76803
G1 X152.677 Y203.092 E53.88799
G1 X149.098 Y203.152 E54.00704
G1 X145.501 Y202.967 E54.12684
G1 X141.927 Y202.544 E54.24654
G1 X138.414 Y201.88 E54.36545
G1 X134.938 Y200.979 E54.48489
G1 X131.529 Y199.849 E54.60434
G1 X128.201 Y198.486 E54.72395
G1 X124.989 Y196.91 E54.84295
G1 X121.867 Y195.105 E54.96289
G1 X118.884 Y193.106 E55.08232
G1 X116.051 Y190.907 E55.20161
G1 X113.354 Y188.515 E55.32151
G1 X110.854 Y185.966 E55.44026
G1 X108.511 Y183.236 E55.55991
G1 X106.357 Y180.354 E55.67958
G1 X104.412 Y177.351 E55.79858
G1 X102.68 Y174.227 E55.91739
G1 X101.125 Y170.915 E56.03908
G1 X99.839 Y167.614 E56.15691
G1 X98.767 Y164.194 E56.27612
G1 X97.927 Y160.704 E56.39551
G1 X97.321 Y157.147 E56.51552
G1 X96.96 Y153.589 E56.63447
G1 X96.84 Y149.991 E56.7542
G1 X96.961 Y146.385 E56.87421
G1 X97.323 Y142.832 E56.99299
G1 X97.931 Y139.275 E57.11302
G1 X98.767 Y135.802 E57.23183
G1 X99.845 Y132.365 E57.35163
G1 X101.132 Y129.065 E57.46944
G1 X102.688 Y125.757 E57.59103
G1 X104.425 Y122.63 E57.71001
G1 X106.367 Y119.628 E57.82892
G1 X108.522 Y116.746 E57.94861
G1 X110.866 Y114.017 E58.06827
G1 X112.068 Y112.794 E58.1253
G0 F3600 X112.208 Y112.652
G1 F1500 E56.1253
G1 F300 Z0.4
G0 F3600 X97.503 Y199.84 Z0.4
G1 F300 Z0.2
G1 F1500 E58.1253
G1 F1800 X98.199 Y199.933 E58.14865
G1 X98.818 Y200.191 E58.17096
G1 X99.388 Y200.623 E58.19475
G1 X99.808 Y201.176 E58.21784
G1 X100.064 Y201.798 E58.24021
G1 X100.156 Y202.497 E58.26366
G1 X100.068 Y203.182 E58.28663
G1 X99.803 Y203.832 E58.30998
G1 X99.382 Y204.383 E58.33304
G1 X98.828 Y204.803 E58.35617
G1 X98.199 Y205.063 E58.37881
G1 X97.5 Y205.159 E58.40227
G1 X96.796 Y205.063 E58.4259
G1 X96.178 Y204.809 E58.44813
G1 X95.616 Y204.381 E58.47162
G1 X95.197 Y203.833 E58.49457
G1 X94.927 Y203.185 E58.51792
G1 X94.837 Y202.499 E58.54093
G1 X94.933 Y201.798 E58.56446
G1 X95.197 Y201.169 E58.58715
G1 X95.613 Y200.614 E58.61022
G1 X96.162 Y200.197 E58.63315
G1 X96.814 Y199.928 E58.65661
G1 X97.503 Y199.84 E58.67971
G0 F3600 X97.701 Y199.866
G1 F1500 E56.67971
G1 F300 Z0.4
G0 F3600 X200.614 Y200.613 Z0.4
G1 F300 Z0.2
G1 F1500 E58.67971
G1 F1800 X201.176 Y200.193 E58.70304
G1 X201.8 Y199.932 E58.72554
G1 X202.497 Y199.84 E58.74892
G1 X203.182 Y199.928 E58.7719
G1 X203.834 Y200.197 E58.79535
G1 X204.382 Y200.613 E58.81824
G1 X204.803 Y201.168 E58.84141
G1 X205.063 Y201.798 E58.86407
G1 X205.159 Y202.499 E58.88761
G1 X205.069 Y203.185 E58.91062
G1 X204.803 Y203.833 E58.93392
G1 X204.381 Y204.38 E58.9569
G1 X203.817 Y204.809 E58.98046
G1 X203.2 Y205.063 E59.00266
G1 X202.5 Y205.159 E59.02616
G1 X201.798 Y205.063 E59.04972
G1 X201.168 Y204.803 E59.07239
G1 X200.613 Y204.382 E59.09556
G1 X200.197 Y203.834 E59.11844
G1 X199.928 Y203.182 E59.1419
G1 X199.84 Y202.497 E59.16487
G1 X199.932 Y201.799 E59.18829
G1 X200.195 Y201.171 E59.21093
G1 X200.614 Y200.613 E59.23414
G0 F3600 X200.774 Y200.494
G1 F1500 E57.23414
G1 F300 Z0.4
G0 F3600 X199.84 Y97.503 Z0.4
G1 F300 Z0.2
G1 F1500 E59.23414
G1 F1800 X199.928 Y96.814 E59.25725
G1 X200.197 Y96.162 E59.2807
G1 X200.614 Y95.613 E59.30363
G1 X201.162 Y95.198 E59.3265
G1 X201.798 Y94.933 E59.34941
G1 X202.499 Y94.837 E59.37295
G1 X203.185 Y94.927 E59.39596
G1 X203.831 Y95.196 E59.41923
G1 X204.381 Y95.616 E59.44225
G1 X204.809 Y96.178 E59.46575
G1 X205.063 Y96.796 E59.48797
G1 X205.159 Y97.5 E59.5116
G1 X205.063 Y98.199 E59.53507
G1 X204.803 Y98.828 E59.55771
G1 X204.383 Y99.382 E59.58083
G1 X203.832 Y99.803 E59.60389
G1 X203.182 Y100.068 E59.62724
G1 X202.497 Y100.156 E59.65021
G1 X201.8 Y100.064 E59.67359
G1 X201.164 Y99.804 E59.69644
G1 X200.619 Y99.384 E59.71933
G1 X200.205 Y98.842 E59.74201
G1 X199.932 Y98.197 E59.76531
G1 X199.84 Y97.503 E59.78859
G0 F3600 X199.865 Y97.305
G0 X199.497 Y97.478
;TYPE:WALL-INNER
G1 F1800 X199.599 Y96.728 E59.81377
G1 X199.898 Y95.995 E59.8401
G1 X200.373 Y95.369 E59.86623
G1 X201.003 Y94.9 E59.89236
G1 X201.729 Y94.595 E59.91855
G1 X202.504 Y94.494 E59.94454
