;FLAVOR:Marlin
;TIME:2721
;Filament used: 5.83257m
;Layer height: 0.2
;MINX:77.315
;MINY:77.3
;MINZ:0.2
;MAXX:222.715
;MAXY:222.7
;MAXZ:10
;TARGET_MACHINE.NAME:Artillery Sidewinder X1
;Generated with Cura_SteamEngine 5.10.0
M140 S55
M105
M190 S55
M104 S200
M105
M109 S200
G28 ; home all axes
M117 ; Purge extruder
M420 S1 ; enable bed mesh
G92 E0 ; reset extruder
G1 Z1.0 F3000 ; move z up little to prevent scratching of surface
G1 X2 Y20 Z0.3 F5000.0 ; move to start-line position
G1 X2 Y200.0 Z0.3 F1500.0 E15 ; draw 1st line
G1 X2 Y200.0 Z0.4 F5000.0 ; move to side a little
G1 X2 Y20 Z0.4 F1500.0 E30 ; draw 2nd line
G92 E0 ; reset extruder
G1 Z1.0 F3000 ; move z up little to prevent scratching of surface
M82 ;absolute extrusion mode
G92 E0
G92 E0
G1 F1500 E-2
;LAYER_COUNT:50
;LAYER:0
M106 S76.5
G1 F300 Z0.4
G0 F3600 X97.431 Y100.379 Z0.4
;TYPE:SKIRT
G1 F300 Z0.2
G1 F1500 E0
G1 F1800 X100.406 Y97.405 E0.13991
G1 X103.548 Y94.611 E0.27976
G1 X106.848 Y92.001 E0.41969
G1 X110.278 Y89.599 E0.55897
G1 X113.872 Y87.383 E0.6994
G1 X117.575 Y85.386 E0.83933
G1 X121.386 Y83.61 E0.97918
G1 X125.296 Y82.057 E1.11911
G1 X129.288 Y80.735 E1.25897
G1 X133.349 Y79.648 E1.3988
G1 X137.471 Y78.797 E1.53878
G1 X141.632 Y78.188 E1.67865
G1 X145.821 Y77.822 E1.81851
G1 X150.024 Y77.7 E1.95836
G1 X154.227 Y77.823 E2.09822
G1 X158.416 Y78.19 E2.23808
G1 X162.578 Y78.8 E2.37798
G1 X166.699 Y79.651 E2.51794
G1 X170.759 Y80.74 E2.65775
G1 X174.752 Y82.063 E2.79766
G1 X178.661 Y83.617 E2.93757
G1 X182.471 Y85.394 E3.07739
G1 X186.173 Y87.392 E3.21731
G1 X189.753 Y89.599 E3.35719
G1 X193.197 Y92.012 E3.49706
G1 X196.495 Y94.621 E3.63692
G1 X199.637 Y97.416 E3.77679
G1 X202.61 Y100.391 E3.91668
G1 X205.405 Y103.532 E4.05652
G1 X208.014 Y106.833 E4.19646
G1 X210.416 Y110.262 E4.33571
G1 X212.632 Y113.857 E4.47617
G1 X214.629 Y117.559 E4.61607
G1 X216.405 Y121.37 E4.75592
G1 X217.958 Y125.28 E4.89585
G1 X219.281 Y129.271 E5.03569
G1 X220.368 Y133.334 E5.17558
G1 X221.218 Y137.453 E5.31546
G1 X221.828 Y141.615 E5.45537
G1 X222.194 Y145.805 E5.59526
G1 X222.315 Y150.008 E5.73511
G1 X222.193 Y154.211 E5.87496
G1 X221.826 Y158.402 E6.01489
G1 X221.215 Y162.563 E6.15477
G1 X220.365 Y166.683 E6.29469
G1 X219.276 Y170.744 E6.43453
G1 X217.952 Y174.736 E6.57442
G1 X216.398 Y178.646 E6.71436
G1 X214.621 Y182.456 E6.85418
G1 X212.624 Y186.157 E6.99406
G1 X210.417 Y189.737 E7.13394
G1 X208.003 Y193.181 E7.27382
G1 X205.395 Y196.48 E7.41369
G1 X202.599 Y199.621 E7.55356
G1 X199.625 Y202.595 E7.69344
G1 X196.483 Y205.389 E7.83329
G1 X193.183 Y207.999 E7.97323
G1 X189.753 Y210.401 E8.1125
G1 X186.158 Y212.617 E8.25296
G1 X182.456 Y214.614 E8.39286
G1 X178.645 Y216.39 E8.53271
G1 X174.735 Y217.943 E8.67264
G1 X170.743 Y219.265 E8.8125
G1 X166.682 Y220.352 E8.95233
G1 X162.56 Y221.203 E9.09232
G1 X158.399 Y221.812 E9.23219
G1 X154.21 Y222.178 E9.37204
G1 X150.006 Y222.3 E9.51193
G1 X145.804 Y222.177 E9.65175
G1 X141.615 Y221.81 E9.79161
G1 X137.453 Y221.2 E9.93152
G1 X133.332 Y220.349 E10.07147
G1 X129.272 Y219.26 E10.21128
G1 X125.279 Y217.937 E10.35119
G1 X121.37 Y216.383 E10.4911
G1 X117.56 Y214.606 E10.63093
G1 X113.857 Y212.608 E10.77087
G1 X110.278 Y210.401 E10.91072
G1 X106.834 Y207.988 E11.05059
G1 X103.535 Y205.378 E11.1905
G1 X100.393 Y202.583 E11.33037
G1 X97.419 Y199.608 E11.47028
G1 X94.625 Y196.467 E11.6101
G1 X92.016 Y193.167 E11.75002
G1 X89.613 Y189.737 E11.88931
G1 X87.398 Y186.142 E12.02976
G1 X85.402 Y182.441 E12.16961
G1 X83.626 Y178.63 E12.30946
G1 X82.072 Y174.719 E12.44943
G1 X80.75 Y170.728 E12.58926
G1 X79.663 Y166.666 E12.72912
G1 X78.812 Y162.545 E12.86908
G1 X78.203 Y158.384 E13.00895
G1 X77.837 Y154.194 E13.14884
G1 X77.715 Y149.992 E13.28865
G1 X77.838 Y145.789 E13.42851
G1 X78.205 Y141.599 E13.5684
G1 X78.815 Y137.437 E13.70831
G1 X79.666 Y133.317 E13.84823
G1 X80.755 Y129.256 E13.98807
G1 X82.078 Y125.264 E14.12795
G1 X83.633 Y121.354 E14.2679
G1 X85.41 Y117.544 E14.40773
G1 X87.407 Y113.843 E14.5476
G1 X89.613 Y110.263 E14.68746
G1 X92.027 Y106.819 E14.82735
G1 X94.636 Y103.52 E14.96724
G1 X97.431 Y100.379 E15.10708
G0 F3600 X97.148 Y100.096
G1 F1800 X100.14 Y97.106 E15.24777
G1 X103.3 Y94.297 E15.38839
G1 X106.619 Y91.673 E15.52912
G1 X110.049 Y89.271 E15.66839
G1 X113.682 Y87.031 E15.81035
G1 X117.406 Y85.023 E15.95107
G1 X121.238 Y83.238 E16.09167
G1 X125.17 Y81.677 E16.23238
G1 X129.162 Y80.355 E16.37224
G1 X133.268 Y79.256 E16.51362
G1 X137.413 Y78.401 E16.65438
G1 X141.574 Y77.792 E16.79425
G1 X145.809 Y77.422 E16.93564
G1 X150.036 Y77.3 E17.07629
G1 X154.239 Y77.423 E17.21615
G1 X158.474 Y77.794 E17.35754
G1 X162.659 Y78.408 E17.49823
G1 X166.78 Y79.259 E17.63818
G1 X170.885 Y80.36 E17.77954
G1 X174.9 Y81.691 E17.92023
G1 X178.83 Y83.254 E18.0609
G1 X182.64 Y85.031 E18.20072
G1 X186.363 Y87.04 E18.34143
G1 X189.983 Y89.271 E18.48286
G1 X193.427 Y91.684 E18.62273
G1 X196.761 Y94.322 E18.76413
G1 X199.92 Y97.133 E18.90477
G1 X202.909 Y100.125 E19.04544
G1 X205.719 Y103.284 E19.18606
G1 X208.342 Y106.604 E19.32679
G1 X210.757 Y110.052 E19.4668
G1 X212.973 Y113.647 E19.60726
G1 X214.992 Y117.39 E19.74871
G1 X216.777 Y121.222 E19.88931
G1 X218.338 Y125.154 E20.03002
G1 X219.661 Y129.145 E20.16986
G1 X220.76 Y133.253 E20.3113
G1 X221.614 Y137.395 E20.45196
G1 X222.224 Y141.557 E20.59187
G1 X222.594 Y145.793 E20.7333
G1 X222.715 Y150.02 E20.87395
G1 X222.593 Y154.223 E21.0138
G1 X222.222 Y158.46 E21.15526
G1 X221.607 Y162.644 E21.29591
G1 X220.757 Y166.764 E21.43583
G1 X219.656 Y170.87 E21.57722
G1 X218.324 Y174.884 E21.71789
G1 X216.761 Y178.815 E21.85859
G1 X214.984 Y182.625 E21.99842
G1 X212.976 Y186.347 E22.13908
G1 X210.745 Y189.967 E22.28051
G1 X208.331 Y193.411 E22.42039
G1 X205.694 Y196.746 E22.5618
G1 X202.882 Y199.904 E22.70244
G1 X199.891 Y202.894 E22.8431
G1 X196.731 Y205.703 E22.98373
G1 X193.412 Y208.327 E23.12445
G1 X189.963 Y210.742 E23.26449
G1 X186.368 Y212.958 E23.40495
G1 X182.625 Y214.977 E23.5464
G1 X178.793 Y216.762 E23.687
G1 X174.861 Y218.323 E23.82771
G1 X170.869 Y219.645 E23.96758
G1 X166.763 Y220.744 E24.10895
G1 X162.618 Y221.599 E24.24972
G1 X158.457 Y222.208 E24.38959
G1 X154.222 Y222.578 E24.53098
G1 X149.994 Y222.7 E24.67166
G1 X145.792 Y222.577 E24.81148
G1 X141.557 Y222.206 E24.95288
G1 X137.372 Y221.592 E25.09356
G1 X133.251 Y220.741 E25.23352
G1 X129.146 Y219.64 E25.37488
G1 X125.131 Y218.309 E25.51556
G1 X121.201 Y216.746 E25.65623
G1 X117.391 Y214.969 E25.79606
G1 X113.667 Y212.96 E25.93679
G1 X110.048 Y210.729 E26.0782
G1 X106.604 Y208.316 E26.21806
G1 X103.269 Y205.677 E26.35951
G1 X100.11 Y202.866 E26.50016
G1 X97.12 Y199.874 E26.64084
G1 X94.311 Y196.715 E26.78144
G1 X91.688 Y193.397 E26.92212
G1 X89.272 Y189.947 E27.0622
G1 X87.057 Y186.352 E27.20265
G1 X85.039 Y182.61 E27.34405
G1 X83.254 Y178.778 E27.48465
G1 X81.692 Y174.845 E27.62541
G1 X80.37 Y170.854 E27.76524
G1 X79.271 Y166.747 E27.90665
G1 X78.416 Y162.603 E28.04738
G1 X77.807 Y158.442 E28.18725
G1 X77.437 Y154.206 E28.32867
G1 X77.315 Y149.98 E28.46929
G1 X77.438 Y145.777 E28.60914
G1 X77.809 Y141.541 E28.75057
G1 X78.423 Y137.356 E28.89126
G1 X79.274 Y133.236 E29.03118
G1 X80.375 Y129.13 E29.17257
G1 X81.706 Y125.116 E29.31323
G1 X83.27 Y121.185 E29.45394
G1 X85.047 Y117.375 E29.59377
G1 X87.066 Y113.633 E29.73519
G1 X89.285 Y110.033 E29.87584
G1 X91.699 Y106.589 E30.01573
G1 X94.337 Y103.254 E30.15715
G1 X97.148 Y100.096 E30.29777
;MESH:Bry??a2
G0 F3600 X97.826 Y100.775
;TYPE:WALL-OUTER
G1 F1800 X95.052 Y103.892 E30.43655
G1 X92.473 Y107.152 E30.57481
G1 X90.07 Y110.587 E30.71424
G1 X87.882 Y114.139 E30.85299
G1 X85.791 Y118.012 E30.99939
G1 X85.801 Y118.028 E31.00001
G1 X84.139 Y121.592 E31.13081
G1 X82.605 Y125.454 E31.26902
G1 X81.286 Y129.431 E31.40838
G1 X80.21 Y133.444 E31.54657
G1 X79.365 Y137.55 E31.686
G1 X78.759 Y141.679 E31.8248
G1 X78.396 Y145.82 E31.96306
G1 X78.273 Y150.007 E32.10238
G1 X78.396 Y154.176 E32.2411
G1 X78.759 Y158.317 E32.37936
G1 X79.365 Y162.446 E32.51816
G1 X80.21 Y166.552 E32.65759
G1 X81.286 Y170.565 E32.79578
G1 X82.605 Y174.543 E32.93517
G1 X84.139 Y178.404 E33.07335
G1 X85.801 Y181.968 E33.20414
G1 X85.791 Y181.984 E33.20477
G1 X87.882 Y185.857 E33.35116
G1 X90.07 Y189.413 E33.49003
G1 X92.473 Y192.844 E33.62935
G1 X95.052 Y196.104 E33.76761
G1 X97.826 Y199.221 E33.90639
G1 X100.791 Y202.186 E34.04585
G1 X103.908 Y204.96 E34.18464
G1 X107.168 Y207.539 E34.32289
G1 X110.599 Y209.938 E34.46214
G1 X114.151 Y212.13 E34.60096
G1 X118.028 Y214.221 E34.74747
G1 X118.044 Y214.211 E34.7481
G1 X121.608 Y215.873 E34.87889
G1 X125.469 Y217.407 E35.01707
G1 X129.447 Y218.726 E35.15647
G1 X133.46 Y219.802 E35.29465
G1 X137.566 Y220.647 E35.43408
G1 X141.691 Y221.253 E35.57275
G1 X145.836 Y221.616 E35.71114
G1 X150.012 Y221.739 E35.8501
G1 X154.192 Y221.616 E35.98918
G1 X158.337 Y221.253 E36.12758
G1 X162.462 Y220.647 E36.26625
G1 X166.568 Y219.802 E36.40567
G1 X170.581 Y218.726 E36.54386
G1 X174.559 Y217.407 E36.68325
G1 X178.42 Y215.873 E36.82144
G1 X181.984 Y214.211 E36.95223
G1 X182 Y214.221 E36.95286
G1 X185.877 Y212.13 E37.09937
G1 X189.429 Y209.938 E37.23819
G1 X192.86 Y207.539 E37.37744
G1 X196.12 Y204.96 E37.51569
G1 X199.237 Y202.186 E37.65447
G1 X202.202 Y199.221 E37.79394
G1 X204.976 Y196.104 E37.93272
G1 X207.551 Y192.844 E38.07089
G1 X209.958 Y189.413 E38.21029
G1 X212.146 Y185.857 E38.34916
G1 X214.237 Y181.984 E38.49555
G1 X214.227 Y181.968 E38.49618
G1 X215.889 Y178.404 E38.62697
G1 X217.423 Y174.542 E38.76518
G1 X218.742 Y170.565 E38.90454
G1 X219.818 Y166.552 E39.04273
G1 X220.663 Y162.446 E39.18216
G1 X221.269 Y158.317 E39.32096
G1 X221.632 Y154.176 E39.45922
G1 X221.751 Y149.989 E39.59854
G1 X221.632 Y145.82 E39.73725
G1 X221.269 Y141.659 E39.87618
G1 X220.663 Y137.55 E40.01432
G1 X219.818 Y133.444 E40.15375
G1 X218.742 Y129.431 E40.29194
G1 X217.423 Y125.453 E40.43133
G1 X215.889 Y121.592 E40.56951
G1 X214.227 Y118.028 E40.7003
G1 X214.238 Y118.012 E40.70095
G1 X212.146 Y114.139 E40.84736
G1 X209.958 Y110.587 E40.98611
G1 X207.551 Y107.152 E41.12562
G1 X204.976 Y103.892 E41.26379
G1 X202.202 Y100.775 E41.40257
G1 X199.237 Y97.81 E41.54204
G1 X196.12 Y95.036 E41.68082
G1 X192.86 Y92.461 E41.81899
G1 X189.425 Y90.054 E41.9585
G1 X185.873 Y87.866 E42.09725
G1 X182 Y85.775 E42.24364
G1 X181.984 Y85.785 E42.24427
G1 X178.42 Y84.123 E42.37507
G1 X174.558 Y82.589 E42.51328
G1 X170.581 Y81.27 E42.65264
G1 X166.568 Y80.198 E42.79079
G1 X162.462 Y79.349 E42.93025
G1 X158.337 Y78.743 E43.06892
G1 X154.192 Y78.38 E43.20731
G1 X150.012 Y78.261 E43.34639
G1 X145.836 Y78.38 E43.48534
G1 X141.691 Y78.743 E43.62373
G1 X137.566 Y79.349 E43.76241
G1 X133.46 Y80.198 E43.90186
G1 X129.447 Y81.27 E44.04001
G1 X125.469 Y82.589 E44.17941
G1 X121.608 Y84.123 E44.31759
G1 X118.044 Y85.785 E44.44838
G1 X118.028 Y85.775 E44.44901
G1 X114.155 Y87.866 E44.5954
G1 X110.603 Y90.054 E44.73416
G1 X107.168 Y92.461 E44.87366
G1 X103.908 Y95.036 E45.01183
G1 X100.791 Y97.81 E45.15062
G1 X97.826 Y100.775 E45.29008
G0 F3600 X97.694 Y100.924
G1 F1500 E43.29008
G1 F300 Z0.4
G0 F3600 X108.866 Y111.089 Z0.4
G1 F300 Z0.2
G1 F1500 E45.29008
G1 F1800 X109.954 Y109.93 E45.34295
G1 X112.671 Y107.382 E45.46684
G1 X115.524 Y105.044 E45.58953
G1 X118.538 Y102.883 E45.71288
G1 X121.685 Y100.93 E45.83606
G1 X124.956 Y99.179 E45.95946
G1 X128.34 Y97.648 E46.083
G1 X131.808 Y96.343 E46.20624
G1 X135.368 Y95.262 E46.32999
G1 X138.936 Y94.43 E46.45184
G1 X142.634 Y93.821 E46.5765
G1 X146.311 Y93.46 E46.69938
G1 X150.021 Y93.34 E46.82284
G1 X153.734 Y93.461 E46.9464
G1 X157.411 Y93.823 E47.06929
G1 X161.092 Y94.43 E47.19337
G1 X164.668 Y95.264 E47.3155
G1 X168.236 Y96.348 E47.43953
G1 X171.704 Y97.655 E47.5628
G1 X175.087 Y99.186 E47.6863
G1 X178.358 Y100.939 E47.80974
G1 X181.504 Y102.892 E47.93289
G1 X184.517 Y105.054 E48.05624
G1 X187.37 Y107.394 E48.17896
G1 X190.082 Y109.938 E48.30264
G1 X192.623 Y112.647 E48.42617
G1 X194.965 Y115.498 E48.54889
G1 X197.129 Y118.522 E48.67257
G1 X199.086 Y121.669 E48.79583
G1 X200.833 Y124.94 E48.91917
G1 X202.368 Y128.328 E49.04288
G1 X203.665 Y131.788 E49.16578
G1 X204.75 Y135.356 E49.28982
G1 X205.585 Y138.937 E49.41211
G1 X206.191 Y142.618 E49.53619
G1 X206.552 Y146.295 E49.65908
G1 X206.672 Y150.001 E49.78241
G1 X206.551 Y153.718 E49.9061
G1 X206.189 Y157.391 E50.02886
G1 X205.582 Y161.076 E50.15307
G1 X204.748 Y164.652 E50.2752
G1 X203.664 Y168.22 E50.39923
G1 X202.361 Y171.684 E50.52232
G1 X200.83 Y175.067 E50.64583
G1 X199.077 Y178.342 E50.76938
G1 X197.12 Y181.488 E50.89261
G1 X194.966 Y184.493 E51.01558
G1 X192.618 Y187.354 E51.13868
G1 X190.074 Y190.066 E51.26236
G1 X187.365 Y192.607 E51.38589
G1 X184.504 Y194.956 E51.50901
G1 X181.502 Y197.106 E51.63182
G1 X178.343 Y199.07 E51.75554
G1 X175.072 Y200.817 E51.87888
G1 X171.688 Y202.348 E52.00242
G1 X168.22 Y203.653 E52.12566
G1 X164.66 Y204.734 E52.24941
G1 X161.075 Y205.569 E52.37183
G1 X157.394 Y206.175 E52.49591
G1 X153.731 Y206.536 E52.61833
G1 X150.003 Y206.66 E52.7424
G1 X146.294 Y206.535 E52.86583
G1 X142.617 Y206.173 E52.98872
G1 X138.936 Y205.566 E53.1128
G1 X135.36 Y204.732 E53.23493
G1 X131.792 Y203.648 E53.35896
G1 X128.324 Y202.341 E53.48223
G1 X124.941 Y200.81 E53.60573
G1 X121.67 Y199.061 E53.7291
G1 X118.524 Y197.104 E53.85233
G1 X115.511 Y194.945 E53.97561
G1 X112.658 Y192.602 E54.0984
G1 X109.942 Y190.054 E54.22227
G1 X107.398 Y187.341 E54.34597
G1 X105.052 Y184.48 E54.46903
G1 X102.899 Y181.474 E54.59201
G1 X100.942 Y178.327 E54.71526
G1 X99.191 Y175.052 E54.83878
G1 X97.66 Y171.668 E54.96232
G1 X96.359 Y168.204 E55.08539
G1 X95.278 Y164.644 E55.20913
G1 X94.443 Y161.059 E55.33156
G1 X93.837 Y157.374 E55.45577
G1 X93.476 Y153.701 E55.57852
G1 X93.352 Y149.991 E55.70199
G1 X93.477 Y146.278 E55.82555
G1 X93.839 Y142.605 E55.94831
G1 X94.446 Y138.92 E56.07253
G1 X95.28 Y135.348 E56.19453
G1 X96.364 Y131.776 E56.31868
G1 X97.667 Y128.312 E56.44178
G1 X99.198 Y124.933 E56.56516
G1 X100.951 Y121.654 E56.68883
G1 X102.908 Y118.508 E56.81206
G1 X105.062 Y115.503 E56.93503
G1 X107.41 Y112.642 E57.05813
G1 X108.866 Y111.089 E57.12893
G0 F3600 X109.002 Y110.944
G0 X108.62 Y110.854
;TYPE:WALL-INNER
G1 F1800 X109.707 Y109.695 E57.18178
G1 X112.455 Y107.119 E57.30706
G1 X115.295 Y104.791 E57.4292
G1 X118.331 Y102.612 E57.55349
G1 X121.524 Y100.631 E57.67847
G1 X124.816 Y98.869 E57.80266
G1 X128.22 Y97.33 E57.92691
G1 X131.709 Y96.017 E58.0509
G1 X135.291 Y94.931 E58.17539
G1 X138.859 Y94.099 E58.29725
G1 X142.601 Y93.482 E58.42339
G1 X146.267 Y93.122 E58.54591
G1 X150.032 Y93 E58.6712
G1 X153.767 Y93.122 E58.79549
G1 X157.466 Y93.487 E58.91912
G1 X161.169 Y94.099 E59.04395
G1 X164.775 Y94.941 E59.16711
G1 X168.356 Y96.03 E59.2916
G1 X171.818 Y97.334 E59.41465
G1 X175.218 Y98.872 E59.53876
G1 X178.519 Y100.639 E59.66329
G1 X181.702 Y102.616 E59.78792
G1 X184.733 Y104.792 E59.91202
G1 X187.603 Y107.146 E60.03548
G1 X190.317 Y109.691 E60.15923
G1 X192.877 Y112.421 E60.2837
G1 X195.248 Y115.31 E60.40801
G1 X197.4 Y118.315 E60.53094
G1 X199.386 Y121.509 E60.65604
G1 X201.143 Y124.8 E60.78012
G1 X202.686 Y128.209 E60.90458
G1 X203.991 Y131.689 E61.02819
G1 X205.081 Y135.279 E61.15298
G1 X205.916 Y138.858 E61.27521
G1 X206.53 Y142.585 E61.40084
G1 X206.89 Y146.251 E61.52336
G1 X207.012 Y150.012 E61.64852
G1 X206.89 Y153.751 E61.77295
G1 X206.53 Y157.407 E61.89513
G1 X205.913 Y161.153 E62.0214
G1 X205.071 Y164.759 E62.14457
G1 X203.982 Y168.34 E62.26906
G1 X202.682 Y171.798 E62.39193
G1 X201.13 Y175.228 E62.51715
G1 X199.366 Y178.521 E62.6414
G1 X197.396 Y181.686 E62.76539
