;FLAVOR:Marlin
;TIME:1948
;Filament used: 4.85494m
;Layer height: 0.4
;MINX:130.944
;MINY:130.935
;MINZ:0.3
;MAXX:169.068
;MAXY:169.062
;MAXZ:19.9
;TARGET_MACHINE.NAME:Artillery Sidewinder X1
;Generated with Cura_SteamEngine 5.10.0
M140 S55
M105
M190 S55
M104 S210
M105
M109 S210
G28 ; home all axes
M117 ; Purge extruder
M420 S1 ; enable bed mesh
G92 E0 ; reset extruder
G1 Z1.0 F3000 ; move z up little to prevent scratching of surface
G1 X2 Y20 Z0.3 F5000.0 ; move to start-line position
G1 X2 Y200.0 Z0.3 F1500.0 E15 ; draw 1st line
G1 X2 Y200.0 Z0.4 F5000.0 ; move to side a little
G1 X2 Y20 Z0.4 F1500.0 E30 ; draw 2nd line
G92 E0 ; reset extruder
G1 Z1.0 F3000 ; move z up little to prevent scratching of surface
M82 ;absolute extrusion mode
G92 E0
G92 E0
G1 F1500 E-2
;LAYER_COUNT:50
;LAYER:0
M106 S76.5
;MESH:Bry??a5
G0 F3600 X152.803 Y145.066 Z0.3
;TYPE:WALL-OUTER
G1 F1500 E0
G1 F1800 X152.412 Y145.156 E0.02002
G1 X152.046 Y145.16 E0.03828
G1 X151.672 Y145.083 E0.05733
G1 X151.116 Y144.931 E0.08609
G1 X150.563 Y144.839 E0.11405
G1 X150.004 Y144.809 E0.14198
G1 X149.445 Y144.839 E0.16991
G1 X148.892 Y144.931 E0.19788
G1 X148.339 Y145.083 E0.22649
G1 X148.003 Y145.155 E0.24364
G1 X147.612 Y145.156 E0.26314
G1 X147.222 Y145.07 E0.28307
G1 X146.883 Y144.909 E0.30179
G1 X146.564 Y144.664 E0.32186
G1 X136.975 Y135.068 E0.99866
G1 X136.849 Y134.606 E1.02255
G1 X136.961 Y134.167 E1.04516
G1 X137.269 Y133.853 E1.0671
G1 X137.563 Y133.743 E1.08276
G1 X162.4 Y133.74 E2.32188
G1 X162.732 Y133.852 E2.33936
G1 X163.038 Y134.158 E2.36095
G1 X163.132 Y134.435 E2.37555
G1 X163.128 Y134.802 E2.39386
G1 X163.011 Y135.09 E2.40937
G1 X153.444 Y144.664 E3.08462
G1 X153.126 Y144.91 E3.10468
G1 X152.803 Y145.066 E3.12257
G0 F3600 X152.608 Y145.11
G1 F1500 E1.12257
G0 F3600 X150.66 Y153.243
G1 F1500 E3.12257
G1 F1800 X150.151 Y153.304 E3.14815
G1 X149.609 Y153.284 E3.17521
G1 X149.065 Y153.175 E3.20289
G1 X148.53 Y152.964 E3.23158
G1 X148.066 Y152.682 E3.25867
G1 X147.664 Y152.337 E3.2851
G1 X147.3 Y151.906 E3.31324
G1 X147.044 Y151.478 E3.33812
G1 X146.829 Y150.939 E3.36707
G1 X146.723 Y150.421 E3.39345
G1 X146.701 Y149.845 E3.42221
G1 X146.763 Y149.327 E3.44824
G1 X146.915 Y148.816 E3.47483
G1 X147.172 Y148.288 E3.50413
G1 X147.468 Y147.876 E3.52944
G1 X147.857 Y147.479 E3.55717
G1 X148.288 Y147.168 E3.58369
G1 X148.802 Y146.915 E3.61227
G1 X149.317 Y146.759 E3.63911
G1 X149.84 Y146.693 E3.66541
G1 X150.399 Y146.712 E3.69332
G1 X150.957 Y146.829 E3.72176
G1 X151.478 Y147.032 E3.74966
G1 X151.906 Y147.288 E3.77454
G1 X152.341 Y147.656 E3.80297
G1 X152.689 Y148.062 E3.82965
G1 X152.987 Y148.558 E3.85851
G1 X153.183 Y149.073 E3.886
G1 X153.289 Y149.572 E3.91146
G1 X153.311 Y150.157 E3.94066
G1 X153.245 Y150.671 E3.96652
G1 X153.09 Y151.206 E3.9943
G1 X152.837 Y151.71 E4.02244
G1 X152.529 Y152.144 E4.04899
G1 X152.151 Y152.517 E4.07548
G1 X151.687 Y152.85 E4.10398
G1 X151.19 Y153.09 E4.13151
G1 X150.66 Y153.243 E4.15903
G0 F3600 X150.462 Y153.266
G1 F1500 E2.15903
G0 F3600 X156.993 Y168.629
G1 F1500 E4.15903
G1 F1800 X157.149 Y168.345 E4.1752
G1 X157.491 Y168.143 E4.19502
G1 X166.495 Y168.14 E4.64423
G1 X166.82 Y168.107 E4.66053
G1 X167.13 Y168.011 E4.67672
G1 X167.415 Y167.858 E4.69285
G1 X167.663 Y167.654 E4.70888
G1 X167.867 Y167.406 E4.7249
G1 X168.018 Y167.127 E4.74072
G1 X168.111 Y166.813 E4.75706
G1 X168.144 Y166.494 E4.77306
G1 X168.144 Y157.584 E5.21758
G1 X168.247 Y157.3 E5.23266
G1 X168.447 Y157.097 E5.24687
G1 X168.685 Y156.961 E5.26055
G1 X168.744 Y156.863 E5.26626
G1 X168.744 Y155.635 E5.32752
G1 X168.676 Y155.521 E5.33414
G1 X168.38 Y155.364 E5.35086
G1 X168.236 Y155.176 E5.36267
G1 X168.147 Y154.897 E5.37728
G1 X168.144 Y144.988 E5.87165
G1 X168.317 Y144.683 E5.88914
G1 X168.529 Y144.525 E5.90233
G1 X168.71 Y144.428 E5.91258
G1 X168.744 Y144.352 E5.91673
G1 X168.744 Y143.132 E5.9776
G1 X168.677 Y143.018 E5.98419
G1 X168.367 Y142.853 E6.00171
G1 X168.151 Y142.491 E6.02274
G1 X168.144 Y133.509 E6.47086
G1 X168.111 Y133.183 E6.48721
G1 X168.018 Y132.872 E6.5034
G1 X167.866 Y132.589 E6.51943
G1 X167.662 Y132.337 E6.5356
G1 X167.419 Y132.138 E6.55127
G1 X167.132 Y131.986 E6.56747
G1 X166.82 Y131.893 E6.58372
G1 X166.506 Y131.86 E6.59947
G1 X157.592 Y131.86 E7.04419
G1 X157.308 Y131.757 E7.05926
G1 X157.099 Y131.546 E7.07408
G1 X156.987 Y131.325 E7.08644
G1 X156.874 Y131.26 E7.09294
G1 X155.668 Y131.26 E7.15311
G1 X155.491 Y131.37 E7.16351
G1 X155.337 Y131.653 E7.17958
G1 X154.997 Y131.853 E7.19926
G1 X145.092 Y131.86 E7.69342
G1 X144.808 Y131.757 E7.7085
G1 X144.599 Y131.546 E7.72331
G1 X144.487 Y131.325 E7.73567
G1 X144.374 Y131.26 E7.74218
G1 X143.195 Y131.26 E7.801
G1 X143.015 Y131.367 E7.81145
G1 X142.861 Y131.652 E7.82761
G1 X142.521 Y131.853 E7.84731
G1 X133.513 Y131.86 E8.29672
G1 X133.187 Y131.893 E8.31307
G1 X132.879 Y131.986 E8.32912
G1 X132.589 Y132.138 E8.34546
G1 X132.349 Y132.337 E8.36101
G1 X132.142 Y132.589 E8.37728
G1 X131.994 Y132.872 E8.39321
G1 X131.896 Y133.185 E8.40958
G1 X131.864 Y133.498 E8.42527
G1 X131.861 Y142.512 E8.87499
G1 X131.647 Y142.879 E8.89618
G1 X131.332 Y143.045 E8.91394
G1 X131.268 Y143.155 E8.92029
G1 X131.264 Y144.308 E8.97782
G1 X131.374 Y144.488 E8.98834
G1 X131.665 Y144.642 E9.00477
G1 X131.864 Y144.984 E9.02451
G1 X131.861 Y155.012 E9.52481
G1 X131.648 Y155.378 E9.54593
G1 X131.332 Y155.545 E9.56377
G1 X131.268 Y155.655 E9.57011
G1 X131.265 Y156.9 E9.63223
G1 X131.369 Y157.007 E9.63967
G1 X131.691 Y157.204 E9.6585
G1 X131.864 Y157.518 E9.67639
G1 X131.864 Y166.487 E10.12386
G1 X131.897 Y166.816 E10.14035
G1 X131.993 Y167.127 E10.15659
G1 X132.142 Y167.407 E10.17241
G1 X132.345 Y167.655 E10.1884
G1 X132.593 Y167.858 E10.20439
G1 X132.881 Y168.011 E10.22066
G1 X133.188 Y168.107 E10.23671
G1 X133.504 Y168.136 E10.25254
G1 X142.445 Y168.14 E10.69861
G1 X142.775 Y168.257 E10.71608
G1 X142.972 Y168.505 E10.73188
G1 X143.05 Y168.671 E10.74103
G1 X143.162 Y168.736 E10.74749
G1 X144.316 Y168.74 E10.80506
G1 X144.493 Y168.629 E10.81549
G1 X144.649 Y168.345 E10.83165
G1 X144.991 Y168.143 E10.85147
G1 X154.944 Y168.14 E11.34803
G1 X155.275 Y168.257 E11.36554
G1 X155.472 Y168.505 E11.38134
G1 X155.55 Y168.671 E11.39049
G1 X155.662 Y168.736 E11.39695
G1 X156.816 Y168.74 E11.45453
G1 X156.993 Y168.629 E11.46495
G0 F3600 X157.089 Y168.454
G1 F1500 E9.46495
G0 F3600 X162.735 Y166.145
G1 F1500 E11.46495
G1 F1800 X162.445 Y166.257 E11.48046
G1 X137.538 Y166.26 E12.72308
G1 X137.165 Y166.052 E12.74438
G1 X137.066 Y165.954 E12.75133
G1 X136.876 Y165.623 E12.77037
G1 X136.876 Y165.198 E12.79158
G1 X136.993 Y164.903 E12.80741
G1 X146.57 Y155.328 E13.48305
G1 X146.886 Y155.086 E13.50291
G1 X147.189 Y154.938 E13.51973
G1 X147.596 Y154.84 E13.54062
G1 X147.962 Y154.836 E13.55888
G1 X148.355 Y154.917 E13.5789
G1 X148.877 Y155.065 E13.60596
G1 X149.444 Y155.157 E13.63462
G1 X150.004 Y155.187 E13.6626
G1 X150.563 Y155.157 E13.69053
G1 X151.116 Y155.065 E13.7185
G1 X151.672 Y154.913 E13.74725
G1 X152.004 Y154.841 E13.7642
G1 X152.452 Y154.846 E13.78656
G1 X152.786 Y154.925 E13.80368
G1 X153.126 Y155.086 E13.82245
G1 X153.441 Y155.33 E13.84233
G1 X163.022 Y164.91 E14.51828
G1 X163.16 Y165.393 E14.54334
G1 X163.047 Y165.833 E14.56601
G1 X162.735 Y166.145 E14.58802
G0 F3600 X162.549 Y166.217
G1 F1500 E12.58802
G0 F3600 X165.959 Y162.937
G1 F1500 E14.58802
G1 F1800 X165.631 Y163.128 E14.60696
G1 X165.188 Y163.127 E14.62906
G1 X164.912 Y163.006 E14.64409
G1 X155.338 Y153.433 E15.31955
G1 X155.093 Y153.121 E15.33935
G1 X154.93 Y152.768 E15.35874
G1 X154.848 Y152.388 E15.37814
G1 X154.849 Y152.001 E15.39745
G1 X154.922 Y151.66 E15.41484
G1 X155.073 Y151.112 E15.4432
G1 X155.165 Y150.559 E15.47117
G1 X155.195 Y150 E15.4991
G1 X155.165 Y149.437 E15.52723
G1 X155.073 Y148.888 E15.555
G1 X154.925 Y148.347 E15.58298
G1 X154.844 Y147.952 E15.6031
G1 X154.848 Y147.59 E15.62116
G1 X154.946 Y147.181 E15.64214
G1 X155.125 Y146.829 E15.66184
G1 X155.34 Y146.56 E15.67903
G1 X164.934 Y136.968 E16.35586
G1 X165.362 Y136.851 E16.378
G1 X165.644 Y136.879 E16.39214
G1 X165.957 Y137.058 E16.41013
G1 X166.056 Y137.157 E16.41711
G1 X166.264 Y137.53 E16.43842
G1 X166.261 Y162.471 E17.68273
G1 X166.056 Y162.839 E17.70375
G1 X165.959 Y162.937 E17.71063
G0 F3600 X165.787 Y163.037
G1 F1500 E15.71063
G0 F3600 X134.852 Y163.117
G1 F1500 E17.71063
G1 F1800 X134.585 Y163.153 E17.72407
G1 X134.17 Y163.042 E17.7455
G1 X133.86 Y162.732 E17.76737
G1 X133.747 Y162.437 E17.78313
G1 X133.744 Y137.675 E19.01851
G1 X133.855 Y137.273 E19.03932
G1 X134.164 Y136.958 E19.06133
G1 X134.581 Y136.849 E19.08284
G1 X134.856 Y136.889 E19.0967
G1 X135.202 Y137.087 E19.11659
G1 X144.677 Y146.567 E19.78528
G1 X144.913 Y146.875 E19.80464
G1 X145.066 Y147.182 E19.82175
G1 X145.158 Y147.552 E19.84077
G1 X145.169 Y147.968 E19.86153
G1 X145.083 Y148.345 E19.88082
G1 X144.935 Y148.887 E19.90885
G1 X144.847 Y149.44 E19.93679
G1 X144.817 Y150 E19.96477
G1 X144.847 Y150.56 E19.99275
G1 X144.935 Y151.112 E20.02064
G1 X145.083 Y151.637 E20.04785
G1 X145.168 Y152.04 E20.0684
G1 X145.164 Y152.405 E20.08661
G1 X145.074 Y152.796 E20.10663
G1 X144.914 Y153.124 E20.12483
G1 X144.655 Y153.454 E20.14576
G1 X135.203 Y162.905 E20.81262
G1 X134.852 Y163.117 E20.83307
G0 F3600 X134.654 Y163.143
G0 X134.952 Y163.444
;TYPE:WALL-INNER
G1 F1800 X134.563 Y163.499 E20.85267
G1 X134.149 Y163.388 E20.87406
G1 X133.879 Y163.233 E20.88959
G1 X133.659 Y163.013 E20.90511
G1 X133.528 Y162.815 E20.91696
G1 X133.404 Y162.469 E20.93529
G1 X133.404 Y137.628 E22.17462
G1 X133.509 Y137.248 E22.19428
G1 X133.659 Y136.987 E22.2093
G1 X133.871 Y136.771 E22.2244
G1 X134.14 Y136.613 E22.23997
G1 X134.583 Y136.491 E22.26289
G1 X134.98 Y136.573 E22.28312
G1 X135.391 Y136.796 E22.30644
G1 X144.897 Y146.303 E22.97718
G1 X145.19 Y146.669 E23.00057
G1 X145.398 Y147.087 E23.02386
G1 X145.503 Y147.535 E23.04682
G1 X145.509 Y148.002 E23.07012
G1 X145.412 Y148.435 E23.09226
G1 X145.267 Y148.959 E23.11938
G1 X145.186 Y149.476 E23.14549
G1 X145.157 Y150 E23.17167
G1 X145.186 Y150.524 E23.19786
G1 X145.268 Y151.039 E23.22387
G1 X145.41 Y151.545 E23.25009
G1 X145.508 Y151.99 E23.27283
G1 X145.503 Y152.466 E23.29657
G1 X145.394 Y152.91 E23.31938
G1 X145.192 Y153.33 E23.34264
G1 X144.896 Y153.694 E23.36604
G1 X135.397 Y163.191 E24.03618
G1 X134.952 Y163.444 E24.06172
G0 F3600 X135.108 Y163.823
G1 F1800 X134.537 Y163.906 E24.0905
G1 X134.046 Y163.775 E24.11586
G1 X133.596 Y163.516 E24.14176
G1 X133.376 Y163.296 E24.15728
G1 X133.158 Y162.967 E24.17697
G1 F1791 X133.004 Y162.532 E24.20011
G1 X133.004 Y137.712 E25.44457
G1 F1751.8 X133.029 Y137.443 E25.45842
G1 F1743.3 X133.122 Y137.141 E25.4747
G1 F1791 X133.374 Y136.707 E25.49986
G1 F1800 X133.586 Y136.491 E25.51496
G1 X134.033 Y136.228 E25.54084
G1 X134.463 Y136.109 E25.5631
G1 X134.757 Y136.119 E25.57777
G1 X135.168 Y136.213 E25.59881
G1 X135.631 Y136.472 E25.62528
G1 X145.18 Y146.02 E26.29897
G1 X145.527 Y146.45 E26.32654
G1 X145.774 Y146.941 E26.35396
G1 X145.903 Y147.488 E26.382
G1 X145.908 Y147.927 E26.4039
G1 F1756.1 X145.861 Y148.311 E26.42369
G1 X145.659 Y149.043 E26.46252
G1 F1791 X145.586 Y149.518 E26.48661
G1 F1782.2 X145.559 Y150 E26.51094
G1 F1791 X145.584 Y150.482 E26.53514
G1 X145.661 Y150.953 E26.55907
G1 F1747.6 X145.918 Y151.896 E26.60929
G1 F1760.4 X145.9 Y152.528 E26.64155
G1 F1800 X145.771 Y153.044 E26.66808
G1 X145.53 Y153.549 E26.696
G1 X145.178 Y153.977 E26.72365
G1 X135.646 Y163.507 E27.39611
G1 X135.108 Y163.823 E27.42724
G1 F1500 E25.42724
G0 F3600 X136.666 Y164.807
G1 F1500 E27.42724
G1 F1800 X136.791 Y164.623 E27.43834
G1 X146.307 Y155.107 E28.10974
G1 X146.677 Y154.808 E28.13347
G1 X147.092 Y154.611 E28.15639
G1 X147.536 Y154.501 E28.17921
G1 X148.017 Y154.496 E28.20321
G1 X148.448 Y154.59 E28.22522
G1 X148.951 Y154.732 E28.2513
G1 X149.48 Y154.818 E28.27803
G1 X150.004 Y154.847 E28.30422
G1 X150.526 Y154.818 E28.3303
G1 X151.043 Y154.733 E28.35644
G1 X151.569 Y154.588 E28.38366
G1 X151.996 Y154.495 E28.40546
G1 X152.47 Y154.501 E28.42911
G1 X152.919 Y154.608 E28.45214
G1 X153.337 Y154.81 E28.4753
G1 X153.656 Y155.066 E28.49571
G1 X163.252 Y164.662 E29.17276
G1 X163.347 Y164.818 E29.18187
G1 X163.491 Y165.307 E29.2073
G1 X163.49 Y165.489 E29.21638
G1 X163.392 Y165.855 E29.23529
G1 X163.237 Y166.125 E29.25082
G1 X163.017 Y166.345 E29.26634
G1 X162.823 Y166.474 E29.27796
G1 X162.477 Y166.6 E29.29633
G1 X137.608 Y166.6 E30.53705
G1 X137.315 Y166.525 E30.55214
G1 X137 Y166.349 E30.57015
G1 X136.771 Y166.123 E30.5862
G1 X136.615 Y165.851 E30.60184
G1 X136.536 Y165.571 E30.61635
G1 X136.536 Y165.142 E30.63776
G1 X136.666 Y164.807 E30.65569
G0 F3600 X136.339 Y164.545
G1 F1800 X136.508 Y164.34 E30.66894
G1 X146.024 Y154.824 E31.34035
G1 X146.463 Y154.466 E31.36861
G1 X146.956 Y154.235 E31.39577
G1 X147.476 Y154.104 E31.42252
G1 F1764.7 X148.113 Y154.087 E31.45495
G1 F1756.1 X149.049 Y154.341 E31.50454
G1 F1791 X149.552 Y154.423 E31.5301
G1 X150.004 Y154.445 E31.55279
G1 F1782.2 X150.494 Y154.417 E31.57752
G1 F1791 X150.967 Y154.34 E31.60155
G1 F1795.5 X151.515 Y154.188 E31.62999
G1 F1791 X151.958 Y154.095 E31.65269
G1 F1800 X152.517 Y154.101 E31.68058
G1 X153.055 Y154.229 E31.70817
G1 X153.558 Y154.472 E31.73604
G1 X153.984 Y154.824 E31.76361
G1 X163.559 Y164.405 E32.43939
G1 X163.734 Y164.698 E32.45641
G1 X163.879 Y165.233 E32.48407
G1 X163.891 Y165.538 E32.4993
G1 X163.779 Y165.958 E32.52098
G1 X163.52 Y166.408 E32.54688
G1 X163.3 Y166.628 E32.56241
G1 X162.977 Y166.844 E32.58179
G1 F1791 X162.546 Y167 E32.60477
G1 X156.251 Y167.006 E32.9204
G1 F1800 X144.129 Y167 E33.52517
G1 X143.751 Y167.006 E33.54403
G1 X137.608 Y166.999 E33.85051
G1 X137.121 Y166.874 E33.87559
G1 X136.805 Y166.698 E33.89364
G1 X136.424 Y166.322 E33.92035
G1 X136.268 Y166.05 E33.93599
G1 X136.136 Y165.584 E33.96015
G1 X136.137 Y165.073 E33.98565
G1 X136.339 Y164.545 E34.01385
G1 F1500 E32.01385
G0 F3600 X133.52 Y167.796
G1 F1500 E34.01385
G1 F1800 X142.445 Y167.8 E34.45912
G1 X142.859 Y167.927 E34.48073
G1 X143.072 Y168.085 E34.49396
G1 X143.297 Y168.396 E34.51311
G1 X144.227 Y168.399 E34.55951
G1 X144.417 Y168.086 E34.57777
G1 X144.763 Y167.883 E34.59779
G1 X144.985 Y167.8 E34.60961
G1 X154.944 Y167.8 E35.10647
G1 X155.359 Y167.927 E35.12812
G1 X155.572 Y168.085 E35.14135
G1 X155.797 Y168.396 E35.1605
G1 X156.727 Y168.399 E35.2069
G1 X156.917 Y168.086 E35.22517
G1 X157.263 Y167.883 E35.24518
G1 X157.485 Y167.8 E35.257
G1 X166.479 Y167.8 E35.70572
G1 X166.752 Y167.772 E35.71941
G1 X166.998 Y167.696 E35.73225
G1 X167.225 Y167.573 E35.74513
G1 X167.421 Y167.412 E35.75779
G1 X167.667 Y167.112 E35.77715
G1 X167.776 Y166.747 E35.79615
G1 X167.804 Y166.477 E35.80969
G1 X167.804 Y157.584 E36.25337
G1 X167.878 Y157.237 E36.27107
G1 X168.095 Y156.95 E36.28902
G1 X168.404 Y156.728 E36.308
G1 X168.404 Y155.768 E36.35589
G1 X168.14 Y155.605 E36.37137
G1 X167.964 Y155.38 E36.38563
G1 X167.804 Y154.922 E36.40983
G1 X167.804 Y145.056 E36.90205
G1 X167.862 Y144.797 E36.91529
G1 X168.094 Y144.427 E36.93708
G1 X168.404 Y144.21 E36.95595
G1 X168.404 Y143.266 E37.00305
G1 X168.108 Y143.082 E37.02044
G1 X167.892 Y142.72 E37.04147
G1 X167.808 Y142.495 E37.05345
G1 X167.804 Y133.526 E37.50092
G1 X167.776 Y133.25 E37.51476
G1 X167.702 Y133.003 E37.52762
G1 X167.582 Y132.778 E37.54034
G1 X167.343 Y132.483 E37.55928
G1 X167.003 Y132.302 E37.5785
G1 X166.754 Y132.227 E37.59148
G1 X166.489 Y132.2 E37.60476
G1 X157.592 Y132.2 E38.04864
G1 X157.246 Y132.126 E38.06629
G1 X156.961 Y131.912 E38.08407
G1 X156.74 Y131.599 E38.10319
G1 X155.758 Y131.6 E38.15218
G1 X155.571 Y131.909 E38.1702
