;FLAVOR:Marlin
;TIME:1272
;Filament used: 1.6552m
;Layer height: 0.2
;MINX:118.15
;MINY:120.65
;MINZ:0.2
;MAXX:181.847
;MAXY:179.35
;MAXZ:2.8
;TARGET_MACHINE.NAME:Artillery Sidewinder X1
;Generated with Cura_SteamEngine 5.8.1
M140 S65
M105
M190 S65
M104 S210
M105
M109 S210
M82 ;absolute extrusion mode
G28 ; home all axes
M117 ; Purge extruder
M420 S1 ; enable bed mesh
G92 E0 ; reset extruder
G1 Z1.0 F3000 ; move z up little to prevent scratching of surface
G1 X2 Y20 Z0.3 F5000.0 ; move to start-line position
G1 X2 Y200.0 Z0.3 F1500.0 E15 ; draw 1st line
G1 X2 Y200.0 Z0.4 F5000.0 ; move to side a little
G1 X2 Y20 Z0.4 F1500.0 E30 ; draw 2nd line
G92 E0 ; reset extruder
G1 Z1.0 F3000 ; move z up little to prevent scratching of surface
G92 E0
G92 E0
G1 F1500 E-2
;LAYER_COUNT:14
;LAYER:0
M107
G0 F3600 X123.263 Y126.011 Z0.2
;TYPE:SKIRT
G1 F1500 E0
G1 X123.763 Y125.522 E0.02188
G1 X124.374 Y124.976 E0.04751
G1 X124.69 Y124.715 E0.06033
G1 X125.665 Y123.971 E0.09869
G1 X126.082 Y123.682 E0.11457
G1 X126.929 Y123.15 E0.14585
G1 X127.456 Y122.843 E0.16493
G1 X128.023 Y122.544 E0.18498
G1 X128.842 Y122.166 E0.2132
G1 X129.197 Y122.019 E0.22522
G1 X130.316 Y121.6 E0.2626
G1 X130.842 Y121.433 E0.27986
G1 X132.031 Y121.118 E0.31834
G1 X132.529 Y121.01 E0.33428
G1 X133.683 Y120.818 E0.37087
G1 X134.232 Y120.758 E0.38815
G1 X135.458 Y120.675 E0.42658
G1 X136.178 Y120.654 E0.44912
G1 X163.306 Y120.65 E1.29771
G1 X164.532 Y120.673 E1.33607
G1 X165.312 Y120.716 E1.36051
G1 X165.733 Y120.754 E1.37373
G1 X166.957 Y120.915 E1.41235
G1 X167.512 Y121.018 E1.43
G1 X168.648 Y121.287 E1.46652
G1 X169.173 Y121.437 E1.4836
G1 X170.326 Y121.828 E1.52169
G1 X170.804 Y122.017 E1.53776
G1 X171.91 Y122.518 E1.57575
G1 X172.524 Y122.828 E1.59726
G1 X172.993 Y123.097 E1.61417
G1 X173.604 Y123.474 E1.63663
G1 X173.917 Y123.68 E1.64835
G1 X174.689 Y124.229 E1.67799
G1 X175.039 Y124.493 E1.6917
G1 X175.312 Y124.715 E1.70271
G1 X176.164 Y125.458 E1.73807
G1 X176.703 Y125.973 E1.76139
G1 X177.096 Y126.392 E1.77936
G1 X177.527 Y126.878 E1.79968
G1 X177.782 Y127.187 E1.81221
G1 X178.527 Y128.162 E1.85059
G1 X178.818 Y128.583 E1.8666
G1 X179.454 Y129.601 E1.90415
G1 X179.789 Y130.196 E1.92551
G1 X180.061 Y130.741 E1.94456
G1 X180.332 Y131.337 E1.96504
G1 X180.481 Y131.697 E1.97723
G1 X180.898 Y132.813 E2.0145
G1 X181.058 Y133.304 E2.03065
G1 X181.32 Y134.269 E2.06193
G1 X181.423 Y134.69 E2.07549
G1 X181.49 Y135.027 E2.08624
G1 X181.648 Y135.964 E2.11596
G1 X181.708 Y136.388 E2.12936
G1 X181.742 Y136.733 E2.1402
G1 X181.825 Y137.97 E2.17898
G1 X181.846 Y138.844 E2.20633
G1 X181.819 Y140.025 E2.24328
G1 X181.768 Y140.85 E2.26914
G1 X181.697 Y141.65 E2.29426
G1 X181.495 Y144.359 E2.37924
G1 X181.37 Y147.067 E2.46404
G1 X181.325 Y149.683 E2.54588
G1 X181.353 Y152.354 E2.62944
G1 X181.454 Y154.968 E2.71127
G1 X181.764 Y159.155 E2.8426
G1 X181.816 Y159.972 E2.86821
G1 X181.847 Y161.068 E2.90251
G1 X181.837 Y161.817 E2.92594
G1 X181.788 Y162.781 E2.95613
G1 X181.746 Y163.234 E2.97037
G1 X181.585 Y164.457 E3.00895
G1 X181.482 Y165.012 E3.02661
G1 X181.213 Y166.148 E3.06313
G1 X181.064 Y166.67 E3.08011
G1 X180.675 Y167.819 E3.11806
G1 X180.479 Y168.317 E3.1348
G1 X180.064 Y169.237 E3.16637
G1 X179.822 Y169.738 E3.18377
G1 X179.666 Y170.035 E3.19427
G1 X179.4 Y170.499 E3.211
G1 X179.026 Y171.107 E3.23333
G1 X178.82 Y171.417 E3.24497
G1 X178.272 Y172.189 E3.27458
G1 X178.016 Y172.528 E3.28787
G1 X177.784 Y172.812 E3.29934
G1 X177.14 Y173.553 E3.33005
G1 X176.754 Y173.971 E3.34785
G1 X176.512 Y174.217 E3.35864
G1 X176.108 Y174.596 E3.37597
G1 X175.622 Y175.027 E3.39629
G1 X175.313 Y175.282 E3.40882
G1 X174.338 Y176.027 E3.44721
G1 X173.918 Y176.318 E3.46319
G1 X173.066 Y176.854 E3.49468
G1 X172.305 Y177.288 E3.52208
G1 X171.761 Y177.56 E3.54111
G1 X171.165 Y177.831 E3.56159
G1 X170.803 Y177.981 E3.57385
G1 X169.684 Y178.4 E3.61122
G1 X169.158 Y178.567 E3.62849
G1 X167.969 Y178.882 E3.66696
G1 X167.471 Y178.99 E3.6829
G1 X166.317 Y179.182 E3.7195
G1 X165.768 Y179.242 E3.73677
G1 X164.542 Y179.325 E3.77521
G1 X163.834 Y179.344 E3.79737
G1 X136.694 Y179.35 E4.64634
G1 X135.47 Y179.327 E4.68463
G1 X134.688 Y179.284 E4.70913
G1 X134.266 Y179.246 E4.72239
G1 X133.043 Y179.085 E4.76097
G1 X132.488 Y178.982 E4.77863
G1 X131.352 Y178.713 E4.81515
G1 X130.827 Y178.563 E4.83223
G1 X129.674 Y178.172 E4.87031
G1 X129.196 Y177.983 E4.88639
G1 X128.09 Y177.482 E4.92437
G1 X127.476 Y177.172 E4.94589
G1 X127.007 Y176.903 E4.9628
G1 X126.396 Y176.526 E4.98526
G1 X126.081 Y176.319 E4.99705
G1 X125.297 Y175.76 E5.02717
G1 X124.952 Y175.5 E5.04068
G1 X124.686 Y175.281 E5.05146
G1 X123.811 Y174.518 E5.08778
G1 X123.295 Y174.025 E5.1101
G1 X122.905 Y173.609 E5.12794
G1 X122.472 Y173.121 E5.14835
G1 X122.216 Y172.81 E5.16095
G1 X121.472 Y171.836 E5.19929
G1 X121.18 Y171.416 E5.21529
G1 X120.645 Y170.565 E5.24673
G1 X120.226 Y169.832 E5.27314
G1 X119.946 Y169.274 E5.29267
G1 X119.668 Y168.665 E5.31361
G1 X119.517 Y168.3 E5.32597
G1 X119.099 Y167.182 E5.36331
G1 X118.933 Y166.658 E5.3805
G1 X118.618 Y165.469 E5.41898
G1 X118.51 Y164.971 E5.43492
G1 X118.318 Y163.817 E5.47151
G1 X118.258 Y163.268 E5.48879
G1 X118.174 Y162.022 E5.52785
G1 X118.154 Y161.323 E5.54973
G1 X118.15 Y139.194 E6.24195
G1 X118.173 Y137.97 E6.28024
G1 X118.216 Y137.188 E6.30474
G1 X118.254 Y136.765 E6.31803
G1 X118.415 Y135.545 E6.35652
G1 X118.517 Y134.991 E6.37414
G1 X118.791 Y133.834 E6.41133
G1 X118.938 Y133.324 E6.42794
G1 X119.328 Y132.175 E6.46589
G1 X119.524 Y131.68 E6.48255
G1 X120.021 Y130.583 E6.52022
G1 X120.325 Y129.983 E6.54126
G1 X120.61 Y129.485 E6.55921
G1 X120.98 Y128.884 E6.58128
G1 X121.18 Y128.583 E6.59259
G1 X121.728 Y127.813 E6.62215
G1 X121.993 Y127.463 E6.63589
G1 X122.216 Y127.188 E6.64696
G1 X122.86 Y126.447 E6.67767
G1 X123.263 Y126.011 E6.69624
G0 F3600 X123.529 Y126.282
G1 F1500 X124.016 Y125.805 E6.71757
G1 X124.616 Y125.269 E6.74273
G1 X124.921 Y125.017 E6.75511
G1 X125.882 Y124.283 E6.79294
G1 X126.284 Y124.004 E6.80824
G1 X127.12 Y123.478 E6.83914
G1 X127.633 Y123.179 E6.85771
G1 X128.183 Y122.889 E6.87716
G1 X128.987 Y122.517 E6.90488
G1 X129.33 Y122.375 E6.91649
G1 X130.432 Y121.962 E6.9533
G1 X130.939 Y121.8 E6.96995
G1 X132.111 Y121.489 E7.00788
G1 X132.591 Y121.385 E7.02324
G1 X133.725 Y121.196 E7.05921
G1 X134.258 Y121.137 E7.07598
G1 X135.469 Y121.055 E7.11395
G1 X136.178 Y121.034 E7.13614
G1 X163.299 Y121.03 E7.98451
G1 X164.511 Y121.052 E8.02243
G1 X165.278 Y121.094 E8.04646
G1 X165.684 Y121.131 E8.05921
G1 X166.888 Y121.289 E8.0972
G1 X167.424 Y121.388 E8.11425
G1 X168.56 Y121.657 E8.15077
G1 X169.051 Y121.797 E8.16674
G1 X170.187 Y122.182 E8.20426
G1 X170.647 Y122.363 E8.21972
G1 X171.739 Y122.857 E8.25722
G1 X172.335 Y123.158 E8.2781
G1 X172.794 Y123.421 E8.29465
G1 X173.395 Y123.791 E8.31673
G1 X173.697 Y123.99 E8.32804
G1 X174.46 Y124.532 E8.35732
G1 X174.799 Y124.788 E8.3706
G1 X175.062 Y125.002 E8.38121
G1 X175.901 Y125.733 E8.41602
G1 X176.44 Y126.248 E8.43934
G1 X176.812 Y126.644 E8.45634
G1 X177.234 Y127.12 E8.47623
G1 X177.48 Y127.418 E8.48832
G1 X178.215 Y128.379 E8.52617
G1 X178.496 Y128.784 E8.54159
G1 X179.123 Y129.787 E8.57859
G1 X179.449 Y130.366 E8.59937
G1 X179.715 Y130.899 E8.61801
G1 X179.981 Y131.482 E8.63805
G1 X180.125 Y131.83 E8.64983
G1 X180.537 Y132.931 E8.68661
G1 X180.691 Y133.404 E8.70217
G1 X180.951 Y134.359 E8.73313
G1 X181.05 Y134.765 E8.7462
G1 X181.115 Y135.09 E8.75657
G1 X181.272 Y136.017 E8.78598
G1 X181.33 Y136.426 E8.7989
G1 X181.363 Y136.758 E8.80934
G1 X181.445 Y137.979 E8.84762
G1 X181.466 Y138.836 E8.87443
G1 X181.44 Y140.001 E8.91089
G1 X181.389 Y140.816 E8.93643
G1 X181.318 Y141.616 E8.96155
G1 X181.115 Y144.341 E9.04703
G1 X180.99 Y147.049 E9.13183
G1 X180.945 Y149.676 E9.21402
G1 X180.973 Y152.369 E9.29826
G1 X181.075 Y154.996 E9.3805
G1 X181.385 Y159.179 E9.51171
G1 X181.436 Y159.983 E9.53691
G1 X181.467 Y161.063 E9.57071
G1 X181.457 Y161.798 E9.5937
G1 X181.408 Y162.762 E9.62389
G1 X181.369 Y163.185 E9.63718
G1 X181.211 Y164.388 E9.67514
G1 X181.112 Y164.924 E9.69219
G1 X180.843 Y166.06 E9.7287
G1 X180.704 Y166.548 E9.74458
G1 X180.321 Y167.68 E9.78196
G1 X180.132 Y168.161 E9.79812
G1 X179.722 Y169.072 E9.82937
G1 X179.486 Y169.561 E9.84636
G1 X179.336 Y169.846 E9.85643
G1 X179.076 Y170.3 E9.8728
G1 X178.709 Y170.897 E9.89472
G1 X178.51 Y171.197 E9.90598
G1 X177.968 Y171.96 E9.93526
G1 X177.721 Y172.288 E9.9481
G1 X177.497 Y172.563 E9.9592
G1 X176.861 Y173.295 E9.98953
G1 X176.483 Y173.705 E10.00698
G1 X176.252 Y173.94 E10.01728
G1 X175.856 Y174.312 E10.03428
G1 X175.38 Y174.734 E10.05418
G1 X175.082 Y174.98 E10.06627
G1 X174.121 Y175.715 E10.10411
G1 X173.716 Y175.996 E10.11953
G1 X172.877 Y176.524 E10.15054
G1 X172.135 Y176.948 E10.17727
G1 X171.603 Y177.214 E10.19588
G1 X171.02 Y177.48 E10.21592
G1 X170.67 Y177.625 E10.22778
G1 X169.568 Y178.038 E10.26459
G1 X169.061 Y178.2 E10.28124
G1 X167.889 Y178.511 E10.31917
G1 X167.409 Y178.615 E10.33453
G1 X166.275 Y178.804 E10.37049
G1 X165.742 Y178.863 E10.38727
G1 X164.531 Y178.945 E10.42524
G1 X163.828 Y178.965 E10.44724
G1 X136.701 Y178.97 E11.2958
G1 X135.491 Y178.948 E11.33366
G1 X134.722 Y178.906 E11.35775
G1 X134.315 Y178.869 E11.37053
G1 X133.112 Y178.711 E11.40849
G1 X132.576 Y178.612 E11.42554
G1 X131.44 Y178.343 E11.46205
G1 X130.949 Y178.203 E11.47803
G1 X129.813 Y177.818 E11.51555
G1 X129.353 Y177.637 E11.53101
G1 X128.261 Y177.143 E11.5685
G1 X127.665 Y176.842 E11.58939
G1 X127.206 Y176.579 E11.60594
G1 X126.605 Y176.209 E11.62801
G1 X126.301 Y176.009 E11.6394
G1 X125.526 Y175.457 E11.66916
G1 X125.193 Y175.206 E11.6822
G1 X124.936 Y174.995 E11.6926
G1 X124.074 Y174.243 E11.72839
G1 X123.558 Y173.75 E11.75071
G1 X123.189 Y173.357 E11.76758
G1 X122.765 Y172.879 E11.78756
G1 X122.518 Y172.579 E11.79972
G1 X121.784 Y171.619 E11.83752
G1 X121.502 Y171.214 E11.85296
G1 X120.975 Y170.376 E11.88392
G1 X120.566 Y169.661 E11.90969
G1 X120.292 Y169.116 E11.92877
G1 X120.019 Y168.519 E11.94931
G1 X119.873 Y168.167 E11.96123
G1 X119.461 Y167.067 E11.99797
G1 X119.3 Y166.561 E12.01458
G1 X118.989 Y165.389 E12.05251
G1 X118.885 Y164.909 E12.06787
G1 X118.696 Y163.775 E12.10384
G1 X118.637 Y163.242 E12.12061
G1 X118.554 Y162.011 E12.15921
G1 X118.534 Y161.323 E12.18074
G1 X118.53 Y139.201 E12.87274
G1 X118.552 Y137.991 E12.91059
G1 X118.594 Y137.222 E12.93469
G1 X118.631 Y136.815 E12.94747
G1 X118.789 Y135.613 E12.98539
G1 X118.887 Y135.078 E13.00241
G1 X119.156 Y133.939 E13.03902
G1 X119.298 Y133.446 E13.05507
G1 X119.682 Y132.314 E13.09246
G1 X119.87 Y131.837 E13.1085
G1 X120.36 Y130.755 E13.14565
G1 X120.655 Y130.172 E13.16609
G1 X120.934 Y129.684 E13.18367
G1 X121.297 Y129.094 E13.20534
G1 X121.49 Y128.803 E13.21627
G1 X122.031 Y128.042 E13.24547
G1 X122.288 Y127.702 E13.2588
G1 X122.503 Y127.437 E13.26948
G1 X123.139 Y126.705 E13.29981
G1 X123.529 Y126.282 E13.31781
G0 F3600 X123.795 Y126.553
G1 F1500 X124.269 Y126.088 E13.33858
G1 X124.858 Y125.562 E13.36328
G1 X125.152 Y125.319 E13.37521
G1 X126.099 Y124.595 E13.4125
G1 X126.486 Y124.326 E13.42725
G1 X127.312 Y123.806 E13.45778
G1 X127.81 Y123.515 E13.47582
G1 X128.343 Y123.234 E13.49467
G1 X129.132 Y122.868 E13.52188
G1 X129.463 Y122.731 E13.53308
G1 X130.548 Y122.324 E13.56933
G1 X131.037 Y122.167 E13.5854
G1 X132.191 Y121.86 E13.62275
G1 X132.654 Y121.76 E13.63757
G1 X133.767 Y121.574 E13.67287
G1 X134.284 Y121.516 E13.68914
G1 X135.48 Y121.435 E13.72664
G1 X136.178 Y121.414 E13.74848
G1 X163.292 Y121.41 E14.59664
G1 X164.49 Y121.431 E14.63412
G1 X165.243 Y121.472 E14.65771
G1 X165.635 Y121.508 E14.67002
G1 X166.819 Y121.663 E14.70738
G1 X167.337 Y121.758 E14.72385
G1 X168.456 Y122.022 E14.75982
G1 X168.929 Y122.157 E14.7752
G1 X170.048 Y122.536 E14.81216
G1 X170.508 Y122.717 E14.82762
G1 X171.568 Y123.196 E14.86401
G1 X172.146 Y123.488 E14.88427
G1 X172.595 Y123.745 E14.90045
G1 X173.186 Y124.108 E14.92214
G1 X173.477 Y124.3 E14.93305
G1 X174.231 Y124.836 E14.96199
G1 X174.559 Y125.083 E14.97483
G1 X174.812 Y125.289 E14.98504
G1 X175.651 Y126.02 E15.01985
G1 X176.163 Y126.508 E15.04197
G1 X176.528 Y126.896 E15.05864
G1 X176.941 Y127.362 E15.07811
G1 X177.178 Y127.649 E15.08976
G1 X177.903 Y128.596 E15.12707
G1 X178.174 Y128.986 E15.14192
G1 X178.792 Y129.974 E15.17837
G1 X179.109 Y130.536 E15.19856
G1 X179.369 Y131.057 E15.21677
G1 X179.63 Y131.628 E15.23641
G1 X179.769 Y131.963 E15.24776
G1 X180.176 Y133.048 E15.28401
G1 X180.324 Y133.504 E15.299
G1 X180.582 Y134.449 E15.32965
G1 X180.677 Y134.84 E15.34223
G1 X180.74 Y135.154 E15.35225
G1 X180.896 Y136.07 E15.38132
G1 X180.952 Y136.464 E15.39377
G1 X180.984 Y136.783 E15.40379
G1 X181.065 Y137.988 E15.44157
G1 X181.086 Y138.828 E15.46786
G1 X181.061 Y139.977 E15.50381
G1 X181.01 Y140.782 E15.52904
G1 X180.939 Y141.582 E15.55416
G1 X180.735 Y144.323 E15.64014
G1 X180.61 Y147.031 E15.72494
G1 X180.565 Y149.67 E15.8075
G1 X180.593 Y152.384 E15.89241
G1 X180.696 Y155.024 E15.97505
G1 X181.006 Y159.203 E16.10613
G1 X181.056 Y159.994 E16.13093
G1 X181.087 Y161.058 E16.16422
G1 X181.077 Y161.779 E16.18678
G1 X181.028 Y162.743 E16.21697
G1 X180.992 Y163.136 E16.22932
G1 X180.837 Y164.319 E16.26664
G1 X180.742 Y164.837 E16.28312
G1 X180.478 Y165.956 E16.31908
G1 X180.344 Y166.426 E16.33437
G1 X179.967 Y167.541 E16.37119
G1 X179.785 Y168.005 E16.38678
G1 X179.38 Y168.907 E16.41771
G1 X179.15 Y169.384 E16.43427
G1 X179.006 Y169.657 E16.44393
G1 X178.752 Y170.101 E16.45993
G1 X178.392 Y170.687 E16.48144
G1 X178.2 Y170.977 E16.49232
G1 X177.664 Y171.731 E16.52126
G1 X177.417 Y172.059 E16.5341
G1 X177.21 Y172.314 E16.54438
G1 X176.581 Y173.038 E16.57438
G1 X176.212 Y173.439 E16.59142
G1 X175.992 Y173.663 E16.60125
G1 X175.604 Y174.028 E16.61791
G1 X175.138 Y174.441 E16.63739
G1 X174.851 Y174.678 E16.64903
G1 X173.904 Y175.403 E16.68634
G1 X173.514 Y175.674 E16.70119
G1 X172.688 Y176.194 E16.73173
G1 X171.965 Y176.608 E16.75779
G1 X171.445 Y176.868 E16.77597
G1 X170.875 Y177.129 E16.79558
G1 X170.537 Y177.269 E16.80703
G1 X169.452 Y177.676 E16.84328
G1 X168.963 Y177.833 E16.85934
G1 X167.809 Y178.14 E16.8967
G1 X167.346 Y178.24 E16.91151
G1 X166.233 Y178.426 E16.94681
G1 X165.716 Y178.484 E16.96309
G1 X164.52 Y178.565 E17.00058
G1 X163.822 Y178.586 E17.02243
G1 X136.708 Y178.59 E17.87059
G1 X135.512 Y178.569 E17.908
G1 X134.757 Y178.528 E17.93166
G1 X134.364 Y178.492 E17.944
G1 X133.181 Y178.337 E17.98132
G1 X132.663 Y178.242 E17.9978
G1 X131.544 Y177.978 E18.03376
G1 X131.071 Y177.843 E18.04915
G1 X129.952 Y177.464 E18.0861
G1 X129.492 Y177.283 E18.10157
G1 X128.432 Y176.804 E18.13795
G1 X127.854 Y176.512 E18.15821
G1 X127.405 Y176.255 E18.17439
G1 X126.814 Y175.892 E18.19609
G1 X126.521 Y175.699 E18.20707
G1 X125.755 Y175.154 E18.23647
G1 X125.434 Y174.912 E18.24905
G1 X125.186 Y174.709 E18.25907
G1 X124.336 Y173.968 E18.29435
G1 X123.835 Y173.49 E18.31601
G1 X123.473 Y173.105 E18.33254
G1 X123.058 Y172.637 E18.3521
G1 X122.82 Y172.348 E18.36382
G1 X122.096 Y171.402 E18.40108
G1 X121.824 Y171.012 E18.41595
G1 X121.305 Y170.187 E18.44644
G1 X120.906 Y169.49 E18.47157
G1 X120.632 Y168.945 E18.49065
G1 X120.37 Y168.373 E18.51033
G1 X120.229 Y168.034 E18.52181
G1 X119.823 Y166.951 E18.55799
G1 X119.667 Y166.463 E18.57402
G1 X119.36 Y165.309 E18.61137
G1 X119.26 Y164.846 E18.62619
G1 X119.074 Y163.733 E18.66149
G1 X119.016 Y163.216 E18.67776
G1 X118.934 Y162 E18.71589
G1 X118.914 Y161.323 E18.73707
G1 X118.91 Y139.208 E19.42886
G1 X118.931 Y138.012 E19.46627
G1 X118.972 Y137.257 E19.48993
G1 X119.008 Y136.864 E19.50227
G1 X119.163 Y135.681 E19.53959
