;FLAVOR:Marlin
;TIME:1240
;Filament used: 1.76887m
;Layer height: 0.2
;MINX:125.026
;MINY:124.887
;MINZ:0.2
;MAXX:174.933
;MAXY:175.659
;MAXZ:3.2
;TARGET_MACHINE.NAME:Artillery Sidewinder X1
;Generated with Cura_SteamEngine 5.8.1
M140 S65
M105
M190 S65
M104 S210
M105
M109 S210
M82 ;absolute extrusion mode
G28 ; home all axes
M117 ; Purge extruder
M420 S1 ; enable bed mesh
G92 E0 ; reset extruder
G1 Z1.0 F3000 ; move z up little to prevent scratching of surface
G1 X2 Y20 Z0.3 F5000.0 ; move to start-line position
G1 X2 Y200.0 Z0.3 F1500.0 E15 ; draw 1st line
G1 X2 Y200.0 Z0.4 F5000.0 ; move to side a little
G1 X2 Y20 Z0.4 F1500.0 E30 ; draw 2nd line
G92 E0 ; reset extruder
G1 Z1.0 F3000 ; move z up little to prevent scratching of surface
G92 E0
G92 E0
G1 F1500 E-2
;LAYER_COUNT:16
;LAYER:0
M106 S51
;MESH:Bry??a2
G0 F3600 X149.983 Y161.324 Z0.2
;TYPE:WALL-OUTER
G1 F1500 E0
G1 X148.594 Y161.236 E0.04583
G1 X147.186 Y160.968 E0.09302
G1 X145.821 Y160.524 E0.14029
G1 X144.55 Y159.928 E0.18651
G1 X143.347 Y159.163 E0.23345
G1 X142.261 Y158.266 E0.27983
G1 X141.273 Y157.21 E0.32745
G1 X140.448 Y156.076 E0.37363
G1 X139.764 Y154.832 E0.42037
G1 X139.244 Y153.513 E0.46706
G1 X138.886 Y152.119 E0.51445
G1 X138.712 Y150.729 E0.56057
G1 X138.714 Y149.287 E0.60805
G1 X138.888 Y147.902 E0.65402
G1 X139.244 Y146.515 E0.70117
G1 X139.764 Y145.201 E0.7477
G1 X140.457 Y143.942 E0.79502
G1 X141.273 Y142.822 E0.84065
G1 X142.261 Y141.766 E0.88827
G1 X143.347 Y140.869 E0.93465
G1 X144.546 Y140.104 E0.98148
G1 X145.851 Y139.492 E1.02894
G1 X147.203 Y139.056 E1.07572
G1 X148.567 Y138.796 E1.12144
G1 X150 Y138.703 E1.16872
G1 X151.417 Y138.793 E1.21547
G1 X152.825 Y139.064 E1.26269
G1 X154.145 Y139.492 E1.30838
G1 X155.464 Y140.112 E1.35637
G1 X156.653 Y140.869 E1.40278
G1 X157.735 Y141.766 E1.44906
G1 X158.713 Y142.81 E1.49616
G1 X159.552 Y143.956 E1.54293
G1 X160.232 Y145.201 E1.58964
G1 X160.756 Y146.531 E1.63671
G1 X161.108 Y147.902 E1.68332
G1 X161.288 Y149.303 E1.72983
G1 X161.288 Y150.729 E1.77678
G1 X161.106 Y152.139 E1.8236
G1 X160.752 Y153.513 E1.87032
G1 X160.225 Y154.845 E1.91749
G1 X159.552 Y156.076 E1.96368
G1 X158.702 Y157.234 E2.01098
G1 X157.723 Y158.277 E2.05808
G1 X156.64 Y159.172 E2.10434
G1 X155.446 Y159.928 E2.15088
G1 X154.148 Y160.536 E2.19808
G1 X152.81 Y160.968 E2.24437
G1 X151.417 Y161.235 E2.29107
G1 X149.983 Y161.324 E2.33838
G1 F1500 E0.33838
G0 F3600 X151.045 Y174.732
G1 F1500 E2.33838
G1 X153.083 Y174.561 E2.40573
G1 X155.145 Y174.213 E2.47458
G1 X157.148 Y173.694 E2.54271
G1 X159.104 Y173.017 E2.61087
G1 X161 Y172.174 E2.67919
G1 X162.829 Y171.169 E2.74791
G1 X164.535 Y170.033 E2.8154
G1 X166.166 Y168.742 E2.88389
G1 X167.674 Y167.325 E2.95203
G1 X169.071 Y165.774 E3.02076
G1 X170.322 Y164.123 E3.08897
G1 X171.422 Y162.385 E3.15669
G1 X172.38 Y160.556 E3.22468
G1 X173.188 Y158.641 E3.29312
G1 X173.825 Y156.678 E3.36107
G1 X174.3 Y154.635 E3.43014
G1 X174.601 Y152.612 E3.49749
G1 X174.731 Y150.518 E3.56657
G1 X174.688 Y148.449 E3.63471
G1 X174.474 Y146.403 E3.70245
G1 X174.082 Y144.368 E3.77069
G1 X173.532 Y142.381 E3.83857
G1 X172.8 Y140.413 E3.90771
G1 X171.929 Y138.565 E3.97498
G1 X170.884 Y136.752 E4.04389
G1 X169.704 Y135.058 E4.11187
G1 X168.382 Y133.459 E4.18018
G1 X166.945 Y131.99 E4.24785
G1 X165.354 Y130.616 E4.31707
G1 X163.692 Y129.409 E4.3847
G1 X161.93 Y128.344 E4.45249
G1 X160.053 Y127.41 E4.52153
G1 X158.146 Y126.654 E4.58907
G1 X156.135 Y126.049 E4.65822
G1 X154.136 Y125.625 E4.72551
G1 X152.066 Y125.364 E4.79421
G1 X150 Y125.277 E4.8623
G1 X147.934 Y125.364 E4.93039
G1 X145.86 Y125.625 E4.99922
G1 X143.861 Y126.049 E5.0665
G1 X141.85 Y126.654 E5.13565
G1 X139.947 Y127.41 E5.20308
G1 X138.066 Y128.344 E5.27223
G1 X136.308 Y129.409 E5.33991
G1 X134.642 Y130.616 E5.40765
G1 X133.055 Y131.99 E5.47677
G1 X131.614 Y133.459 E5.54453
G1 X130.292 Y135.058 E5.61284
G1 X129.116 Y136.752 E5.68075
G1 X128.067 Y138.565 E5.74972
G1 X127.196 Y140.413 E5.81699
G1 X126.468 Y142.381 E5.88608
G1 X125.914 Y144.368 E5.954
G1 X125.522 Y146.403 E6.02224
G1 X125.308 Y148.449 E6.08998
G1 X125.265 Y150.518 E6.15812
G1 X125.395 Y152.612 E6.2272
G1 X125.696 Y154.635 E6.29455
G1 X126.171 Y156.678 E6.36361
G1 X126.812 Y158.641 E6.43161
G1 X127.616 Y160.557 E6.50003
G1 X128.574 Y162.385 E6.56798
G1 X129.674 Y164.123 E6.63571
G1 X130.929 Y165.774 E6.704
G1 X132.327 Y167.326 E6.77278
G1 X133.831 Y168.743 E6.84082
G1 X135.461 Y170.033 E6.90926
G1 X137.171 Y171.169 E6.97686
G1 X138.996 Y172.174 E7.04547
G1 X140.892 Y173.017 E7.11379
G1 X142.848 Y173.694 E7.18194
G1 X144.851 Y174.213 E7.25008
G1 X146.913 Y174.561 E7.31893
G1 X148.951 Y174.732 E7.38627
G1 X151.045 Y174.732 E7.45522
G0 F3600 X151.03 Y174.392
;TYPE:WALL-INNER
G1 F1500 X153.04 Y174.224 E7.52164
G1 X155.074 Y173.88 E7.58957
G1 X157.05 Y173.369 E7.65677
G1 X158.979 Y172.701 E7.72399
G1 X160.849 Y171.87 E7.79137
G1 X162.652 Y170.878 E7.85913
G1 X164.334 Y169.758 E7.92567
G1 X165.943 Y168.485 E7.99323
G1 X167.43 Y167.087 E8.06043
G1 X168.809 Y165.557 E8.12825
G1 X170.042 Y163.929 E8.1955
G1 X171.127 Y162.215 E8.26229
G1 X172.072 Y160.411 E8.32935
G1 X172.869 Y158.522 E8.39686
G1 X173.497 Y156.587 E8.46385
G1 X173.966 Y154.571 E8.532
G1 X174.262 Y152.577 E8.59838
G1 X174.391 Y150.511 E8.66654
G1 X174.348 Y148.47 E8.73376
G1 X174.138 Y146.453 E8.80053
G1 X173.751 Y144.445 E8.86787
G1 X173.208 Y142.486 E8.93481
G1 X172.486 Y140.545 E9.003
G1 X171.627 Y138.723 E9.06932
G1 X170.597 Y136.934 E9.1373
G1 X169.433 Y135.264 E9.20432
G1 X168.129 Y133.686 E9.27173
G1 X166.712 Y132.238 E9.33844
G1 X165.143 Y130.883 E9.4067
G1 X163.503 Y129.693 E9.47342
G1 X161.766 Y128.643 E9.54025
G1 X159.915 Y127.721 E9.60835
G1 X158.034 Y126.976 E9.67496
G1 X156.051 Y126.378 E9.74316
G1 X154.08 Y125.961 E9.8095
G1 X152.037 Y125.703 E9.87731
G1 X150 Y125.617 E9.94444
G1 X147.963 Y125.703 E10.01157
G1 X145.916 Y125.961 E10.07951
G1 X143.945 Y126.378 E10.14584
G1 X141.962 Y126.976 E10.21404
G1 X140.085 Y127.721 E10.28054
G1 X138.23 Y128.643 E10.34875
G1 X136.496 Y129.693 E10.4155
G1 X134.854 Y130.883 E10.48227
G1 X133.288 Y132.238 E10.55046
G1 X131.867 Y133.686 E10.61726
G1 X130.563 Y135.263 E10.68464
G1 X129.403 Y136.934 E10.75162
G1 X128.369 Y138.723 E10.81966
G1 X127.51 Y140.545 E10.88599
G1 X126.792 Y142.486 E10.95413
G1 X126.245 Y144.446 E11.02114
G1 X125.858 Y146.453 E11.08844
G1 X125.648 Y148.47 E11.15521
G1 X125.605 Y150.511 E11.22243
G1 X125.734 Y152.577 E11.29059
G1 X126.03 Y154.571 E11.35697
G1 X126.499 Y156.586 E11.42509
G1 X127.131 Y158.522 E11.49215
G1 X127.924 Y160.412 E11.55964
G1 X128.869 Y162.215 E11.62667
G1 X129.954 Y163.929 E11.69346
G1 X131.191 Y165.557 E11.76079
G1 X132.57 Y167.088 E11.82864
G1 X134.053 Y168.485 E11.89572
G1 X135.661 Y169.758 E11.96325
G1 X137.348 Y170.878 E12.02993
G1 X139.148 Y171.87 E12.0976
G1 X141.017 Y172.701 E12.16495
G1 X142.946 Y173.369 E12.23217
G1 X144.922 Y173.88 E12.29938
G1 X146.956 Y174.224 E12.3673
G1 X148.966 Y174.392 E12.43372
G1 X151.03 Y174.392 E12.50168
G0 F3600 X151.014 Y173.992
G1 F1500 X152.99 Y173.827 E12.56697
G1 X154.991 Y173.489 E12.63379
G1 X156.934 Y172.986 E12.69988
G1 X158.832 Y172.328 E12.76603
G1 X160.671 Y171.511 E12.83229
G1 X162.445 Y170.536 E12.89894
G1 X164.099 Y169.434 E12.96438
G1 X165.682 Y168.182 E13.03084
G1 X167.144 Y166.807 E13.09693
G1 X168.5 Y165.302 E13.16363
G1 X169.713 Y163.701 E13.22977
G1 X170.781 Y162.015 E13.29549
G1 X171.71 Y160.241 E13.36142
G1 X172.494 Y158.382 E13.42786
G1 X173.111 Y156.479 E13.49373
G1 X173.572 Y154.496 E13.56077
G1 X173.864 Y152.535 E13.62605
G1 X173.991 Y150.503 E13.69309
G1 X173.949 Y148.495 E13.75922
G1 X173.742 Y146.511 E13.8249
G1 X173.361 Y144.537 E13.8911
G1 X172.827 Y142.609 E13.95698
G1 X172.117 Y140.701 E14.02401
G1 X171.273 Y138.908 E14.08926
G1 X170.259 Y137.149 E14.15612
G1 X169.114 Y135.506 E14.22206
G1 X167.832 Y133.954 E14.28834
G1 X166.438 Y132.53 E14.35396
G1 X164.894 Y131.197 E14.42112
G1 X163.282 Y130.026 E14.48673
G1 X161.573 Y128.993 E14.55248
G1 X159.752 Y128.087 E14.61946
G1 X157.902 Y127.354 E14.68498
G1 X155.951 Y126.766 E14.75208
G1 X154.013 Y126.355 E14.81731
G1 X152.004 Y126.102 E14.88398
G1 X150 Y126.018 E14.95003
G1 X147.996 Y126.102 E15.01607
G1 X145.983 Y126.355 E15.08288
G1 X144.045 Y126.766 E15.14811
G1 X142.094 Y127.354 E15.21521
G1 X140.248 Y128.087 E15.28061
G1 X138.423 Y128.993 E15.3477
G1 X136.718 Y130.026 E15.41334
G1 X135.102 Y131.197 E15.47905
G1 X133.562 Y132.53 E15.54612
G1 X132.164 Y133.954 E15.61183
G1 X130.882 Y135.505 E15.67808
G1 X129.741 Y137.149 E15.74398
G1 X128.723 Y138.909 E15.81092
G1 X127.88 Y140.7 E15.8761
G1 X127.173 Y142.609 E15.94314
G1 X126.635 Y144.538 E16.00908
G1 X126.254 Y146.511 E16.07524
G1 X126.047 Y148.495 E16.14093
G1 X126.005 Y150.503 E16.20706
G1 X126.132 Y152.535 E16.2741
G1 X126.424 Y154.496 E16.33938
G1 X126.885 Y156.479 E16.40642
G1 X127.506 Y158.382 E16.47233
G1 X128.286 Y160.241 E16.53871
G1 X129.215 Y162.015 E16.60465
G1 X130.282 Y163.7 E16.67032
G1 X131.499 Y165.301 E16.73654
G1 X132.856 Y166.808 E16.80332
G1 X134.315 Y168.182 E16.86931
G1 X135.896 Y169.434 E16.93571
G1 X137.555 Y170.536 E17.00129
G1 X139.326 Y171.511 E17.06786
G1 X141.164 Y172.328 E17.13409
G1 X143.062 Y172.985 E17.20022
G1 X145.005 Y173.489 E17.26632
G1 X147.006 Y173.826 E17.33314
G1 X148.982 Y173.992 E17.39843
G1 X151.014 Y173.992 E17.46534
G1 F1500 E15.46534
G0 F3600 X150 Y161.664
G1 F1500 E17.46534
G1 X148.541 Y161.572 E17.51348
G1 X147.066 Y161.287 E17.56294
G1 X145.735 Y160.856 E17.60901
G1 X144.386 Y160.226 E17.65803
G1 X143.117 Y159.415 E17.70762
G1 X142.028 Y158.513 E17.75418
G1 X141.02 Y157.438 E17.80271
G1 X140.161 Y156.258 E17.85077
G1 X139.457 Y154.977 E17.8989
G1 X138.91 Y153.582 E17.94824
G1 X138.559 Y152.216 E17.99468
G1 X138.373 Y150.75 E18.04334
G1 X138.376 Y149.245 E18.09289
G1 X138.554 Y147.838 E18.13959
G1 X138.914 Y146.434 E18.18732
G1 X139.457 Y145.056 E18.23609
G1 X140.161 Y143.773 E18.28427
G1 X141.021 Y142.593 E18.33235
G1 X142.011 Y141.535 E18.38006
G1 X143.147 Y140.594 E18.42863
G1 X144.361 Y139.818 E18.47608
G1 X145.676 Y139.196 E18.52398
G1 X147.078 Y138.737 E18.57255
G1 X148.54 Y138.456 E18.62157
G1 X150 Y138.363 E18.66975
G1 X151.46 Y138.456 E18.71792
G1 X152.869 Y138.724 E18.76514
G1 X154.32 Y139.196 E18.81539
G1 X155.592 Y139.794 E18.86167
G1 X156.823 Y140.573 E18.90964
G1 X157.969 Y141.519 E18.95857
G1 X158.975 Y142.593 E19.00702
G1 X159.839 Y143.773 E19.05518
G1 X160.555 Y145.091 E19.10457
G1 X161.067 Y146.386 E19.15042
G1 X161.442 Y147.838 E19.1998
G1 X161.625 Y149.257 E19.24691
G1 X161.627 Y150.75 E19.29607
G1 X161.446 Y152.169 E19.34317
G1 X161.063 Y153.653 E19.39364
G1 X160.555 Y154.941 E19.43923
G1 X159.84 Y156.258 E19.48857
G1 X158.991 Y157.419 E19.53593
G1 X157.967 Y158.514 E19.5853
G1 X156.873 Y159.423 E19.63213
G1 X155.576 Y160.244 E19.68268
G1 X154.265 Y160.856 E19.73032
G1 X152.895 Y161.297 E19.77771
G1 X151.485 Y161.568 E19.82499
G1 X150 Y161.664 E19.87398
G0 F3600 X150 Y162.064
G1 F1500 X148.449 Y161.963 E19.92516
G1 X147.001 Y161.685 E19.97371
G1 X145.604 Y161.234 E20.02205
G1 X144.196 Y160.58 E20.07317
G1 X142.879 Y159.737 E20.12466
G1 X141.754 Y158.804 E20.17278
G1 X140.687 Y157.662 E20.22425
G1 X139.82 Y156.472 E20.27273
G1 X139.077 Y155.107 E20.3239
G1 X138.541 Y153.743 E20.37216
G1 X138.169 Y152.307 E20.421
G1 X137.972 Y150.783 E20.4716
G1 X137.972 Y149.298 E20.5205
G1 X138.158 Y147.769 E20.57121
G1 X138.528 Y146.327 E20.62023
G1 X139.095 Y144.885 E20.67125
G1 X139.824 Y143.558 E20.72111
G1 X140.713 Y142.338 E20.77081
G1 X141.753 Y141.228 E20.8209
G1 X142.908 Y140.271 E20.87029
G1 X144.153 Y139.476 E20.91893
G1 X145.56 Y138.808 E20.97021
G1 X146.963 Y138.354 E21.01877
G1 X148.49 Y138.059 E21.06998
G1 X150 Y137.963 E21.1198
G1 X151.508 Y138.057 E21.16955
G1 X152.992 Y138.342 E21.21931
G1 X154.436 Y138.808 E21.26927
G1 X155.842 Y139.475 E21.32051
G1 X157.088 Y140.27 E21.36918
G1 X158.271 Y141.256 E21.41989
G1 X159.283 Y142.338 E21.46867
G1 X160.176 Y143.558 E21.51846
G1 X160.901 Y144.885 E21.56825
G1 X161.442 Y146.247 E21.6165
G1 X161.834 Y147.762 E21.66803
G1 X162.023 Y149.215 E21.71628
G1 X162.027 Y150.775 E21.76764
G1 X161.827 Y152.307 E21.81852
G1 X161.456 Y153.741 E21.86729
G1 X160.901 Y155.147 E21.91706
G1 X160.178 Y156.472 E21.96676
G1 X159.256 Y157.726 E22.01801
G1 X158.241 Y158.805 E22.06679
G1 X157.087 Y159.763 E22.11618
G1 X155.802 Y160.577 E22.16627
G1 X154.396 Y161.234 E22.21737
G1 X152.99 Y161.688 E22.26602
G1 X151.508 Y161.969 E22.31568
G1 X150 Y162.064 E22.36544
G0 F3600 X149.986 Y162.424
;TYPE:SKIN
G1 F1500 X148.381 Y162.317 E22.4184
G1 X146.898 Y162.027 E22.46816
G1 X145.476 Y161.57 E22.51734
G1 X144.019 Y160.892 E22.57026
G1 X142.698 Y160.051 E22.62182
G1 X141.506 Y159.066 E22.67274
G1 X140.426 Y157.91 E22.72483
G1 X139.514 Y156.659 E22.77581
G1 X138.761 Y155.286 E22.82737
G1 X138.197 Y153.854 E22.87805
G1 X137.803 Y152.326 E22.93
G1 X137.612 Y150.797 E22.98074
G1 X137.613 Y149.218 E23.03273
G1 X137.807 Y147.693 E23.08335
G1 X138.214 Y146.117 E23.13695
G1 X138.772 Y144.719 E23.18651
G1 X139.51 Y143.375 E23.237
G1 X140.437 Y142.104 E23.2888
G1 X141.545 Y140.925 E23.34208
G1 X142.698 Y139.977 E23.39123
G1 X144.031 Y139.126 E23.4433
G1 X145.438 Y138.469 E23.49443
G1 X146.878 Y138.003 E23.54427
G1 X148.442 Y137.701 E23.59672
G1 X150.014 Y137.6 E23.64859
G1 X151.554 Y137.701 E23.6994
G1 X153.128 Y138.005 E23.75219
G1 X154.566 Y138.473 E23.80198
G1 X155.943 Y139.122 E23.85211
G1 X157.294 Y139.974 E23.9047
G1 X158.502 Y140.978 E23.95642
G1 X159.555 Y142.096 E24.00699
G1 X160.485 Y143.371 E24.05896
G1 X161.235 Y144.742 E24.11041
G1 X161.802 Y146.186 E24.1615
G1 X162.185 Y147.694 E24.21273
G1 X162.384 Y149.23 E24.26373
G1 X162.383 Y150.811 E24.31579
G1 X162.174 Y152.391 E24.36826
G1 X161.795 Y153.854 E24.41803
G1 X161.224 Y155.308 E24.46946
G1 X160.478 Y156.671 E24.52063
G1 X159.554 Y157.929 E24.57202
G1 X158.485 Y159.066 E24.62341
G1 X157.284 Y160.061 E24.67476
G1 X155.973 Y160.892 E24.72587
G1 X154.506 Y161.575 E24.77916
G1 X153.075 Y162.033 E24.82863
G1 X151.61 Y162.318 E24.87777
G1 X149.986 Y162.424 E24.93136
G1 F1500 E22.93136
G0 F3600 X151.007 Y173.632
G1 F1500 E24.93136
G1 X152.926 Y173.469 E24.99478
G1 X154.918 Y173.132 E25.0613
G1 X156.83 Y172.636 E25.12634
G1 X158.694 Y171.993 E25.19127
G1 X160.498 Y171.192 E25.25626
G1 X162.268 Y170.216 E25.32282
G1 X163.886 Y169.142 E25.38676
G1 X165.437 Y167.912 E25.45194
G1 X166.885 Y166.555 E25.51729
G1 X168.213 Y165.08 E25.58264
G1 X169.423 Y163.481 E25.64867
G1 X170.462 Y161.843 E25.71254
G1 X171.386 Y160.078 E25.77814
G1 X172.156 Y158.258 E25.84321
G1 X172.759 Y156.382 E25.90809
G1 X173.219 Y154.414 E25.97464
G1 X173.5 Y152.507 E26.03811
G1 X173.627 Y150.479 E26.10502
G1 X173.588 Y148.501 E26.17016
G1 X173.385 Y146.566 E26.23423
G1 X173.013 Y144.63 E26.29914
G1 X172.485 Y142.734 E26.36395
G1 X171.775 Y140.826 E26.43098
G1 X170.958 Y139.085 E26.49431
G1 X169.946 Y137.332 E26.56096
G1 X168.836 Y135.734 E26.62502
G1 X167.563 Y134.194 E26.69081
G1 X166.198 Y132.802 E26.75501
G1 X164.671 Y131.481 E26.82149
G1 X163.069 Y130.319 E26.88666
G1 X161.407 Y129.316 E26.95058
G1 X159.59 Y128.407 E27.01748
G1 X157.794 Y127.698 E27.08105
G1 X155.846 Y127.11 E27.14806
G1 X153.966 Y126.714 E27.21132
G1 X151.967 Y126.46 E27.27767
G1 X150 Y126.377 E27.3425
G1 X148.029 Y126.46 E27.40745
G1 X146.03 Y126.714 E27.4738
G1 X144.146 Y127.11 E27.5372
G1 X142.198 Y127.698 E27.6042
G1 X140.402 Y128.411 E27.66782
G1 X138.581 Y129.316 E27.73478
G1 X136.927 Y130.319 E27.79848
G1 X135.321 Y131.481 E27.86375
