;FLAVOR:Marlin
;TIME:1580
;Filament used: 3.04563m
;Layer height: 0.3
;MINX:119.859
;MINY:122.472
;MINZ:0.2
;MAXX:180.141
;MAXY:177.528
;MAXZ:13.1
;TARGET_MACHINE.NAME:Artillery Sidewinder X1
;POSTPROCESSED
;  [FilamentChange]
;Generated with Cura_SteamEngine 5.10.0
M140 S65
M105
M190 S65
M104 S210
M105
M109 S210
G28 ; home all axes
M117 ; Purge extruder
M420 S1 ; enable bed mesh
G92 E0 ; reset extruder
G1 Z1.0 F3000 ; move z up little to prevent scratching of surface
G1 X2 Y20 Z0.3 F5000.0 ; move to start-line position
G1 X2 Y200.0 Z0.3 F1500.0 E15 ; draw 1st line
G1 X2 Y200.0 Z0.4 F5000.0 ; move to side a little
G1 X2 Y20 Z0.4 F1500.0 E30 ; draw 2nd line
G92 E0 ; reset extruder
G1 Z1.0 F3000 ; move z up little to prevent scratching of surface
M82 ;absolute extrusion mode
G92 E0
G92 E0
G1 F1500 E-2
;LAYER_COUNT:44
;LAYER:0
M106 S51
G0 F3600 X132.708 Y125.611 Z0.2
;TYPE:SKIRT
G1 F1500 E0
G1 X133.137 Y125.2 E0.01956
G1 X133.657 Y124.76 E0.04199
G1 X134.136 Y124.403 E0.06166
G1 X134.645 Y124.066 E0.08176
G1 X135.144 Y123.775 E0.10078
G1 X135.694 Y123.495 E0.12111
G1 X136.227 Y123.261 E0.14027
G1 X136.831 Y123.037 E0.16149
G1 X137.438 Y122.853 E0.18237
G1 X138.05 Y122.706 E0.2031
G1 X138.592 Y122.609 E0.22123
G1 X139.163 Y122.538 E0.24017
G1 X140.07 Y122.484 E0.27009
G1 X140.899 Y122.472 E0.29739
G1 X159.186 Y122.473 E0.89954
G1 X159.939 Y122.484 E0.92433
G1 X160.687 Y122.524 E0.949
G1 X161.249 Y122.587 E0.96762
G1 X161.857 Y122.688 E0.98791
G1 X162.519 Y122.84 E1.01028
G1 X163.067 Y123.002 E1.02909
G1 X163.644 Y123.208 E1.04927
G1 X164.163 Y123.427 E1.06782
G1 X164.738 Y123.711 E1.08893
G1 X165.298 Y124.031 E1.11017
G1 X165.828 Y124.377 E1.13101
G1 X166.296 Y124.723 E1.15018
G1 X166.772 Y125.117 E1.17052
G1 X167.182 Y125.499 E1.18897
G1 X167.63 Y125.968 E1.21033
G1 X168.027 Y126.436 E1.23054
G1 X168.413 Y126.951 E1.25173
G1 X168.877 Y127.66 E1.27963
G1 X169.287 Y128.349 E1.30603
G1 X178.415 Y144.162 E1.90724
G1 X178.87 Y144.986 E1.93823
G1 X179.132 Y145.505 E1.95738
G1 X179.375 Y146.059 E1.97729
G1 X179.575 Y146.595 E1.99613
G1 X179.765 Y147.212 E2.01739
G1 X179.911 Y147.808 E2.0376
G1 X180.028 Y148.448 E2.05902
G1 X180.097 Y149.02 E2.07799
G1 X180.136 Y149.627 E2.09802
G1 X180.141 Y150.202 E2.11695
G1 X180.108 Y150.865 E2.13881
G1 X180.044 Y151.444 E2.15799
G1 X179.931 Y152.103 E2.18001
G1 X179.802 Y152.655 E2.19867
G1 X179.627 Y153.251 E2.21913
G1 X179.435 Y153.793 E2.23806
G1 X179.172 Y154.414 E2.26027
G1 X178.801 Y155.145 E2.28726
G1 X178.354 Y155.944 E2.3174
G1 X169.265 Y171.686 E2.91594
G1 X168.744 Y172.55 E2.94917
G1 X168.46 Y172.981 E2.96616
G1 X168.118 Y173.446 E2.98517
G1 X167.73 Y173.917 E3.00526
G1 X167.292 Y174.389 E3.02646
G1 X166.847 Y174.814 E3.04673
G1 X166.348 Y175.236 E3.06824
G1 X165.867 Y175.595 E3.08801
G1 X165.355 Y175.934 E3.10823
G1 X164.856 Y176.225 E3.12725
G1 X164.306 Y176.505 E3.14757
G1 X163.773 Y176.739 E3.16674
G1 X163.169 Y176.963 E3.18795
G1 X162.562 Y177.147 E3.20883
G1 X161.95 Y177.294 E3.22956
G1 X161.408 Y177.391 E3.24769
G1 X160.837 Y177.462 E3.26663
G1 X159.93 Y177.516 E3.29655
G1 X159.101 Y177.528 E3.32385
G1 X140.814 Y177.527 E3.926
G1 X140.062 Y177.516 E3.95076
G1 X139.314 Y177.476 E3.97543
G1 X138.751 Y177.413 E3.99408
G1 X138.119 Y177.307 E4.01518
G1 X137.483 Y177.16 E4.03668
G1 X136.934 Y176.998 E4.05552
G1 X136.373 Y176.798 E4.07514
G1 X135.81 Y176.56 E4.09526
G1 X135.26 Y176.288 E4.11547
G1 X134.7 Y175.968 E4.1367
G1 X134.164 Y175.619 E4.15776
G1 X133.697 Y175.273 E4.1769
G1 X133.239 Y174.892 E4.19652
G1 X132.795 Y174.477 E4.21653
G1 X132.388 Y174.05 E4.23595
G1 X131.978 Y173.568 E4.25679
G1 X131.586 Y173.047 E4.27826
G1 X131.12 Y172.335 E4.30628
G1 X130.713 Y171.651 E4.33249
G1 X121.549 Y155.774 E4.93611
G1 X121.127 Y155.01 E4.96485
G1 X120.874 Y154.51 E4.9833
G1 X120.623 Y153.937 E5.0039
G1 X120.424 Y153.403 E5.02266
G1 X120.235 Y152.788 E5.04385
G1 X120.089 Y152.192 E5.06405
G1 X119.972 Y151.552 E5.08548
G1 X119.903 Y150.98 E5.10445
G1 X119.864 Y150.373 E5.12448
G1 X119.859 Y149.798 E5.14341
G1 X119.892 Y149.135 E5.16527
G1 X119.956 Y148.556 E5.18445
G1 X120.069 Y147.897 E5.20647
G1 X120.198 Y147.345 E5.22513
G1 X120.373 Y146.749 E5.24558
G1 X120.565 Y146.207 E5.26452
G1 X120.828 Y145.586 E5.28672
G1 X121.199 Y144.855 E5.31372
G1 X121.646 Y144.056 E5.34386
G1 X130.757 Y128.278 E5.94379
G1 X131.265 Y127.438 E5.97612
G1 X131.54 Y127.019 E5.99262
G1 X131.882 Y126.554 E6.01162
G1 X132.27 Y126.083 E6.03172
G1 X132.708 Y125.611 E6.05292
G0 F3600 X132.985 Y125.9
G1 F1500 X133.414 Y125.489 E6.07248
G1 X133.897 Y125.08 E6.09332
G1 X134.357 Y124.736 E6.11224
G1 X134.847 Y124.411 E6.1316
G1 X135.326 Y124.131 E6.14987
G1 X135.855 Y123.861 E6.16942
G1 X136.366 Y123.636 E6.18781
G1 X136.947 Y123.42 E6.20822
G1 X137.532 Y123.242 E6.22835
G1 X138.121 Y123.1 E6.2483
G1 X138.641 Y123.006 E6.2657
G1 X139.212 Y122.935 E6.28465
G1 X140.076 Y122.884 E6.31315
G1 X140.899 Y122.872 E6.34025
G1 X159.181 Y122.873 E6.94223
G1 X159.918 Y122.883 E6.9665
G1 X160.642 Y122.921 E6.99037
G1 X161.183 Y122.982 E7.0083
G1 X161.791 Y123.083 E7.02859
G1 X162.406 Y123.224 E7.04937
G1 X162.933 Y123.379 E7.06746
G1 X163.488 Y123.577 E7.08686
G1 X164.007 Y123.796 E7.10541
G1 X164.561 Y124.07 E7.12576
G1 X165.08 Y124.366 E7.14543
G1 X165.591 Y124.699 E7.16552
G1 X166.041 Y125.031 E7.18393
G1 X166.499 Y125.41 E7.20351
G1 X166.909 Y125.792 E7.22196
G1 X167.325 Y126.227 E7.24178
G1 X167.707 Y126.676 E7.26119
G1 X168.078 Y127.17 E7.28153
G1 X168.533 Y127.865 E7.30888
G1 X168.941 Y128.549 E7.33511
G1 X178.065 Y144.355 E7.93605
G1 X178.513 Y145.167 E7.96659
G1 X178.766 Y145.666 E7.98501
G1 X179 Y146.199 E8.00417
G1 X179.2 Y146.735 E8.02301
G1 X179.377 Y147.308 E8.04276
G1 X179.518 Y147.88 E8.06216
G1 X179.631 Y148.496 E8.08278
G1 X179.698 Y149.046 E8.10102
G1 X179.736 Y149.63 E8.12029
G1 X179.741 Y150.205 E8.13923
G1 X179.71 Y150.821 E8.15954
G1 X179.646 Y151.4 E8.17872
G1 X179.541 Y152.012 E8.19916
G1 X179.412 Y152.564 E8.21783
G1 X179.25 Y153.117 E8.2368
G1 X179.058 Y153.659 E8.25574
G1 X178.815 Y154.233 E8.27626
G1 X178.452 Y154.95 E8.30272
G1 X178.008 Y155.744 E8.33268
G1 X168.922 Y171.479 E8.93097
G1 X168.401 Y172.343 E8.96419
G1 X168.138 Y172.744 E8.97998
G1 X167.809 Y173.192 E8.99828
G1 X167.437 Y173.645 E9.01758
G1 X167.015 Y174.1 E9.03802
G1 X166.588 Y174.509 E9.05749
G1 X166.108 Y174.916 E9.07821
G1 X165.646 Y175.262 E9.09722
G1 X165.153 Y175.589 E9.11669
G1 X164.674 Y175.869 E9.13496
G1 X164.145 Y176.139 E9.15452
G1 X163.634 Y176.364 E9.17291
G1 X163.053 Y176.58 E9.19332
G1 X162.468 Y176.758 E9.21345
G1 X161.879 Y176.9 E9.2334
G1 X161.359 Y176.994 E9.2508
G1 X160.788 Y177.065 E9.26975
G1 X159.924 Y177.116 E9.29825
G1 X159.101 Y177.128 E9.32535
G1 X140.819 Y177.127 E9.92733
G1 X140.083 Y177.117 E9.95157
G1 X139.359 Y177.079 E9.97544
G1 X138.817 Y177.018 E9.9934
G1 X138.209 Y176.917 E10.01369
G1 X137.596 Y176.776 E10.0344
G1 X137.068 Y176.621 E10.05252
G1 X136.507 Y176.421 E10.07213
G1 X135.987 Y176.201 E10.09073
G1 X135.437 Y175.929 E10.11093
G1 X134.918 Y175.633 E10.1306
G1 X134.402 Y175.297 E10.15088
G1 X133.953 Y174.965 E10.16926
G1 X133.495 Y174.584 E10.18888
G1 X133.085 Y174.201 E10.20736
G1 X132.678 Y173.774 E10.22678
G1 X132.297 Y173.327 E10.24612
G1 X131.921 Y172.828 E10.26669
G1 X131.464 Y172.13 E10.29416
G1 X131.059 Y171.451 E10.3202
G1 X121.899 Y155.581 E10.92356
G1 X121.484 Y154.829 E10.95184
G1 X121.231 Y154.329 E10.97029
G1 X120.998 Y153.797 E10.98941
G1 X120.799 Y153.263 E11.00818
G1 X120.623 Y152.692 E11.02785
G1 X120.482 Y152.12 E11.04725
G1 X120.369 Y151.504 E11.06787
G1 X120.302 Y150.954 E11.08612
G1 X120.264 Y150.37 E11.10539
G1 X120.259 Y149.795 E11.12432
G1 X120.29 Y149.179 E11.14463
G1 X120.354 Y148.6 E11.16381
G1 X120.459 Y147.988 E11.18426
G1 X120.588 Y147.436 E11.20292
G1 X120.75 Y146.883 E11.2219
G1 X120.942 Y146.341 E11.24083
G1 X121.185 Y145.767 E11.26135
G1 X121.548 Y145.05 E11.28782
G1 X121.992 Y144.256 E11.31777
G1 X131.099 Y128.485 E11.91743
G1 X131.599 Y127.657 E11.94928
G1 X131.862 Y127.256 E11.96507
G1 X132.191 Y126.808 E11.98338
G1 X132.563 Y126.355 E12.00268
G1 X132.985 Y125.9 E12.02311
G1 F1500 E10.02311
;MESH:Spacer_v1_10mm.stl
G0 F3600 X158.801 Y165.514
;TYPE:WALL-OUTER
G1 F1500 E12.02311
G1 X158.437 Y165.629 E12.03568
G1 X141.509 Y165.628 E12.59308
G1 X141.061 Y165.44 E12.60907
G1 X140.705 Y165.172 E12.62375
G1 X132.217 Y150.46 E13.18302
G1 X132.156 Y150.019 E13.19768
G1 X132.219 Y149.53 E13.21391
G1 X140.703 Y134.83 E13.77278
G1 X141.061 Y134.556 E13.78762
G1 X141.485 Y134.371 E13.80286
G1 X158.487 Y134.368 E14.36269
G1 X158.935 Y134.556 E14.37869
G1 X159.293 Y134.833 E14.39359
G1 X167.783 Y149.536 E14.95264
G1 X167.84 Y150.015 E14.96853
G1 X167.784 Y150.466 E14.98349
G1 X159.348 Y165.073 E15.53891
G1 X159.076 Y165.346 E15.5516
G1 X158.801 Y165.514 E15.56221
G0 F3600 X158.611 Y165.574
G1 F1500 E13.56221
G0 F3600 X160.891 Y171.538
G1 F1500 E15.56221
G1 X161.415 Y171.383 E15.58021
G1 X161.898 Y171.175 E15.59752
G1 X162.388 Y170.89 E15.61619
G1 X162.812 Y170.576 E15.63356
G1 X163.21 Y170.2 E15.65159
G1 X163.558 Y169.788 E15.66935
G1 X163.854 Y169.332 E15.68725
G1 X173.67 Y152.328 E16.33374
G1 X173.913 Y151.844 E16.35158
G1 X174.098 Y151.345 E16.3691
G1 X174.223 Y150.803 E16.38741
G1 X174.288 Y150.268 E16.40516
G1 X174.288 Y149.728 E16.42294
G1 X174.223 Y149.193 E16.44069
G1 X174.098 Y148.651 E16.459
G1 X173.913 Y148.144 E16.47677
G1 X173.671 Y147.668 E16.49436
G1 X163.866 Y130.681 E17.14019
G1 X163.555 Y130.208 E17.15883
G1 X163.206 Y129.792 E17.17671
G1 X162.812 Y129.424 E17.19446
G1 X162.388 Y129.106 E17.21191
G1 X161.898 Y128.821 E17.23057
G1 X161.415 Y128.613 E17.24789
G1 X160.891 Y128.458 E17.26588
G1 X160.361 Y128.363 E17.28361
G1 X159.796 Y128.333 E17.30224
G1 X140.2 Y128.333 E17.94749
G1 X139.638 Y128.363 E17.96602
G1 X139.104 Y128.458 E17.98388
G1 X138.581 Y128.613 E18.00184
G1 X138.101 Y128.821 E18.01907
G1 X137.608 Y129.106 E18.03782
G1 X137.184 Y129.424 E18.05527
G1 X136.786 Y129.795 E18.07319
G1 X136.442 Y130.211 E18.09096
G1 X136.142 Y130.665 E18.10888
G1 X126.325 Y147.668 E18.75536
G1 X126.083 Y148.152 E18.77318
G1 X125.898 Y148.651 E18.79071
G1 X125.773 Y149.193 E18.80902
G1 X125.708 Y149.728 E18.82677
G1 X125.708 Y150.268 E18.84455
G1 X125.773 Y150.803 E18.86229
G1 X125.898 Y151.345 E18.88061
G1 X126.083 Y151.852 E18.89838
G1 X126.325 Y152.332 E18.91608
G1 X136.134 Y169.315 E19.56186
G1 X136.442 Y169.789 E19.58047
G1 X136.79 Y170.205 E19.59833
G1 X137.184 Y170.576 E19.61615
G1 X137.607 Y170.89 E19.6335
G1 X138.101 Y171.175 E19.65228
G1 X138.581 Y171.383 E19.6695
G1 X139.104 Y171.538 E19.68747
G1 X139.638 Y171.633 E19.70532
G1 X140.2 Y171.664 E19.72386
G1 X159.796 Y171.668 E20.36911
G1 X160.361 Y171.633 E20.38775
G1 X160.891 Y171.538 E20.40548
G0 F3600 X161.082 Y171.482
G0 X160.813 Y171.207
;TYPE:WALL-INNER
G1 F1500 X161.299 Y171.062 E20.42218
G1 X161.745 Y170.871 E20.43815
G1 X162.201 Y170.606 E20.45552
G1 X162.594 Y170.314 E20.47164
G1 X162.963 Y169.966 E20.48834
G1 X163.284 Y169.586 E20.50472
G1 X163.564 Y169.154 E20.52167
G1 X173.371 Y152.167 E21.16753
G1 X173.6 Y151.708 E21.18442
G1 X173.771 Y151.247 E21.20061
G1 X173.888 Y150.744 E21.21762
G1 X173.948 Y150.248 E21.23407
G1 X173.948 Y149.748 E21.25053
G1 X173.888 Y149.252 E21.26698
G1 X173.771 Y148.748 E21.28402
G1 X173.6 Y148.28 E21.30043
G1 X173.372 Y147.831 E21.31701
G1 X163.577 Y130.86 E21.96222
G1 X163.281 Y130.411 E21.97993
G1 X162.959 Y130.026 E21.99645
G1 X162.594 Y129.685 E22.0129
G1 X162.2 Y129.39 E22.02911
G1 X161.745 Y129.125 E22.04645
G1 X161.299 Y128.934 E22.06242
G1 X160.813 Y128.789 E22.07912
G1 X160.322 Y128.702 E22.09554
G1 X159.787 Y128.673 E22.11318
G1 X140.209 Y128.673 E22.75784
G1 X139.678 Y128.702 E22.77535
G1 X139.183 Y128.789 E22.7919
G1 X138.698 Y128.933 E22.80856
G1 X138.254 Y129.125 E22.82448
G1 X137.796 Y129.39 E22.84191
G1 X137.402 Y129.685 E22.85811
G1 X137.034 Y130.029 E22.8747
G1 X136.715 Y130.414 E22.89116
G1 X136.431 Y130.844 E22.90813
G1 X126.625 Y147.829 E23.55392
G1 X126.396 Y148.288 E23.57081
G1 X126.225 Y148.749 E23.587
G1 X126.108 Y149.252 E23.60401
G1 X126.048 Y149.748 E23.62046
G1 X126.048 Y150.248 E23.63692
G1 X126.108 Y150.744 E23.65337
G1 X126.225 Y151.248 E23.67041
G1 X126.396 Y151.717 E23.68685
G1 X126.625 Y152.17 E23.70356
G1 X136.424 Y169.138 E24.34875
G1 X136.716 Y169.586 E24.36636
G1 X137.038 Y169.971 E24.38289
G1 X137.402 Y170.315 E24.39938
G1 X137.794 Y170.605 E24.41543
G1 X138.254 Y170.871 E24.43293
G1 X138.698 Y171.063 E24.44886
G1 X139.183 Y171.207 E24.46552
G1 X139.678 Y171.294 E24.48207
G1 X140.209 Y171.324 E24.49958
G1 X159.785 Y171.328 E25.14417
G1 X160.32 Y171.295 E25.16182
G1 X160.813 Y171.207 E25.17831
G0 F3600 X160.72 Y170.817
G1 F1500 X161.162 Y170.686 E25.19349
G1 X161.565 Y170.513 E25.20793
G1 X161.981 Y170.271 E25.22377
G1 X162.336 Y170.007 E25.23834
G1 X162.672 Y169.691 E25.25353
G1 X162.962 Y169.347 E25.26834
G1 X163.222 Y168.946 E25.28408
G1 X173.019 Y151.977 E25.92927
G1 X173.233 Y151.549 E25.94502
G1 X173.387 Y151.133 E25.95963
G1 X173.493 Y150.675 E25.97511
G1 X173.548 Y150.224 E25.99007
G1 X173.548 Y149.772 E26.00495
G1 X173.493 Y149.321 E26.01991
G1 X173.387 Y148.862 E26.03542
G1 X173.233 Y148.44 E26.05022
G1 X173.02 Y148.021 E26.06569
G1 X163.236 Y131.07 E26.71015
G1 X162.96 Y130.65 E26.7267
G1 X162.668 Y130.302 E26.74166
G1 X162.337 Y129.992 E26.75659
G1 X161.978 Y129.724 E26.77134
G1 X161.565 Y129.483 E26.78709
G1 X161.162 Y129.31 E26.80153
G1 X160.72 Y129.179 E26.81671
G1 X160.276 Y129.1 E26.83156
G1 X159.776 Y129.073 E26.84804
G1 X140.22 Y129.073 E27.49197
G1 X139.724 Y129.1 E27.50833
G1 X139.275 Y129.179 E27.52334
G1 X138.835 Y129.31 E27.53846
G1 X138.434 Y129.483 E27.55284
G1 X138.016 Y129.724 E27.56873
G1 X137.66 Y129.992 E27.5834
G1 X137.326 Y130.304 E27.59845
G1 X137.037 Y130.653 E27.61337
G1 X136.771 Y131.055 E27.62924
G1 X126.977 Y148.018 E28.27421
G1 X126.763 Y148.447 E28.28999
G1 X126.609 Y148.864 E28.30463
G1 X126.503 Y149.321 E28.32008
G1 X126.448 Y149.772 E28.33504
G1 X126.448 Y150.224 E28.34992
G1 X126.503 Y150.675 E28.36488
G1 X126.609 Y151.134 E28.38039
G1 X126.764 Y151.557 E28.39523
G1 X126.977 Y151.98 E28.41082
G1 X136.765 Y168.928 E29.05526
G1 X137.038 Y169.348 E29.07175
G1 X137.33 Y169.697 E29.08674
G1 X137.659 Y170.007 E29.10162
G1 X138.014 Y170.27 E29.11617
G1 X138.434 Y170.513 E29.13215
G1 X138.835 Y170.686 E29.14653
G1 X139.275 Y170.817 E29.16164
G1 X139.724 Y170.896 E29.17665
G1 X140.22 Y170.924 E29.19301
G1 X159.773 Y170.928 E29.83684
G1 X160.273 Y170.897 E29.85334
G1 X160.72 Y170.817 E29.86829
G1 F1500 E27.86829
G0 F3600 X158.956 Y165.824
G1 F1500 E29.86829
G1 X158.466 Y165.972 E29.88515
G1 X141.435 Y165.972 E30.44594
G1 X140.903 Y165.746 E30.46497
G1 X140.445 Y165.401 E30.48385
G1 X131.882 Y150.57 E31.04775
G1 X131.812 Y149.999 E31.06669
G1 X131.883 Y149.427 E31.08567
G1 X140.384 Y134.703 E31.6455
G1 X140.535 Y134.53 E31.65306
G1 X140.905 Y134.248 E31.66838
G1 X141.423 Y134.028 E31.68691
G1 X158.564 Y134.024 E32.25132
G1 X159.101 Y134.259 E32.27062
G1 X159.553 Y134.594 E32.28915
G1 X168.119 Y149.427 E32.85316
G1 X168.184 Y149.998 E32.87208
G1 X168.114 Y150.574 E32.89119
G1 X159.625 Y165.273 E33.4501
G1 X159.322 Y165.59 E33.46454
G1 X158.956 Y165.824 E33.47885
G0 F3600 X159.132 Y166.186
G1 F1500 X158.551 Y166.372 E33.49893
G1 X141.56 Y166.372 E34.05841
G1 X141.298 Y166.348 E34.06707
G1 X140.722 Y166.105 E34.08765
G1 X140.303 Y165.797 E34.10478
G1 X140.101 Y165.604 E34.11398
G1 X131.597 Y150.877 E34.67394
G1 X131.487 Y150.632 E34.68278
