;FLAVOR:Marlin
;TIME:2796
;Filament used: 3.14287m
;Layer height: 0.2
;MINX:131.398
;MINY:131.41
;MINZ:0.2
;MAXX:168.602
;MAXY:168.59
;MAXZ:50
;TARGET_MACHINE.NAME:Artillery Sidewinder X1
;Generated with Cura_SteamEngine 5.8.1
M140 S65
M105
M190 S65
M104 S210
M105
M109 S210
M82 ;absolute extrusion mode
G28 ; home all axes
M117 ; Purge extruder
M420 S1 ; enable bed mesh
G92 E0 ; reset extruder
G1 Z1.0 F3000 ; move z up little to prevent scratching of surface
G1 X2 Y20 Z0.3 F5000.0 ; move to start-line position
G1 X2 Y200.0 Z0.3 F1500.0 E15 ; draw 1st line
G1 X2 Y200.0 Z0.4 F5000.0 ; move to side a little
G1 X2 Y20 Z0.4 F1500.0 E30 ; draw 2nd line
G92 E0 ; reset extruder
G1 Z1.0 F3000 ; move z up little to prevent scratching of surface
G92 E0
G92 E0
G1 F1500 E-2
;LAYER_COUNT:250
;LAYER:0
M107
G0 F3600 X137.026 Y136.669 Z0.2
;TYPE:SKIRT
G1 F1500 E0
G1 X138.177 Y135.642 E0.04825
G1 X139.11 Y134.922 E0.08512
G1 X140.393 Y134.076 E0.13319
G1 X141.57 Y133.417 E0.17539
G1 X142.771 Y132.861 E0.21679
G1 X143.903 Y132.425 E0.25473
G1 X145.397 Y131.979 E0.30351
G1 X146.556 Y131.72 E0.34065
G1 X147.879 Y131.521 E0.38251
G1 X149.439 Y131.41 E0.43143
G1 X150.795 Y131.418 E0.47384
G1 X152.149 Y131.524 E0.51633
G1 X153.49 Y131.728 E0.55876
G1 X154.686 Y131.998 E0.59711
G1 X155.912 Y132.365 E0.63715
G1 X157.299 Y132.894 E0.68358
G1 X158.426 Y133.42 E0.72249
G1 X159.783 Y134.18 E0.77114
G1 X160.787 Y134.845 E0.80881
G1 X161.922 Y135.723 E0.8537
G1 X162.971 Y136.666 E0.89782
G1 X163.823 Y137.551 E0.93625
G1 X164.739 Y138.656 E0.98115
G1 X165.559 Y139.807 E1.02535
G1 X166.22 Y140.898 E1.06526
G1 X166.889 Y142.202 E1.1111
G1 X167.363 Y143.32 E1.14909
G1 X167.804 Y144.614 E1.19185
G1 X168.168 Y146.008 E1.23692
G1 X168.411 Y147.336 E1.27915
G1 X168.548 Y148.577 E1.31821
G1 X168.602 Y150.114 E1.36631
G1 X168.543 Y151.47 E1.40877
G1 X168.415 Y152.626 E1.44515
G1 X168.16 Y154.037 E1.49001
G1 X167.805 Y155.388 E1.5337
G1 X167.406 Y156.563 E1.57252
G1 X166.822 Y157.94 E1.61931
G1 X166.222 Y159.102 E1.66021
G1 X165.503 Y160.282 E1.70344
G1 X164.739 Y161.348 E1.74446
G1 X163.801 Y162.473 E1.79028
G1 X162.974 Y163.331 E1.82756
G1 X161.823 Y164.358 E1.87581
G1 X160.89 Y165.078 E1.91268
G1 X159.607 Y165.924 E1.96075
G1 X158.43 Y166.583 E2.00295
G1 X157.229 Y167.139 E2.04435
G1 X156.097 Y167.575 E2.08229
G1 X154.603 Y168.021 E2.13107
G1 X153.47 Y168.275 E2.16739
G1 X151.945 Y168.497 E2.21559
G1 X150.561 Y168.59 E2.25898
G1 X149.205 Y168.582 E2.3014
G1 X147.851 Y168.476 E2.34389
G1 X146.51 Y168.272 E2.38632
G1 X145.314 Y168.002 E2.42467
G1 X144.088 Y167.635 E2.4647
G1 X142.701 Y167.106 E2.51114
G1 X141.572 Y166.579 E2.55011
G1 X140.217 Y165.82 E2.5987
G1 X139.213 Y165.155 E2.63637
G1 X138.077 Y164.276 E2.6813
G1 X137.028 Y163.333 E2.72542
G1 X136.195 Y162.469 E2.76296
G1 X135.225 Y161.297 E2.81055
G1 X134.47 Y160.237 E2.85126
G1 X133.779 Y159.101 E2.89286
G1 X133.111 Y157.798 E2.93866
G1 X132.656 Y156.73 E2.97497
G1 X132.188 Y155.357 E3.02035
G1 X131.82 Y153.938 E3.0662
G1 X131.601 Y152.743 E3.10421
G1 X131.451 Y151.385 E3.14695
G1 X131.398 Y149.886 E3.19387
G1 X131.457 Y148.53 E3.23632
G1 X131.585 Y147.374 E3.27271
G1 X131.84 Y145.963 E3.31756
G1 X132.195 Y144.612 E3.36125
G1 X132.594 Y143.437 E3.40007
G1 X133.178 Y142.06 E3.44686
G1 X133.778 Y140.898 E3.48777
G1 X134.497 Y139.718 E3.53099
G1 X135.261 Y138.652 E3.57202
G1 X136.199 Y137.527 E3.61783
G1 X137.026 Y136.669 E3.65511
G0 F3600 X137.3 Y136.933
G1 F1500 X138.409 Y135.943 E3.70161
G1 X139.342 Y135.223 E3.73848
G1 X140.579 Y134.408 E3.78482
G1 X141.756 Y133.749 E3.82701
G1 X142.908 Y133.216 E3.86672
G1 X144.04 Y132.78 E3.90467
G1 X145.48 Y132.35 E3.95168
G1 X146.613 Y132.096 E3.988
G1 X147.936 Y131.897 E4.02985
G1 X149.437 Y131.79 E4.07692
G1 X150.766 Y131.797 E4.11849
G1 X152.092 Y131.9 E4.1601
G1 X153.406 Y132.099 E4.20167
G1 X154.602 Y132.369 E4.24002
G1 X155.803 Y132.729 E4.27924
G1 X157.138 Y133.238 E4.32394
G1 X158.265 Y133.764 E4.36284
G1 X159.573 Y134.497 E4.40974
G1 X160.554 Y135.146 E4.44654
G1 X161.689 Y136.024 E4.49142
G1 X162.697 Y136.93 E4.53382
G1 X163.53 Y137.794 E4.57136
G1 X164.446 Y138.899 E4.61626
G1 X165.249 Y140.027 E4.65957
G1 X165.895 Y141.095 E4.69862
G1 X166.539 Y142.351 E4.74277
G1 X167.003 Y143.443 E4.77989
G1 X167.444 Y144.737 E4.82265
G1 X167.8 Y146.104 E4.86684
G1 X168.033 Y147.378 E4.90735
G1 X168.17 Y148.619 E4.94641
G1 X168.222 Y150.098 E4.9927
G1 X168.165 Y151.428 E5.03434
G1 X168.037 Y152.584 E5.07072
G1 X167.792 Y153.94 E5.11383
G1 X167.437 Y155.291 E5.15752
G1 X167.046 Y156.441 E5.19552
G1 X166.484 Y157.766 E5.24054
G1 X165.897 Y158.904 E5.2806
G1 X165.178 Y160.084 E5.32382
G1 X164.43 Y161.126 E5.36394
G1 X163.527 Y162.209 E5.40805
G1 X162.7 Y163.067 E5.44533
G1 X161.591 Y164.057 E5.49183
G1 X160.658 Y164.777 E5.5287
G1 X159.421 Y165.592 E5.57503
G1 X158.244 Y166.251 E5.61723
G1 X157.092 Y166.784 E5.65694
G1 X155.96 Y167.22 E5.69488
G1 X154.52 Y167.65 E5.74189
G1 X153.387 Y167.904 E5.77821
G1 X151.919 Y168.118 E5.82462
G1 X150.563 Y168.21 E5.86714
G1 X149.234 Y168.203 E5.90871
G1 X147.908 Y168.1 E5.95031
G1 X146.594 Y167.901 E5.99188
G1 X145.398 Y167.631 E6.03024
G1 X144.197 Y167.271 E6.06946
G1 X142.862 Y166.762 E6.11415
G1 X141.733 Y166.235 E6.15313
G1 X140.427 Y165.503 E6.19996
G1 X139.446 Y164.854 E6.23675
G1 X138.31 Y163.975 E6.28168
G1 X137.302 Y163.069 E6.32408
G1 X136.469 Y162.205 E6.36162
G1 X135.535 Y161.077 E6.40743
G1 X134.78 Y160.017 E6.44814
G1 X134.117 Y158.927 E6.48805
G1 X133.461 Y157.649 E6.53299
G1 X133.006 Y156.581 E6.5693
G1 X132.548 Y155.235 E6.61378
G1 X132.194 Y153.869 E6.65792
G1 X131.979 Y152.701 E6.69507
G1 X131.829 Y151.343 E6.73781
G1 X131.778 Y149.902 E6.78291
G1 X131.835 Y148.572 E6.82455
G1 X131.963 Y147.416 E6.86093
G1 X132.208 Y146.06 E6.90404
G1 X132.563 Y144.709 E6.94773
G1 X132.954 Y143.559 E6.98573
G1 X133.516 Y142.234 E7.03075
G1 X134.103 Y141.096 E7.07081
G1 X134.822 Y139.916 E7.11403
G1 X135.57 Y138.874 E7.15415
G1 X136.473 Y137.791 E7.19826
G1 X137.3 Y136.933 E7.23554
G0 F3600 X137.574 Y137.197
G1 F1500 X138.641 Y136.244 E7.28029
G1 X139.574 Y135.524 E7.31716
G1 X140.765 Y134.739 E7.36178
G1 X141.916 Y134.094 E7.40305
G1 X143.045 Y133.571 E7.44197
G1 X144.177 Y133.135 E7.47992
G1 X145.563 Y132.721 E7.52517
G1 X146.696 Y132.467 E7.56149
G1 X147.992 Y132.273 E7.60248
G1 X149.435 Y132.17 E7.64773
G1 X150.737 Y132.176 E7.68846
G1 X152.035 Y132.276 E7.72918
G1 X153.322 Y132.47 E7.7699
G1 X154.518 Y132.74 E7.80825
G1 X155.694 Y133.093 E7.84666
G1 X156.977 Y133.582 E7.88961
G1 X158.104 Y134.108 E7.92851
G1 X159.363 Y134.814 E7.97367
G1 X160.344 Y135.463 E8.01046
G1 X161.456 Y136.324 E8.05445
G1 X162.423 Y137.194 E8.09514
G1 X163.256 Y138.058 E8.13269
G1 X164.137 Y139.12 E8.17585
G1 X164.924 Y140.224 E8.21826
G1 X165.557 Y141.269 E8.25648
G1 X166.189 Y142.5 E8.29976
G1 X166.643 Y143.566 E8.33601
G1 X167.084 Y144.86 E8.37877
G1 X167.432 Y146.2 E8.42208
G1 X167.655 Y147.42 E8.46087
G1 X167.792 Y148.661 E8.49993
G1 X167.842 Y150.082 E8.54441
G1 X167.787 Y151.386 E8.58524
G1 X167.659 Y152.542 E8.62162
G1 X167.424 Y153.843 E8.66297
G1 X167.069 Y155.194 E8.70667
G1 X166.686 Y156.319 E8.74384
G1 X166.146 Y157.592 E8.7871
G1 X165.572 Y158.706 E8.8263
G1 X164.853 Y159.886 E8.86952
G1 X164.138 Y160.883 E8.9079
G1 X163.253 Y161.945 E8.95115
G1 X162.426 Y162.803 E8.98842
G1 X161.359 Y163.756 E9.03317
G1 X160.426 Y164.476 E9.07004
G1 X159.235 Y165.261 E9.11466
G1 X158.084 Y165.906 E9.15593
G1 X156.955 Y166.429 E9.19485
G1 X155.823 Y166.865 E9.2328
G1 X154.437 Y167.279 E9.27805
G1 X153.304 Y167.533 E9.31437
G1 X151.893 Y167.739 E9.35898
G1 X150.565 Y167.83 E9.40061
G1 X149.263 Y167.824 E9.44134
G1 X147.965 Y167.724 E9.48207
G1 X146.678 Y167.53 E9.52278
G1 X145.482 Y167.26 E9.56113
G1 X144.306 Y166.907 E9.59954
G1 X143.023 Y166.418 E9.64249
G1 X141.894 Y165.891 E9.68147
G1 X140.637 Y165.186 E9.72655
G1 X139.656 Y164.537 E9.76334
G1 X138.543 Y163.675 E9.80738
G1 X137.576 Y162.805 E9.84807
G1 X136.743 Y161.941 E9.88561
G1 X135.845 Y160.857 E9.92964
G1 X135.09 Y159.797 E9.97035
G1 X134.442 Y158.73 E10.0094
G1 X133.811 Y157.5 E10.05265
G1 X133.356 Y156.432 E10.08896
G1 X132.908 Y155.113 E10.13254
G1 X132.568 Y153.8 E10.17496
G1 X132.357 Y152.659 E10.21126
G1 X132.207 Y151.301 E10.254
G1 X132.158 Y149.918 E10.29729
G1 X132.213 Y148.614 E10.33811
G1 X132.341 Y147.458 E10.3745
G1 X132.576 Y146.157 E10.41585
G1 X132.931 Y144.806 E10.45955
G1 X133.314 Y143.681 E10.49672
G1 X133.854 Y142.408 E10.53998
G1 X134.428 Y141.294 E10.57918
G1 X135.147 Y140.114 E10.6224
G1 X135.862 Y139.117 E10.66078
G1 X136.747 Y138.055 E10.70402
G1 X137.574 Y137.197 E10.7413
G0 F3600 X137.848 Y137.461
G1 F1500 X138.873 Y136.545 E10.7843
G1 X139.806 Y135.825 E10.82117
G1 X140.951 Y135.07 E10.86407
G1 X142.076 Y134.439 E10.90442
G1 X143.182 Y133.926 E10.94256
G1 X144.314 Y133.49 E10.9805
G1 X145.646 Y133.092 E11.02399
G1 X146.779 Y132.838 E11.06031
G1 X148.048 Y132.649 E11.10044
G1 X149.434 Y132.55 E11.14391
G1 X150.708 Y132.555 E11.18376
G1 X151.979 Y132.652 E11.22364
G1 X153.238 Y132.841 E11.26346
G1 X154.434 Y133.111 E11.30181
G1 X155.585 Y133.457 E11.33941
G1 X156.816 Y133.926 E11.38062
G1 X157.943 Y134.452 E11.41952
G1 X159.153 Y135.131 E11.46292
G1 X160.134 Y135.78 E11.49972
G1 X161.223 Y136.624 E11.54282
G1 X162.149 Y137.458 E11.5818
G1 X162.982 Y138.322 E11.61934
G1 X163.844 Y139.362 E11.6616
G1 X164.599 Y140.421 E11.70228
G1 X165.232 Y141.466 E11.7405
G1 X165.839 Y142.649 E11.78209
G1 X166.293 Y143.715 E11.81833
G1 X166.724 Y144.982 E11.8602
G1 X167.058 Y146.269 E11.90179
G1 X167.277 Y147.462 E11.93973
G1 X167.414 Y148.703 E11.97879
G1 X167.462 Y150.066 E12.02145
G1 X167.409 Y151.344 E12.06146
G1 X167.281 Y152.5 E12.09785
G1 X167.056 Y153.746 E12.13745
G1 X166.701 Y155.097 E12.18115
G1 X166.326 Y156.196 E12.21747
G1 X165.808 Y157.418 E12.25899
G1 X165.247 Y158.508 E12.29734
G1 X164.528 Y159.688 E12.34056
G1 X163.829 Y160.661 E12.37804
G1 X162.979 Y161.681 E12.41957
G1 X162.152 Y162.539 E12.45685
G1 X161.127 Y163.455 E12.49985
G1 X160.194 Y164.175 E12.53671
G1 X159.049 Y164.93 E12.57962
G1 X157.924 Y165.561 E12.61997
G1 X156.818 Y166.074 E12.6581
G1 X155.686 Y166.51 E12.69605
G1 X154.354 Y166.908 E12.73954
G1 X153.221 Y167.162 E12.77586
G1 X151.867 Y167.36 E12.81866
G1 X150.566 Y167.45 E12.85946
G1 X149.292 Y167.445 E12.89931
G1 X148.021 Y167.348 E12.93918
G1 X146.762 Y167.159 E12.97901
G1 X145.566 Y166.889 E13.01736
G1 X144.415 Y166.543 E13.05496
G1 X143.184 Y166.074 E13.09616
G1 X142.055 Y165.547 E13.13514
G1 X140.847 Y164.869 E13.17847
G1 X139.866 Y164.22 E13.21527
G1 X138.776 Y163.375 E13.25841
G1 X137.85 Y162.541 E13.29739
G1 X137.017 Y161.677 E13.33493
G1 X136.155 Y160.637 E13.37719
G1 X135.4 Y159.577 E13.4179
G1 X134.767 Y158.533 E13.45609
G1 X134.161 Y157.351 E13.49764
G1 X133.706 Y156.283 E13.53395
G1 X133.276 Y155.017 E13.57578
G1 X132.942 Y153.731 E13.61734
G1 X132.731 Y152.59 E13.65364
G1 X132.585 Y151.26 E13.69549
G1 X132.538 Y149.934 E13.73699
G1 X132.591 Y148.656 E13.77701
G1 X132.719 Y147.5 E13.81339
G1 X132.944 Y146.254 E13.85299
G1 X133.299 Y144.903 E13.89669
G1 X133.674 Y143.804 E13.93301
G1 X134.192 Y142.582 E13.97453
G1 X134.753 Y141.492 E14.01288
G1 X135.472 Y140.312 E14.0561
G1 X136.171 Y139.339 E14.09358
G1 X137.021 Y138.319 E14.13511
G1 X137.848 Y137.461 E14.17239
G0 F3600 X138.122 Y137.725
G1 F1500 X139.105 Y136.846 E14.21364
G1 X140.038 Y136.126 E14.25051
G1 X141.137 Y135.401 E14.29169
G1 X142.236 Y134.784 E14.33112
G1 X143.319 Y134.281 E14.36847
G1 X144.451 Y133.845 E14.40641
G1 X145.729 Y133.463 E14.44814
G1 X146.862 Y133.209 E14.48446
G1 X148.104 Y133.025 E14.52374
G1 X149.433 Y132.93 E14.56542
G1 X150.679 Y132.934 E14.60439
G1 X151.923 Y133.028 E14.64342
G1 X153.154 Y133.212 E14.68235
G1 X154.35 Y133.482 E14.7207
G1 X155.475 Y133.821 E14.75746
G1 X156.68 Y134.281 E14.79781
G1 X157.782 Y134.796 E14.83586
G1 X158.943 Y135.448 E14.87751
G1 X159.924 Y136.097 E14.9143
G1 X160.969 Y136.907 E14.95566
G1 X161.875 Y137.722 E14.99378
G1 X162.708 Y138.586 E15.03132
G1 X163.535 Y139.583 E15.07185
G1 X164.274 Y140.618 E15.11163
G1 X164.907 Y141.663 E15.14985
G1 X165.489 Y142.798 E15.18974
G1 X165.943 Y143.864 E15.22599
G1 X166.364 Y145.104 E15.26695
G1 X166.684 Y146.338 E15.30683
G1 X166.899 Y147.504 E15.34392
G1 X167.036 Y148.745 E15.38297
G1 X167.082 Y150.051 E15.42385
G1 X167.031 Y151.302 E15.46302
G1 X166.903 Y152.458 E15.4994
G1 X166.682 Y153.678 E15.53818
G1 X166.341 Y154.974 E15.5801
G1 X165.966 Y156.073 E15.61643
G1 X165.458 Y157.269 E15.65708
G1 X164.909 Y158.334 E15.69456
G1 X164.219 Y159.466 E15.73603
G1 X163.52 Y160.439 E15.7735
G1 X162.705 Y161.417 E15.81333
G1 X161.878 Y162.275 E15.8506
G1 X160.895 Y163.154 E15.89185
G1 X159.962 Y163.874 E15.92872
G1 X158.863 Y164.599 E15.9699
G1 X157.764 Y165.216 E16.00933
G1 X156.681 Y165.719 E16.04668
G1 X155.549 Y166.155 E16.08463
G1 X154.271 Y166.537 E16.12635
G1 X153.138 Y166.791 E16.16267
G1 X151.84 Y166.981 E16.20371
G1 X150.567 Y167.07 E16.24363
G1 X149.321 Y167.066 E16.2826
G1 X148.077 Y166.972 E16.32163
G1 X146.846 Y166.788 E16.36056
G1 X145.65 Y166.518 E16.39892
G1 X144.525 Y166.179 E16.43567
G1 X143.32 Y165.719 E16.47602
G1 X142.216 Y165.203 E16.51414
G1 X141.057 Y164.552 E16.55572
G1 X140.076 Y163.903 E16.59252
G1 X139.03 Y163.092 E16.63392
G1 X138.124 Y162.277 E16.67204
G1 X137.291 Y161.413 E16.70958
G1 X136.464 Y160.416 E16.7501
G1 X135.725 Y159.38 E16.78991
G1 X135.105 Y158.359 E16.82727
G1 X134.511 Y157.202 E16.86796
G1 X134.056 Y156.134 E16.90427
G1 X133.636 Y154.895 E16.94519
G1 X133.316 Y153.662 E16.98504
G1 X133.105 Y152.521 E17.02134
G1 X132.963 Y151.219 E17.06231
G1 X132.918 Y149.949 E17.10206
G1 X132.969 Y148.698 E17.14123
G1 X133.097 Y147.542 E17.17761
G1 X133.318 Y146.322 E17.21639
G1 X133.659 Y145.026 E17.25831
G1 X134.034 Y143.927 E17.29464
G1 X134.542 Y142.731 E17.33528
G1 X135.091 Y141.666 E17.37276
G1 X135.781 Y140.534 E17.41423
G1 X136.48 Y139.561 E17.45171
G1 X137.295 Y138.583 E17.49153
G1 X138.122 Y137.725 E17.52881
G0 F3600 X138.396 Y137.989
G1 F1500 X139.337 Y137.147 E17.56831
G1 X140.27 Y136.427 E17.60517
G1 X141.323 Y135.732 E17.64464
G1 X142.396 Y135.129 E17.68314
G1 X143.456 Y134.636 E17.71971
G1 X144.588 Y134.2 E17.75766
G1 X145.812 Y133.834 E17.79762
G1 X146.945 Y133.58 E17.83394
G1 X148.159 Y133.401 E17.87233
G1 X149.432 Y133.31 E17.91225
G1 X150.651 Y133.313 E17.95038
G1 X151.867 Y133.404 E17.98853
G1 X153.07 Y133.583 E18.02657
G1 X154.266 Y133.853 E18.06493
G1 X155.365 Y134.185 E18.10084
G1 X156.519 Y134.625 E18.13947
G1 X157.621 Y135.14 E18.17752
G1 X158.733 Y135.765 E18.21742
G1 X159.714 Y136.414 E18.25422
G1 X160.715 Y137.19 E18.29384
G1 X161.601 Y137.986 E18.3311
G1 X162.434 Y138.85 E18.36864
G1 X163.242 Y139.825 E18.40825
G1 X163.949 Y140.815 E18.4463
G1 X164.569 Y141.837 E18.4837
G1 X165.139 Y142.947 E18.52273
G1 X165.593 Y144.013 E18.55897
G1 X166.004 Y145.226 E18.59904
G1 X166.31 Y146.407 E18.6372
G1 X166.521 Y147.546 E18.67343
G1 X166.658 Y148.787 E18.71249
G1 X166.702 Y150.036 E18.75158
G1 X166.653 Y151.26 E18.7899
G1 X166.525 Y152.416 E18.82629
G1 X166.308 Y153.61 E18.86425
G1 X165.981 Y154.851 E18.90439
G1 X165.606 Y155.95 E18.94072
G1 X165.12 Y157.095 E18.97963
G1 X164.571 Y158.16 E19.01711
G1 X163.91 Y159.244 E19.05682
G1 X163.211 Y160.217 E19.0943
G1 X162.431 Y161.153 E19.13241
G1 X161.604 Y162.011 E19.16969
G1 X160.663 Y162.853 E19.20919
G1 X159.73 Y163.573 E19.24605
G1 X158.677 Y164.268 E19.28552
G1 X157.604 Y164.871 E19.32402
G1 X156.544 Y165.364 E19.36059
G1 X155.412 Y165.8 E19.39854
