;FLAVOR:Marlin
;TIME:6916
;Filament used: 10.0188m
;Layer height: 0.2
;MINX:103.077
;MINY:134.084
;MINZ:0.2
;MAXX:175.29
;MAXY:206.174
;MAXZ:31.2
;TARGET_MACHINE.NAME:Artillery Sidewinder X1
;Generated with Cura_SteamEngine 5.8.1
M140 S65
M105
M190 S65
M104 S210
M105
M109 S210
M82 ;absolute extrusion mode
G28 ; home all axes
M117 ; Purge extruder
M420 S1 ; enable bed mesh
G92 E0 ; reset extruder
G1 Z1.0 F3000 ; move z up little to prevent scratching of surface
G1 X2 Y20 Z0.3 F5000.0 ; move to start-line position
G1 X2 Y200.0 Z0.3 F1500.0 E15 ; draw 1st line
G1 X2 Y200.0 Z0.4 F5000.0 ; move to side a little
G1 X2 Y20 Z0.4 F1500.0 E30 ; draw 2nd line
G92 E0 ; reset extruder
G1 Z1.0 F3000 ; move z up little to prevent scratching of surface
G92 E0
G92 E0
G1 F1500 E-2
;LAYER_COUNT:156
;LAYER:0
M106 S51
;MESH:Bry??a2
G0 F3600 X138.368 Y204.711 Z0.2
;TYPE:WALL-INNER
G1 F1500 E0
G1 F1403.9 X137.837 Y204.686 E0.01777
G1 X135.884 Y204.558 E0.08318
G1 X135.092 Y204.462 E0.10984
G1 X133.351 Y204.214 E0.16862
G1 X132.327 Y204.01 E0.20351
G1 F1407.4 X130.839 Y203.682 E0.25431
G1 F1403.9 X129.625 Y203.344 E0.29643
G1 X128.413 Y202.979 E0.33873
G1 F1407.4 X127.012 Y202.471 E0.38842
G1 F1403.9 X126.065 Y202.106 E0.42234
G1 X124.436 Y201.374 E0.48202
G1 X123.715 Y201.033 E0.50868
G1 X121.97 Y200.081 E0.57511
G1 F1397.1 X121.491 Y199.807 E0.59365
G1 F1421.4 X119.391 Y198.444 E0.67629
G1 F1410.9 X117.329 Y196.877 E0.76242
G1 F1403.9 X115.423 Y195.188 E0.84753
G1 F1410.9 X113.66 Y193.374 E0.93166
G1 F1400.5 X113.42 Y193.098 E0.94391
G1 F1407.4 X112.056 Y191.466 E1.01482
G1 F1403.9 X111.672 Y190.953 E1.03624
G1 F1407.4 X110.557 Y189.393 E1.10017
G1 F1403.9 X110.077 Y188.636 E1.13013
G1 X109.211 Y187.207 E1.18597
G1 X108.701 Y186.249 E1.22224
G1 X108.041 Y184.948 E1.271
G1 X107.503 Y183.725 E1.31565
G1 X107.058 Y182.656 E1.35435
G1 X106.526 Y181.149 E1.40777
G1 X106.217 Y180.207 E1.4409
G1 F1407.4 X105.747 Y178.462 E1.50115
G1 F1403.9 X105.571 Y177.75 E1.52566
G1 F1410.9 X105.186 Y175.728 E1.59412
G1 F1403.9 X105.108 Y175.264 E1.60984
G1 F1417.9 X104.829 Y172.781 E1.69253
G1 F1403.9 X104.732 Y170.196 E1.77898
G1 F1400.5 X104.845 Y167.424 E1.87193
G1 X105.182 Y164.68 E1.96456
G1 F1425 X105.479 Y163.089 E2.01785
G1 F1432.2 X105.774 Y161.815 E2.06069
G1 X106.174 Y160.364 E2.11
G1 F1425 X106.462 Y159.462 E2.14118
G1 F1403.9 X106.481 Y159.362 E2.14458
G1 F1428.6 X107.044 Y157.812 E2.19875
G1 F1432.2 X107.583 Y156.486 E2.24564
G1 F1439.4 X108.175 Y155.206 E2.29162
G1 X108.812 Y153.948 E2.33758
G1 F1435.8 X109.505 Y152.717 E2.38375
G1 F1439.4 X110.242 Y151.515 E2.42971
G1 X111.036 Y150.346 E2.47578
G1 F1425 X111.67 Y149.471 E2.51136
G1 F1410.9 X111.878 Y149.198 E2.52277
G1 F1435.8 X112.737 Y148.128 E2.56761
G1 F1439.4 X113.677 Y147.042 E2.61444
G1 X114.657 Y146.007 E2.6609
G1 X115.656 Y145.029 E2.70647
G1 X116.708 Y144.087 E2.75251
G1 F1425 X117.428 Y143.481 E2.78349
G1 F1414.4 X117.794 Y143.186 E2.79909
G1 F1439.4 X118.903 Y142.347 E2.84442
G1 F1414.4 X119.639 Y141.825 E2.87435
G1 F1407.4 X120.087 Y141.52 E2.89242
G1 F1439.4 X121.256 Y140.773 E2.93765
G1 F1417.9 X122.01 Y140.326 E2.96665
G1 F1410.9 X122.485 Y140.056 E2.98482
G1 F1439.4 X123.738 Y139.395 E3.031
G1 F1417.9 X124.455 Y139.043 E3.05744
G1 F1414.4 X125.02 Y138.78 E3.07811
G1 F1439.4 X126.304 Y138.232 E3.12362
G1 F1414.4 X127.013 Y137.954 E3.14888
G1 F1417.9 X127.62 Y137.728 E3.17032
G1 F1446.7 X128.972 Y137.277 E3.21654
G1 F1417.9 X129.66 Y137.071 E3.24031
G1 F1410.9 X130.329 Y136.887 E3.26338
G1 F1435.8 X131.695 Y136.549 E3.30937
G1 F1410.9 X132.331 Y136.412 E3.33101
G1 X133.043 Y136.273 E3.35513
G1 F1397.1 X135.108 Y135.974 E3.42521
G1 X135.89 Y135.878 E3.45167
G1 X137.855 Y135.754 E3.5178
G1 F1403.9 X138.646 Y135.719 E3.54426
G1 X140.655 Y135.754 E3.61142
G1 X141.526 Y135.789 E3.64055
G1 X143.397 Y135.978 E3.7034
G1 F1400.5 X144.278 Y136.085 E3.73314
G1 F1403.9 X146.161 Y136.428 E3.7971
G1 X147.08 Y136.616 E3.82845
G1 F1432.2 X148.462 Y136.967 E3.87517
G1 X149.8 Y137.37 E3.92095
G1 X151.148 Y137.831 E3.96763
G1 X152.455 Y138.346 E4.01365
G1 F1435.8 X153.816 Y138.936 E4.06213
G1 X155.023 Y139.536 E4.10618
G1 F1432.2 X156.252 Y140.195 E4.15187
G1 X157.467 Y140.921 E4.19824
G1 X158.662 Y141.693 E4.24485
G1 F1428.6 X159.798 Y142.507 E4.29075
G1 X160.931 Y143.378 E4.33769
G1 F1432.2 X162.053 Y144.33 E4.3859
G1 X163.006 Y145.195 E4.42807
G1 X164.038 Y146.227 E4.47589
G1 F1428.6 X164.987 Y147.239 E4.52145
G1 F1432.2 X165.926 Y148.344 E4.56896
G1 F1425 X166.817 Y149.472 E4.61629
G1 F1428.6 X167.616 Y150.587 E4.66135
G1 F1432.2 X168.398 Y151.761 E4.70756
G1 X169.125 Y152.97 E4.75379
G1 F1428.6 X169.808 Y154.194 E4.79982
G1 F1425 X170.435 Y155.473 E4.84673
G1 X171.021 Y156.77 E4.89359
G1 X171.536 Y158.071 E4.93966
G1 F1432.2 X172.016 Y159.412 E4.98633
G1 X172.421 Y160.749 E5.0321
G1 X172.783 Y162.112 E5.0783
G1 X173.082 Y163.498 E5.12475
G1 F1397.1 X173.285 Y164.705 E5.16586
G1 X173.517 Y166.273 E5.2191
G1 X173.618 Y167.455 E5.25894
G1 X173.725 Y169.084 E5.31377
G1 F1400.5 X173.73 Y170.226 E5.35203
G1 F1403.9 X173.704 Y171.904 E5.40812
G1 F1407.4 X173.619 Y172.992 E5.4445
G1 X173.449 Y174.722 E5.50246
G1 F1410.9 X173.286 Y175.745 E5.53691
G1 F1407.4 X172.966 Y177.51 E5.59671
G1 F1439.4 X172.643 Y178.881 E5.64263
G1 X172.258 Y180.239 E5.68864
G1 F1417.9 X171.972 Y181.143 E5.72002
G1 F1410.9 X171.819 Y181.595 E5.73589
G1 F1439.4 X171.329 Y182.903 E5.78142
G1 F1417.9 X170.985 Y183.743 E5.81146
G1 F1410.9 X170.784 Y184.206 E5.82825
G1 F1439.4 X170.185 Y185.483 E5.87423
G1 F1417.9 X169.799 Y186.243 E5.90243
G1 F1410.9 X169.535 Y186.736 E5.92103
G1 F1439.4 X168.826 Y187.97 E5.96742
G1 F1417.9 X168.399 Y188.668 E5.9945
G1 X168.085 Y189.157 E6.01373
G1 F1439.4 X167.284 Y190.318 E6.05971
G1 F1410.9 X166.812 Y190.961 E6.08624
G1 X166.433 Y191.457 E6.107
G1 F1439.4 X165.549 Y192.542 E6.15262
G1 F1417.9 X165.06 Y193.108 E6.17737
G1 X164.622 Y193.595 E6.19905
G1 F1439.4 X163.625 Y194.632 E6.24594
G1 F1407.4 X163.137 Y195.099 E6.26846
G1 F1410.9 X161.788 Y196.336 E6.32933
G1 F1403.9 X161.056 Y196.938 E6.36101
G1 X159.776 Y197.944 E6.41542
G1 X158.816 Y198.617 E6.4546
G1 X157.696 Y199.372 E6.49974
G1 X156.493 Y200.088 E6.54653
G1 X155.513 Y200.643 E6.58417
G1 X154.023 Y201.383 E6.63977
G1 F1400.5 X153.234 Y201.756 E6.66901
G1 F1403.9 X151.465 Y202.475 E6.73283
G1 X150.859 Y202.708 E6.75453
G1 F1410.9 X148.813 Y203.363 E6.82598
G1 F1403.9 X148.455 Y203.47 E6.83847
G1 F1417.9 X145.957 Y204.066 E6.92345
G1 F1410.9 X143.484 Y204.465 E7.00676
G1 F1414.4 X140.954 Y204.682 E7.091
G1 F1403.9 X140.639 Y204.692 E7.10153
G1 F1410.9 X138.368 Y204.711 E7.17706
G0 F3600 X138.413 Y205.109
G1 F1410.9 X140.656 Y205.102 E7.25165
G1 F1390.2 X143.437 Y204.881 E7.34581
G1 X146.238 Y204.425 E7.44159
G1 F1407.4 X148.562 Y203.854 E7.52138
G1 F1403.9 X148.939 Y203.754 E7.53441
G1 F1410.9 X151.035 Y203.065 E7.60779
G1 F1403.9 X151.623 Y202.859 E7.62861
G1 X153.397 Y202.115 E7.6929
G1 F1400.5 X154.21 Y201.756 E7.72268
G1 F1403.9 X155.724 Y200.975 E7.77961
G1 X156.701 Y200.449 E7.8167
G1 X157.905 Y199.704 E7.86402
G1 X159.059 Y198.958 E7.90994
G1 X160.049 Y198.23 E7.95101
G1 X161.318 Y197.263 E8.00434
G1 X162.062 Y196.62 E8.0372
G1 F1410.9 X163.426 Y195.394 E8.0982
G1 X163.933 Y194.881 E8.12218
G1 F1417.9 X165.366 Y193.38 E8.19086
G1 F1414.4 X166.76 Y191.683 E8.26371
G1 F1410.9 X167.145 Y191.201 E8.28423
G1 X168.43 Y189.353 E8.35908
G1 X168.749 Y188.879 E8.37808
G1 F1417.9 X169.18 Y188.148 E8.40617
G1 X170.165 Y186.425 E8.47184
G1 F1410.9 X171.157 Y184.346 E8.54845
G1 X171.364 Y183.895 E8.56495
G1 F1417.9 X171.705 Y183.02 E8.59603
G1 X172.363 Y181.263 E8.65812
G1 X172.643 Y180.325 E8.69051
G1 X173.136 Y178.596 E8.75001
G1 F1421.4 X173.357 Y177.547 E8.7854
G1 F1403.9 X173.698 Y175.805 E8.84472
G1 F1407.4 X173.84 Y174.746 E8.88034
G1 F1403.9 X174.036 Y173.028 E8.93813
G1 F1407.4 X174.095 Y171.919 E8.97516
G1 F1403.9 X174.15 Y170.227 E9.03174
G1 F1400.5 X174.116 Y169.044 E9.07139
G1 F1397.1 X174.039 Y167.432 E9.12559
G1 X173.904 Y166.201 E9.16718
G1 X173.699 Y164.632 E9.22033
G1 X173.469 Y163.43 E9.26143
G1 F1425 X173.141 Y161.86 E9.31424
G1 X172.789 Y160.615 E9.35685
G1 X172.36 Y159.158 E9.40686
G1 X171.893 Y157.907 E9.45083
G1 X171.367 Y156.538 E9.49912
G1 F1417.9 X170.778 Y155.281 E9.54505
G1 F1425 X170.155 Y153.985 E9.5924
G1 X169.448 Y152.749 E9.63929
G1 X168.759 Y151.572 E9.6842
G1 F1428.6 X167.92 Y150.34 E9.73315
G1 X167.14 Y149.225 E9.77785
G1 F1425 X166.21 Y148.074 E9.82657
G1 X165.373 Y147.062 E9.86982
G1 X164.302 Y145.935 E9.92101
G1 F1421.4 X163.413 Y145.02 E9.96312
G1 X162.292 Y144.017 E10.01278
G1 X161.335 Y143.181 E10.05472
G1 F1417.9 X160.011 Y142.176 E10.10973
G1 X159.068 Y141.478 E10.14855
G1 X157.651 Y140.573 E10.20419
G1 F1421.4 X156.7 Y139.983 E10.24114
G1 F1417.9 X155.183 Y139.176 E10.298
G1 F1425 X154.218 Y138.677 E10.33377
G1 X152.583 Y137.974 E10.39237
G1 F1417.9 X151.62 Y137.571 E10.42692
G1 X149.896 Y136.986 E10.48716
G1 F1414.4 X148.969 Y136.685 E10.5195
G1 X147.127 Y136.223 E10.5825
G1 F1403.9 X146.234 Y136.017 E10.61313
G1 X144.331 Y135.694 E10.67764
G1 F1400.5 X143.436 Y135.561 E10.70795
G1 X141.499 Y135.392 E10.7731
G1 F1403.9 X140.66 Y135.337 E10.8012
G1 X138.68 Y135.325 E10.86737
G1 X137.828 Y135.338 E10.89585
G1 F1397.1 X135.802 Y135.488 E10.96408
G1 X135.047 Y135.559 E10.98955
G1 X132.973 Y135.885 E11.06006
G1 F1410.9 X132.242 Y136.011 E11.08473
G1 X130.206 Y136.508 E11.15443
G1 X129.54 Y136.681 E11.17732
G1 F1414.4 X127.464 Y137.365 E11.24983
G1 X126.861 Y137.575 E11.27101
G1 F1417.9 X126.13 Y137.877 E11.29719
G1 X124.273 Y138.677 E11.3641
G1 X123.534 Y139.056 E11.39158
G1 X121.798 Y139.976 E11.4566
G1 X121.046 Y140.442 E11.48587
G1 X119.399 Y141.492 E11.55051
G1 F1414.4 X118.666 Y142.032 E11.58071
G1 F1417.9 X117.164 Y143.171 E11.64309
G1 F1425 X116.429 Y143.81 E11.67516
G1 F1421.4 X115.049 Y145.042 E11.73623
G1 X114.356 Y145.754 E11.76903
G1 X113.113 Y147.062 E11.82859
G1 X112.432 Y147.882 E11.86377
G1 F1425 X111.34 Y149.234 E11.921
G1 X110.7 Y150.146 E11.95769
G1 X109.727 Y151.568 E12.01442
G1 X109.153 Y152.546 E12.05176
G1 X108.331 Y153.987 E12.10639
G1 X107.81 Y155.063 E12.14575
G1 X107.107 Y156.561 E12.20024
G1 F1421.4 X106.673 Y157.685 E12.24001
G1 F1432.2 X106.094 Y159.251 E12.29471
G1 F1403.9 X105.346 Y161.848 E12.38504
G1 F1425 X105.097 Y163.011 E12.4242
G1 X104.778 Y164.631 E12.47857
G1 F1400.5 X104.441 Y167.399 E12.57199
G1 X104.324 Y170.209 E12.66622
G1 F1390.2 X104.44 Y173.02 E12.76117
G1 F1407.4 X104.712 Y175.309 E12.83802
G1 F1403.9 X104.779 Y175.798 E12.85452
G1 F1407.4 X105.194 Y177.881 E12.92533
G1 F1403.9 X105.346 Y178.571 E12.94894
G1 X105.853 Y180.365 E13.01125
G1 X106.134 Y181.289 E13.04352
G1 X106.694 Y182.802 E13.09744
G1 X107.122 Y183.896 E13.13671
G1 X107.708 Y185.16 E13.18327
G1 X108.335 Y186.449 E13.23118
G1 X108.882 Y187.425 E13.26857
G1 X109.727 Y188.863 E13.32431
G1 X110.242 Y189.63 E13.35519
G1 F1407.4 X111.343 Y191.205 E13.41926
G1 F1403.9 X111.748 Y191.717 E13.44107
G1 F1407.4 X113.113 Y193.373 E13.51262
G1 F1383.5 X115.064 Y195.407 E13.60821
G1 F1390.2 X117.148 Y197.256 E13.70224
G1 X119.417 Y198.957 E13.79795
G1 F1403.9 X121.324 Y200.171 E13.8735
G1 F1397.1 X121.766 Y200.443 E13.89093
G1 F1403.9 X123.569 Y201.401 E13.95917
G1 X124.268 Y201.755 E13.98536
G1 X125.92 Y202.471 E14.04553
G1 X126.865 Y202.861 E14.0797
G1 F1407.4 X128.289 Y203.351 E14.12991
G1 F1403.9 X129.517 Y203.746 E14.17302
G1 X130.793 Y204.075 E14.21706
G1 F1407.4 X132.25 Y204.42 E14.26698
G1 X133.308 Y204.605 E14.30279
G1 X135.047 Y204.876 E14.36146
G1 F1403.9 X135.857 Y204.952 E14.38865
G1 X137.824 Y205.101 E14.45458
G1 X138.413 Y205.109 E14.47427
G0 F3600 X138.388 Y204.382
;TYPE:WALL-OUTER
G1 F1500 X135.9 Y204.23 E14.55224
G1 X133.41 Y203.893 E14.63084
G1 X130.93 Y203.369 E14.71013
G1 X128.508 Y202.667 E14.78901
G1 X126.163 Y201.792 E14.86731
G1 X123.863 Y200.74 E14.94642
G1 X121.671 Y199.53 E15.02474
G1 X119.556 Y198.156 E15.10364
G1 X117.55 Y196.628 E15.18252
G1 X115.674 Y194.968 E15.26088
G1 X113.912 Y193.162 E15.33981
G1 X112.301 Y191.247 E15.41809
G1 X110.826 Y189.207 E15.49683
G1 X109.502 Y187.056 E15.57584
G1 X108.342 Y184.819 E15.65467
G1 X107.351 Y182.51 E15.73327
G1 X106.534 Y180.124 E15.81216
G1 X105.894 Y177.69 E15.89089
G1 X105.435 Y175.228 E15.96923
G1 X105.158 Y172.726 E16.04797
G1 X105.066 Y170.209 E16.12676
G1 X105.179 Y167.417 E16.21417
G1 X105.526 Y164.634 E16.3019
G1 X105.8 Y163.146 E16.34922
G1 X106.094 Y161.902 E16.38921
G1 X106.49 Y160.445 E16.43644
G1 X106.799 Y159.507 E16.46733
G1 X106.787 Y159.488 E16.46804
G1 X107.352 Y157.921 E16.52014
G1 X107.884 Y156.624 E16.56399
G1 X108.461 Y155.36 E16.60746
G1 X109.101 Y154.11 E16.65139
G1 X109.783 Y152.888 E16.69516
G1 X110.516 Y151.7 E16.73883
G1 X111.298 Y150.539 E16.78262
G1 X112.136 Y149.404 E16.82675
G1 X112.999 Y148.324 E16.86999
G1 X113.917 Y147.268 E16.91376
G1 X114.877 Y146.248 E16.95758
G1 X115.876 Y145.274 E17.00122
G1 X116.916 Y144.339 E17.04497
G1 X117.992 Y143.448 E17.08867
G1 X119.109 Y142.602 E17.1325
G1 X120.256 Y141.802 E17.17625
G1 X121.442 Y141.043 E17.22029
G1 X122.638 Y140.346 E17.2636
G1 X123.879 Y139.69 E17.30751
G1 X125.149 Y139.081 E17.35156
G1 X126.422 Y138.538 E17.39486
G1 X127.724 Y138.038 E17.43848
G1 X129.062 Y137.591 E17.48261
G1 X130.408 Y137.205 E17.52641
G1 X131.761 Y136.871 E17.57001
G1 X133.125 Y136.592 E17.61356
G1 X135.909 Y136.206 E17.70148
G1 X138.687 Y136.046 E17.78852
G1 X141.491 Y136.115 E17.87626
G1 X144.263 Y136.414 E17.96348
G1 X146.999 Y136.933 E18.05059
G1 X148.368 Y137.284 E18.0948
G1 X149.694 Y137.679 E18.13808
G1 X151.028 Y138.139 E18.18222
G1 X152.324 Y138.646 E18.22575
G1 X153.695 Y139.243 E18.27252
G1 X154.867 Y139.824 E18.31344
G1 X156.084 Y140.48 E18.35669
G1 X157.289 Y141.194 E18.40051
G1 X158.469 Y141.964 E18.44458
G1 X159.598 Y142.766 E18.4879
G1 X160.718 Y143.632 E18.53219
G1 X161.833 Y144.571 E18.57779
G1 X162.773 Y145.43 E18.61762
G1 X163.799 Y146.45 E18.66287
G1 X164.744 Y147.465 E18.70626
G1 X165.669 Y148.545 E18.75074
G1 X166.548 Y149.668 E18.79535
G1 X167.345 Y150.766 E18.83779
G1 X168.129 Y151.958 E18.88242
G1 X168.839 Y153.127 E18.9252
G1 X169.52 Y154.364 E18.96937
G1 X170.137 Y155.606 E19.01275
G1 X170.712 Y156.894 E19.05688
G1 X171.228 Y158.18 E19.10022
G1 X171.7 Y159.51 E19.14437
G1 X172.106 Y160.832 E19.18763
G1 X172.46 Y162.182 E19.23128
G1 X172.76 Y163.549 E19.27506
G1 X173.194 Y166.325 E19.36296
G1 X173.398 Y169.11 E19.45031
G1 X173.379 Y171.891 E19.5373
G1 X173.126 Y174.683 E19.625
G1 X172.648 Y177.434 E19.71234
G1 X172.326 Y178.792 E19.756
G1 X171.947 Y180.138 E19.79974
G1 X171.511 Y181.48 E19.84388
G1 X171.027 Y182.777 E19.88718
G1 X170.487 Y184.067 E19.93093
G1 X169.894 Y185.332 E19.97463
G1 X169.249 Y186.573 E20.01838
G1 X168.549 Y187.797 E20.06249
G1 X167.815 Y188.971 E20.1058
G1 X167.021 Y190.122 E20.14954
G1 X166.179 Y191.25 E20.19357
G1 X165.304 Y192.326 E20.23695
G1 X164.369 Y193.386 E20.28117
G1 X163.402 Y194.391 E20.3248
G1 X161.571 Y196.092 E20.40297
G1 X159.59 Y197.675 E20.4823
G1 X157.514 Y199.101 E20.56108
G1 X155.354 Y200.357 E20.63924
G1 X153.073 Y201.468 E20.71861
G1 X150.76 Y202.395 E20.79655
G1 X148.339 Y203.16 E20.87598
G1 X145.904 Y203.739 E20.95427
G1 X143.414 Y204.138 E21.03315
G1 X140.926 Y204.354 E21.11127
G1 X138.388 Y204.382 E21.19067
G1 F1500 E19.19067
G0 F3600 X140.662 Y205.438
G1 F1500 E21.19067
G1 X143.469 Y205.215 E21.27875
G1 X146.297 Y204.755 E21.36838
G1 X149.026 Y204.079 E21.45633
G1 X151.735 Y203.178 E21.54563
G1 X154.348 Y202.066 E21.63446
G1 X156.871 Y200.743 E21.72358
G1 X159.245 Y199.242 E21.81144
