;FLAVOR:Marlin
;TIME:637
;Filament used: 1.08272m
;Layer height: 0.4
;MINX:131.219
;MINY:130.95
;MINZ:0.3
;MAXX:168.764
;MAXY:169.084
;MAXZ:3.9
;TARGET_MACHINE.NAME:Artillery Sidewinder X1
;Generated with Cura_SteamEngine 5.10.0
M140 S55
M105
M190 S55
M104 S210
M105
M109 S210
G28 ; home all axes
M117 ; Purge extruder
M420 S1 ; enable bed mesh
G92 E0 ; reset extruder
G1 Z1.0 F3000 ; move z up little to prevent scratching of surface
G1 X2 Y20 Z0.3 F5000.0 ; move to start-line position
G1 X2 Y200.0 Z0.3 F1500.0 E15 ; draw 1st line
G1 X2 Y200.0 Z0.4 F5000.0 ; move to side a little
G1 X2 Y20 Z0.4 F1500.0 E30 ; draw 2nd line
G92 E0 ; reset extruder
G1 Z1.0 F3000 ; move z up little to prevent scratching of surface
M82 ;absolute extrusion mode
G92 E0
G92 E0
G1 F1500 E-2
;LAYER_COUNT:10
;LAYER:0
M106 S76.5
;MESH:Bry??a7
G0 F3600 X139.979 Y147.276 Z0.3
;TYPE:WALL-OUTER
G1 F1500 E0
G1 F1800 X139.404 Y147.34 E0.02886
G1 X138.826 Y147.319 E0.05772
G1 X138.286 Y147.216 E0.08515
G1 X137.722 Y147.016 E0.115
G1 X137.214 Y146.741 E0.14382
G1 X136.765 Y146.4 E0.17195
G1 X136.355 Y145.974 E0.20145
G1 X136.019 Y145.494 E0.23068
G1 X135.763 Y144.97 E0.25977
G1 X135.603 Y144.458 E0.28654
G1 X135.511 Y143.893 E0.31509
G1 X135.508 Y143.301 E0.34463
G1 X135.603 Y142.71 E0.37449
G1 X135.763 Y142.198 E0.40126
G1 X136.039 Y141.642 E0.43222
G1 X136.357 Y141.191 E0.45976
G1 X136.774 Y140.761 E0.48964
G1 X137.228 Y140.419 E0.518
G1 X137.699 Y140.163 E0.54474
G1 X138.286 Y139.952 E0.57586
G1 X138.806 Y139.852 E0.60228
G1 X139.421 Y139.829 E0.63298
G1 X139.997 Y139.897 E0.66192
G1 X140.524 Y140.041 E0.68918
G1 X141.064 Y140.287 E0.71878
G1 X141.548 Y140.597 E0.74746
G1 X141.971 Y140.978 E0.77586
G1 X142.322 Y141.407 E0.80351
G1 X142.638 Y141.934 E0.83417
G1 X142.838 Y142.43 E0.86085
G1 X142.98 Y143.028 E0.89151
G1 X143.02 Y143.604 E0.92032
G1 X142.976 Y144.171 E0.94869
G1 X142.838 Y144.738 E0.97781
G1 X142.624 Y145.263 E1.00609
G1 X142.331 Y145.749 E1.0344
G1 X141.969 Y146.191 E1.06291
G1 X141.547 Y146.572 E1.09127
G1 X141.062 Y146.882 E1.11999
G1 X140.532 Y147.124 E1.14906
G1 X139.979 Y147.276 E1.17767
G0 F3600 X139.781 Y147.298
G1 F1500 E-0.82233
G0 F3600 X138.983 Y158.115
G1 F1500 E1.17767
G1 F1800 X138.406 Y158.18 E1.20664
G1 X137.857 Y158.16 E1.23405
G1 X137.31 Y158.056 E1.26182
G1 X136.76 Y157.861 E1.29094
G1 X136.227 Y157.568 E1.32128
G1 X135.798 Y157.244 E1.3481
G1 X135.371 Y156.798 E1.37891
G1 X135.063 Y156.363 E1.4055
G1 X134.788 Y155.807 E1.43645
G1 X134.624 Y155.291 E1.46346
G1 X134.535 Y154.729 E1.49185
G1 X134.535 Y154.11 E1.52273
G1 X134.628 Y153.549 E1.5511
G1 X134.793 Y153.028 E1.57836
G1 X135.062 Y152.486 E1.60855
G1 X135.38 Y152.034 E1.63612
G1 X135.783 Y151.613 E1.6652
G1 X136.226 Y151.276 E1.69297
G1 X136.737 Y150.992 E1.72213
G1 X137.288 Y150.794 E1.75135
G1 X137.849 Y150.689 E1.77982
G1 X138.426 Y150.668 E1.80863
G1 X139.004 Y150.733 E1.83764
G1 X139.55 Y150.882 E1.86588
G1 X140.077 Y151.117 E1.89467
G1 X140.563 Y151.43 E1.92351
G1 X140.992 Y151.816 E1.9523
G1 X141.361 Y152.263 E1.98122
G1 X141.649 Y152.744 E2.00919
G1 X141.875 Y153.296 E2.03895
G1 X142.004 Y153.868 E2.0682
G1 X142.044 Y154.44 E2.09681
G1 X141.998 Y155.019 E2.12578
G1 X141.878 Y155.535 E2.15221
G1 X141.644 Y156.105 E2.18295
G1 X141.346 Y156.601 E2.21182
G1 X141.006 Y157.017 E2.23863
G1 X140.577 Y157.403 E2.26742
G1 X140.063 Y157.734 E2.29792
G1 X139.571 Y157.954 E2.32481
G1 X138.983 Y158.115 E2.35522
G0 F3600 X138.785 Y158.137
G1 F1500 E0.35522
G0 F3600 X146.87 Y165.632
G1 F1500 E2.35522
G1 F1800 X146.315 Y165.699 E2.38311
G1 X145.725 Y165.68 E2.41256
G1 X145.165 Y165.574 E2.441
G1 X144.627 Y165.381 E2.46951
G1 X144.12 Y165.109 E2.49822
G1 X143.649 Y164.75 E2.52776
G1 X143.235 Y164.319 E2.55758
G1 X142.927 Y163.883 E2.58421
G1 X142.655 Y163.335 E2.61473
G1 X142.482 Y162.776 E2.64393
G1 X142.402 Y162.252 E2.67037
G1 X142.4 Y161.656 E2.70011
G1 X142.484 Y161.099 E2.72821
G1 X142.671 Y160.516 E2.75876
G1 X142.927 Y160.006 E2.78723
G1 X143.244 Y159.558 E2.81461
G1 X143.666 Y159.121 E2.84491
G1 X144.12 Y158.779 E2.87327
G1 X144.627 Y158.507 E2.90198
G1 X145.174 Y158.312 E2.93095
G1 X145.694 Y158.212 E2.95737
G1 X146.313 Y158.189 E2.98827
G1 X146.889 Y158.257 E3.01721
G1 X147.41 Y158.399 E3.04415
G1 X147.951 Y158.64 E3.0737
G1 X148.427 Y158.949 E3.10201
G1 X148.856 Y159.335 E3.1308
G1 X149.223 Y159.778 E3.1595
G1 X149.526 Y160.29 E3.18918
G1 X149.734 Y160.805 E3.21689
G1 X149.864 Y161.359 E3.24528
G1 X149.908 Y161.96 E3.27535
G1 X149.862 Y162.539 E3.30432
G1 X149.738 Y163.07 E3.33153
G1 X149.525 Y163.596 E3.35984
G1 X149.214 Y164.121 E3.39028
G1 X148.861 Y164.551 E3.41804
G1 X148.443 Y164.921 E3.44589
G1 X147.941 Y165.249 E3.47581
G1 X147.396 Y165.492 E3.50558
G1 X146.87 Y165.632 E3.53273
G0 F3600 X146.672 Y165.655
G1 F1500 E1.53273
G0 F3600 X154.957 Y168.094
G1 F1500 E3.53273
G1 F1800 X155.519 Y167.931 E3.56193
G1 X156.133 Y167.73 E3.59416
G1 X156.669 Y167.54 E3.62253
G1 X156.988 Y167.379 E3.64036
G1 X157.253 Y167.173 E3.6571
G1 X157.482 Y166.916 E3.67428
G1 X157.653 Y166.608 E3.69185
G1 X157.998 Y165.945 E3.72914
G1 X158.415 Y165.309 E3.76708
G1 X158.884 Y164.735 E3.80406
G1 X159.423 Y164.202 E3.84188
G1 X160.006 Y163.729 E3.87933
G1 X160.606 Y163.341 E3.91498
G1 X161.285 Y162.992 E3.95307
G1 X162.015 Y162.713 E3.99206
G1 X162.727 Y162.519 E4.02888
G1 X163.447 Y162.404 E4.06525
G1 X163.784 Y162.331 E4.08246
G1 X164.11 Y162.19 E4.10018
G1 X164.388 Y162.003 E4.11689
G1 X164.632 Y161.752 E4.13436
G1 X164.992 Y161.295 E4.16338
G1 X165.422 Y160.703 E4.19988
G1 X165.707 Y160.271 E4.2257
G1 X165.865 Y159.97 E4.24266
G1 X165.959 Y159.647 E4.25945
G1 X165.99 Y159.311 E4.27628
G1 X165.95 Y158.942 E4.2948
G1 X165.842 Y158.244 E4.33004
G1 X165.804 Y157.461 E4.36915
G1 X165.844 Y156.733 E4.40552
G1 X165.959 Y155.999 E4.44259
G1 X166.165 Y155.238 E4.48192
G1 X166.421 Y154.571 E4.51756
G1 X166.768 Y153.882 E4.55605
G1 X167.181 Y153.245 E4.59393
G1 X167.637 Y152.677 E4.63027
G1 X168.167 Y152.145 E4.66773
G1 X168.398 Y151.888 E4.68497
G1 X168.579 Y151.588 E4.70245
G1 X168.69 Y151.273 E4.71911
G1 X168.74 Y150.929 E4.73646
G1 X168.76 Y150.314 E4.76716
G1 X168.763 Y149.661 E4.79973
G1 X168.74 Y149.097 E4.8279
G1 X168.69 Y148.759 E4.84494
G1 X168.579 Y148.444 E4.8616
G1 X168.402 Y148.152 E4.87864
G1 X168.154 Y147.875 E4.89719
G1 X167.65 Y147.37 E4.93278
G1 X167.17 Y146.773 E4.971
G1 X166.772 Y146.156 E5.00763
G1 X166.421 Y145.462 E5.04643
G1 X166.157 Y144.769 E5.08343
G1 X165.959 Y144.033 E5.12146
G1 X165.844 Y143.299 E5.15852
G1 X165.804 Y142.539 E5.19649
G1 X165.841 Y141.802 E5.23331
G1 X165.954 Y141.078 E5.26986
G1 X165.99 Y140.722 E5.28772
G1 X165.959 Y140.385 E5.3046
G1 X165.865 Y140.061 E5.32143
G1 X165.708 Y139.758 E5.33846
G1 X165.359 Y139.246 E5.36937
G1 X164.647 Y138.291 E5.4288
G1 X164.384 Y138.025 E5.44746
G1 X164.113 Y137.841 E5.4638
G1 X163.792 Y137.702 E5.48125
G1 X163.44 Y137.628 E5.4992
G1 X162.711 Y137.51 E5.53604
G1 X161.992 Y137.312 E5.57325
G1 X161.298 Y137.048 E5.61029
G1 X160.613 Y136.698 E5.64867
G1 X160.001 Y136.298 E5.68515
G1 X159.424 Y135.835 E5.72206
G1 X158.876 Y135.289 E5.76065
G1 X158.398 Y134.696 E5.79865
G1 X157.988 Y134.071 E5.83594
G1 X157.655 Y133.42 E5.87242
G1 X157.483 Y133.117 E5.8898
G1 X157.258 Y132.864 E5.9067
G1 X156.985 Y132.654 E5.92388
G1 X156.661 Y132.492 E5.94195
G1 X156.111 Y132.294 E5.97112
G1 X155.518 Y132.101 E6.00223
G1 X154.954 Y131.935 E6.03156
G1 X154.599 Y131.877 E6.04951
G1 X154.261 Y131.888 E6.06638
G1 X153.927 Y131.961 E6.08343
G1 X153.592 Y132.111 E6.10175
G1 X152.93 Y132.443 E6.13869
G1 X152.235 Y132.708 E6.1758
G1 X151.501 Y132.901 E6.21367
G1 X150.765 Y133.016 E6.25083
G1 X150.037 Y133.052 E6.2872
G1 X149.255 Y133.013 E6.32626
G1 X148.538 Y132.9 E6.36247
G1 X147.813 Y132.708 E6.39989
G1 X147.123 Y132.448 E6.43668
G1 X146.46 Y132.111 E6.47378
G1 X146.122 Y131.961 E6.49223
G1 X145.791 Y131.888 E6.50914
G1 X145.449 Y131.877 E6.52621
G1 X145.095 Y131.935 E6.54411
G1 X144.516 Y132.106 E6.57423
G1 X143.913 Y132.302 E6.60586
G1 X143.387 Y132.492 E6.63376
G1 X143.063 Y132.654 E6.65184
G1 X142.788 Y132.867 E6.66919
G1 X142.573 Y133.112 E6.68545
G1 X142.408 Y133.398 E6.70192
G1 X142.057 Y134.073 E6.73988
G1 X141.65 Y134.695 E6.77697
G1 X141.16 Y135.305 E6.816
G1 X140.632 Y135.827 E6.85304
G1 X140.068 Y136.283 E6.88923
G1 X139.435 Y136.698 E6.92699
G1 X138.752 Y137.047 E6.96526
G1 X138.037 Y137.319 E7.00342
G1 X137.326 Y137.513 E7.04019
G1 X136.608 Y137.628 E7.07647
G1 X136.26 Y137.701 E7.09421
G1 X135.939 Y137.841 E7.11168
G1 X135.668 Y138.025 E7.12802
G1 X135.405 Y138.296 E7.14686
G1 X135.06 Y138.737 E7.1748
G1 X134.63 Y139.329 E7.2113
G1 X134.341 Y139.761 E7.23723
G1 X134.187 Y140.062 E7.2541
G1 X134.089 Y140.39 E7.27118
G1 X134.058 Y140.721 E7.28776
G1 X134.101 Y141.097 E7.30664
G1 X134.208 Y141.813 E7.34276
G1 X134.248 Y142.549 E7.37954
G1 X134.205 Y143.318 E7.41796
G1 X134.089 Y144.034 E7.45415
G1 X133.887 Y144.794 E7.49338
G1 X133.62 Y145.487 E7.53043
G1 X133.285 Y146.14 E7.56705
G1 X132.883 Y146.765 E7.60412
G1 X132.393 Y147.376 E7.6432
G1 X131.885 Y147.888 E7.67918
G1 X131.65 Y148.144 E7.69652
G1 X131.469 Y148.448 E7.71417
G1 X131.358 Y148.759 E7.73064
G1 X131.308 Y149.104 E7.74804
G1 X131.288 Y149.669 E7.77624
G1 X131.289 Y150.366 E7.81102
G1 X131.308 Y150.929 E7.83912
G1 X131.358 Y151.272 E7.85641
G1 X131.473 Y151.588 E7.87319
G1 X131.65 Y151.888 E7.89057
G1 X131.914 Y152.174 E7.90999
G1 X132.4 Y152.663 E7.94438
G1 X132.867 Y153.245 E7.98161
G1 X133.288 Y153.897 E8.02033
G1 X133.631 Y154.57 E8.05802
G1 X133.896 Y155.265 E8.09512
G1 X134.09 Y155.998 E8.13295
G1 X134.208 Y156.741 E8.17049
G1 X134.248 Y157.483 E8.20756
G1 X134.206 Y158.243 E8.24553
G1 X134.098 Y158.955 E8.28146
G1 X134.058 Y159.311 E8.29933
G1 X134.089 Y159.646 E8.31612
G1 X134.183 Y159.966 E8.33276
G1 X134.348 Y160.282 E8.35054
G1 X134.705 Y160.809 E8.3823
G1 X135.061 Y161.298 E8.41248
G1 X135.413 Y161.752 E8.44114
G1 X135.659 Y162.002 E8.45863
G1 X135.938 Y162.19 E8.47542
G1 X136.264 Y162.331 E8.49314
G1 X136.601 Y162.404 E8.51034
G1 X137.335 Y162.521 E8.54742
G1 X138.044 Y162.715 E8.5841
G1 X138.745 Y162.982 E8.62152
G1 X139.434 Y163.337 E8.66019
G1 X140.043 Y163.733 E8.69643
G1 X140.652 Y164.224 E8.73546
G1 X141.182 Y164.756 E8.77292
G1 X141.645 Y165.325 E8.80952
G1 X142.055 Y165.953 E8.84694
G1 X142.393 Y166.611 E8.88384
G1 X142.573 Y166.919 E8.90164
G1 X142.792 Y167.17 E8.91826
G1 X143.06 Y167.378 E8.93519
G1 X143.383 Y167.54 E8.95321
G1 X143.952 Y167.742 E8.98334
G1 X144.601 Y167.951 E9.01735
G1 X145.091 Y168.093 E9.04281
G1 X145.456 Y168.155 E9.06128
G1 X145.791 Y168.148 E9.07799
G1 X146.121 Y168.072 E9.09489
G1 X146.46 Y167.921 E9.1134
G1 X147.123 Y167.584 E9.15051
G1 X147.787 Y167.332 E9.18594
G1 X148.547 Y167.131 E9.22516
G1 X149.255 Y167.019 E9.26092
G1 X150.037 Y166.98 E9.29998
G1 X150.771 Y167.016 E9.33665
G1 X151.536 Y167.138 E9.3753
G1 X152.262 Y167.333 E9.4128
G1 X152.953 Y167.599 E9.44974
G1 X153.592 Y167.921 E9.48544
G1 X153.928 Y168.072 E9.50382
G1 X154.261 Y168.148 E9.52086
G1 X154.596 Y168.155 E9.53758
G1 X154.957 Y168.094 E9.55584
G0 F3600 X155.149 Y168.039
G1 F1500 E7.55584
G0 F3600 X157.672 Y164.168
G1 F1500 E9.55584
G1 F1800 X157.099 Y164.239 E9.58465
G1 X156.478 Y164.216 E9.61565
G1 X155.946 Y164.113 E9.64268
G1 X155.396 Y163.915 E9.67185
G1 X154.89 Y163.641 E9.70056
G1 X154.432 Y163.293 E9.72925
G1 X154.018 Y162.858 E9.75921
G1 X153.702 Y162.405 E9.78677
G1 X153.449 Y161.896 E9.81513
G1 X153.266 Y161.316 E9.84547
G1 X153.185 Y160.781 E9.87246
G1 X153.186 Y160.172 E9.90285
G1 X153.269 Y159.633 E9.93006
G1 X153.445 Y159.078 E9.9591
G1 X153.711 Y158.541 E9.989
G1 X154.019 Y158.105 E10.01563
G1 X154.437 Y157.671 E10.0457
G1 X154.877 Y157.335 E10.07332
G1 X155.377 Y157.058 E10.10183
G1 X155.921 Y156.858 E10.13075
G1 X156.498 Y156.749 E10.16005
G1 X157.099 Y156.725 E10.19005
G1 X157.635 Y156.789 E10.21698
G1 X158.19 Y156.938 E10.24565
G1 X158.717 Y157.171 E10.2744
G1 X159.206 Y157.485 E10.30339
G1 X159.629 Y157.86 E10.3316
G1 X160.02 Y158.338 E10.36241
G1 X160.302 Y158.813 E10.38997
G1 X160.515 Y159.335 E10.41809
G1 X160.652 Y159.928 E10.44846
G1 X160.692 Y160.504 E10.47726
G1 X160.646 Y161.079 E10.50604
G1 X160.526 Y161.595 E10.53247
G1 X160.292 Y162.17 E10.56344
G1 X160.013 Y162.637 E10.59058
G1 X159.624 Y163.112 E10.62121
G1 X159.198 Y163.483 E10.6494
G1 X158.712 Y163.794 E10.67818
G1 X158.223 Y164.014 E10.70493
G1 X157.672 Y164.168 E10.73348
G0 F3600 X157.474 Y164.192
G1 F1500 E8.73348
G0 F3600 X163.213 Y154.835
G1 F1500 E10.73348
G1 F1800 X162.657 Y154.896 E10.76138
G1 X162.099 Y154.876 E10.78924
G1 X161.539 Y154.771 E10.81766
G1 X160.988 Y154.576 E10.84683
G1 X160.482 Y154.304 E10.87549
G1 X160.027 Y153.961 E10.90391
G1 X159.622 Y153.547 E10.93281
G1 X159.283 Y153.06 E10.96241
G1 X159.036 Y152.564 E10.99006
G1 X158.85 Y151.99 E11.02016
G1 X158.766 Y151.45 E11.04742
G1 X158.766 Y150.832 E11.07825
G1 X158.85 Y150.288 E11.10572
G1 X159.031 Y149.728 E11.13508
G1 X159.287 Y149.214 E11.16373
G1 X159.598 Y148.767 E11.19089
G1 X160.03 Y148.317 E11.22202
G1 X160.484 Y147.975 E11.25037
G1 X160.969 Y147.712 E11.2779
G1 X161.542 Y147.508 E11.30824
G1 X162.062 Y147.408 E11.33466
G1 X162.677 Y147.385 E11.36537
G1 X163.22 Y147.446 E11.39263
G1 X163.804 Y147.607 E11.42285
G1 X164.329 Y147.849 E11.45169
G1 X164.809 Y148.161 E11.48025
G1 X165.222 Y148.529 E11.50785
G1 X165.583 Y148.969 E11.53624
G1 X165.881 Y149.467 E11.5652
G1 X166.093 Y149.99 E11.59335
G1 X166.232 Y150.553 E11.62228
G1 X166.272 Y151.148 E11.65204
G1 X166.23 Y151.737 E11.6815
G1 X166.106 Y152.253 E11.70797
G1 X165.876 Y152.826 E11.73878
G1 X165.585 Y153.308 E11.76687
G1 X165.23 Y153.742 E11.79484
G1 X164.782 Y154.143 E11.82484
G1 X164.295 Y154.454 E11.85366
G1 X163.803 Y154.674 E11.88055
G1 X163.213 Y154.835 E11.91106
G0 F3600 X163.015 Y154.856
G1 F1500 E9.91106
G0 F3600 X159.389 Y144.647
G1 F1500 E11.91106
G1 F1800 X158.853 Y144.707 E11.93797
G1 X158.248 Y144.686 E11.96817
G1 X157.718 Y144.584 E11.9951
G1 X157.147 Y144.381 E12.02533
G1 X156.643 Y144.108 E12.05393
G1 X156.181 Y143.754 E12.08297
G1 X155.79 Y143.345 E12.1112
G1 X155.464 Y142.883 E12.13941
G1 X155.206 Y142.367 E12.16819
G1 X155.034 Y141.821 E12.19675
G1 X154.942 Y141.259 E12.22516
G1 X154.943 Y140.643 E12.25589
G1 X155.029 Y140.101 E12.28327
G1 X155.195 Y139.566 E12.31122
G1 X155.47 Y139.011 E12.34212
G1 X155.774 Y138.575 E12.36864
G1 X156.178 Y138.153 E12.39778
G1 X156.635 Y137.802 E12.42653
G1 X157.133 Y137.53 E12.45484
G1 X157.718 Y137.32 E12.48585
G1 X158.249 Y137.218 E12.51283
G1 X158.856 Y137.197 E12.54313
G1 X159.389 Y137.257 E12.56989
G1 X159.941 Y137.404 E12.59839
G1 X160.502 Y137.657 E12.62909
G1 X160.958 Y137.953 E12.65621
G1 X161.41 Y138.354 E12.68636
G1 X161.769 Y138.795 E12.71473
G1 X162.052 Y139.266 E12.74214
G1 X162.27 Y139.798 E12.77083
G1 X162.411 Y140.384 E12.8009
G1 X162.452 Y140.939 E12.82866
G1 X162.411 Y141.52 E12.85772
G1 X162.275 Y142.087 E12.88681
G1 X162.067 Y142.609 E12.91484
G1 X161.754 Y143.129 E12.94512
G1 X161.385 Y143.575 E12.974
G1 X160.96 Y143.951 E13.00231
G1 X160.472 Y144.261 E13.03116
G1 X159.961 Y144.493 E13.05915
G1 X159.389 Y144.647 E13.08871
G0 F3600 X159.191 Y144.669
G1 F1500 E11.08871
G0 F3600 X149.066 Y141.279
G1 F1500 E13.08871
G1 F1800 X148.491 Y141.344 E13.11758
G1 X147.911 Y141.323 E13.14653
G1 X147.352 Y141.217 E13.17492
G1 X146.784 Y141.009 E13.2051
G1 X146.278 Y140.731 E13.2339
G1 X145.836 Y140.393 E13.26166
G1 X145.434 Y139.972 E13.2907
G1 X145.103 Y139.498 E13.31954
G1 X144.843 Y138.974 E13.34873
