;FLAVOR:Marlin
;TIME:1953
;Filament used: 4.90172m
;Layer height: 0.4
;MINX:130.85
;MINY:130.837
;MINZ:0.3
;MAXX:169.165
;MAXY:169.764
;MAXZ:19.9
;TARGET_MACHINE.NAME:Artillery Sidewinder X1
;Generated with Cura_SteamEngine 5.10.0
M140 S55
M105
M190 S55
M104 S210
M105
M109 S210
G28 ; home all axes
M117 ; Purge extruder
M420 S1 ; enable bed mesh
G92 E0 ; reset extruder
G1 Z1.0 F3000 ; move z up little to prevent scratching of surface
G1 X2 Y20 Z0.3 F5000.0 ; move to start-line position
G1 X2 Y200.0 Z0.3 F1500.0 E15 ; draw 1st line
G1 X2 Y200.0 Z0.4 F5000.0 ; move to side a little
G1 X2 Y20 Z0.4 F1500.0 E30 ; draw 2nd line
G92 E0 ; reset extruder
G1 Z1.0 F3000 ; move z up little to prevent scratching of surface
M82 ;absolute extrusion mode
G92 E0
G92 E0
G1 F1500 E-2
;LAYER_COUNT:50
;LAYER:0
M106 S76.5
;MESH:Bry??a5
G0 F3600 X152.835 Y145.03 Z0.3
;TYPE:WALL-OUTER
G1 F1500 E0
G1 F1800 X152.423 Y145.132 E0.02118
G1 X152.057 Y145.132 E0.03944
G1 X151.667 Y145.051 E0.05931
G1 X151.124 Y144.903 E0.08739
G1 X150.563 Y144.811 E0.11575
G1 X150.004 Y144.781 E0.14368
G1 X149.445 Y144.811 E0.17161
G1 X148.888 Y144.903 E0.19977
G1 X148.327 Y145.055 E0.22877
G1 X147.991 Y145.127 E0.24591
G1 X147.576 Y145.132 E0.26662
G1 X147.21 Y145.043 E0.28541
G1 X146.864 Y144.882 E0.30445
G1 X146.548 Y144.636 E0.32443
G1 X136.934 Y135.016 E1.00296
G1 X136.809 Y134.73 E1.01853
G1 X136.808 Y134.355 E1.03724
G1 X136.906 Y134.07 E1.05228
G1 X137.204 Y133.772 E1.0733
G1 X137.499 Y133.659 E1.08906
G1 X162.48 Y133.656 E2.33537
G1 X162.611 Y133.69 E2.34212
G1 X162.915 Y133.867 E2.35967
G1 X163.117 Y134.086 E2.37454
G1 X163.229 Y134.531 E2.39743
G1 X163.081 Y135.015 E2.42268
G1 X153.455 Y144.639 E3.10178
G1 X153.141 Y144.883 E3.12162
G1 X152.835 Y145.03 E3.13855
G0 F3600 X152.641 Y145.078
G1 F1500 E1.13855
G0 F3600 X150.664 Y153.259
G1 F1500 E3.13855
G1 F1800 X150.155 Y153.32 E3.16413
G1 X149.607 Y153.3 E3.19149
G1 X149.059 Y153.187 E3.2194
G1 X148.518 Y152.976 E3.24837
G1 X148.09 Y152.72 E3.27325
G1 X147.637 Y152.336 E3.30288
G1 X147.288 Y151.918 E3.33005
G1 X147.01 Y151.445 E3.35742
G1 X146.825 Y150.976 E3.38257
G1 X146.707 Y150.425 E3.41069
G1 X146.68 Y149.854 E3.4392
G1 X146.754 Y149.298 E3.46719
G1 X146.9 Y148.805 E3.49284
G1 X147.156 Y148.281 E3.52194
G1 X147.471 Y147.841 E3.54893
G1 X147.847 Y147.469 E3.57532
G1 X148.319 Y147.129 E3.60434
G1 X148.794 Y146.902 E3.63061
G1 X149.295 Y146.75 E3.65673
G1 X149.857 Y146.676 E3.68501
G1 X150.401 Y146.696 E3.71217
G1 X150.961 Y146.813 E3.74071
G1 X151.449 Y147.002 E3.76682
G1 X151.953 Y147.302 E3.79608
G1 X152.356 Y147.647 E3.82255
G1 X152.716 Y148.066 E3.85011
G1 X152.984 Y148.514 E3.87615
G1 X153.199 Y149.066 E3.9057
G1 X153.305 Y149.568 E3.9313
G1 X153.327 Y150.162 E3.96096
G1 X153.262 Y150.67 E3.98651
G1 X153.112 Y151.184 E4.01322
G1 X152.848 Y151.724 E4.04321
G1 X152.537 Y152.156 E4.06977
G1 X152.166 Y152.53 E4.09605
G1 X151.69 Y152.866 E4.12512
G1 X151.191 Y153.106 E4.15274
G1 X150.664 Y153.259 E4.18012
G0 F3600 X150.466 Y153.282
G1 F1500 E2.18012
G0 F3600 X157.032 Y168.73
G1 F1500 E4.18012
G1 F1800 X157.185 Y168.441 E4.19643
G1 X157.532 Y168.239 E4.21646
G1 X166.583 Y168.236 E4.66802
G1 X166.908 Y168.203 E4.68432
G1 X167.219 Y168.106 E4.70057
G1 X167.508 Y167.954 E4.71686
G1 X167.76 Y167.75 E4.73304
G1 X167.966 Y167.498 E4.74928
G1 X168.114 Y167.22 E4.76499
G1 X168.211 Y166.901 E4.78162
G1 X168.24 Y166.584 E4.7975
G1 X168.244 Y157.555 E5.24796
G1 X168.431 Y157.201 E5.26794
G1 X168.783 Y157.002 E5.28811
G1 X168.844 Y156.897 E5.29417
G1 X168.844 Y155.66 E5.35588
G1 X168.789 Y155.567 E5.36127
G1 X168.421 Y155.369 E5.38212
G1 X168.247 Y155.009 E5.40207
G1 X168.24 Y145.032 E5.89982
G1 X168.343 Y144.748 E5.9149
G1 X168.592 Y144.511 E5.93205
G1 X168.787 Y144.406 E5.9431
G1 X168.844 Y144.306 E5.94884
G1 X168.844 Y143.102 E6.00891
G1 X168.751 Y142.961 E6.01733
G1 X168.383 Y142.733 E6.03893
G1 X168.247 Y142.417 E6.05609
G1 X168.24 Y133.42 E6.50496
G1 X168.211 Y133.094 E6.52129
G1 X168.114 Y132.777 E6.53782
G1 X167.967 Y132.502 E6.55338
G1 X167.759 Y132.249 E6.56972
G1 X167.507 Y132.042 E6.58599
G1 X167.219 Y131.89 E6.60224
G1 X166.909 Y131.793 E6.61844
G1 X166.592 Y131.764 E6.63433
G1 X157.631 Y131.76 E7.08139
G1 X157.346 Y131.658 E7.09649
G1 X157.105 Y131.396 E7.11425
G1 X157.024 Y131.226 E7.12365
G1 X156.91 Y131.161 E7.1302
G1 X155.647 Y131.16 E7.19321
G1 X155.552 Y131.202 E7.19839
G1 X155.363 Y131.555 E7.21837
G1 X155.021 Y131.757 E7.23818
G1 X145.064 Y131.76 E7.73494
G1 X144.93 Y131.724 E7.74186
G1 X144.623 Y131.541 E7.75969
G1 X144.454 Y131.224 E7.77761
G1 X144.345 Y131.16 E7.78392
G1 X143.089 Y131.16 E7.84658
G1 X142.979 Y131.269 E7.85431
G1 X142.823 Y131.555 E7.87056
G1 X142.481 Y131.757 E7.89038
G1 X133.429 Y131.76 E8.34198
G1 X133.1 Y131.793 E8.35848
G1 X132.789 Y131.89 E8.37473
G1 X132.502 Y132.042 E8.39094
G1 X132.25 Y132.249 E8.40721
G1 X132.049 Y132.494 E8.42302
G1 X131.894 Y132.781 E8.43929
G1 X131.801 Y133.095 E8.45563
G1 X131.768 Y133.41 E8.47143
G1 X131.765 Y142.481 E8.92398
G1 X131.534 Y142.847 E8.94558
G1 X131.236 Y143.002 E8.96233
G1 X131.168 Y143.119 E8.96909
G1 X131.165 Y144.307 E9.02836
G1 X131.233 Y144.426 E9.03519
G1 X131.531 Y144.582 E9.05197
G1 X131.73 Y144.896 E9.07052
G1 X131.768 Y145.032 E9.07757
G1 X131.765 Y155.032 E9.57647
G1 X131.549 Y155.41 E9.59819
G1 X131.247 Y155.55 E9.6148
G1 X131.168 Y155.684 E9.62256
G1 X131.165 Y156.898 E9.68312
G1 X131.233 Y157.015 E9.68987
G1 X131.529 Y157.172 E9.70659
G1 X131.73 Y157.488 E9.72527
G1 X131.768 Y157.624 E9.73232
G1 X131.768 Y166.571 E10.17869
G1 X131.801 Y166.905 E10.19543
G1 X131.894 Y167.216 E10.21163
G1 X132.049 Y167.506 E10.22803
G1 X132.249 Y167.746 E10.24362
G1 X132.501 Y167.954 E10.25992
G1 X132.789 Y168.106 E10.27617
G1 X133.101 Y168.203 E10.29247
G1 X133.418 Y168.236 E10.30837
G1 X142.404 Y168.236 E10.75668
G1 X142.688 Y168.339 E10.77175
G1 X142.926 Y168.588 E10.78894
G1 X143.023 Y168.77 E10.79923
G1 X143.168 Y168.836 E10.80717
G1 X144.285 Y168.839 E10.8629
G1 X144.465 Y168.73 E10.8734
G1 X144.621 Y168.441 E10.88979
G1 X144.963 Y168.239 E10.9096
G1 X154.972 Y168.236 E11.40895
G1 X155.256 Y168.339 E11.42402
G1 X155.495 Y168.591 E11.44135
G1 X155.589 Y168.77 E11.45144
G1 X155.736 Y168.836 E11.45948
G1 X156.852 Y168.839 E11.51516
G1 X157.032 Y168.73 E11.52565
G0 F3600 X157.125 Y168.554
G1 F1500 E9.52565
G0 F3600 X162.807 Y166.221
G1 F1500 E11.52565
G1 F1800 X162.509 Y166.341 E11.54168
G1 X137.475 Y166.344 E12.79063
G1 X137.096 Y166.131 E12.81232
G1 X136.999 Y166.035 E12.81913
G1 X136.807 Y165.706 E12.83814
G1 X136.812 Y165.274 E12.85969
G1 X136.93 Y164.983 E12.87536
G1 X146.555 Y155.355 E13.55456
G1 X146.864 Y155.118 E13.57399
G1 X147.193 Y154.958 E13.59224
G1 X147.587 Y154.868 E13.6124
G1 X147.932 Y154.863 E13.62962
G1 X148.345 Y154.945 E13.65062
G1 X148.884 Y155.093 E13.67851
G1 X149.445 Y155.185 E13.70687
G1 X150.004 Y155.215 E13.7348
G1 X150.563 Y155.185 E13.76273
G1 X151.124 Y155.093 E13.79109
G1 X151.681 Y154.941 E13.8199
G1 X152.017 Y154.869 E13.83704
G1 X152.464 Y154.874 E13.85934
G1 X152.802 Y154.954 E13.87667
G1 X153.144 Y155.118 E13.89559
G1 X153.478 Y155.377 E13.91668
G1 X163.094 Y164.995 E14.59521
G1 X163.228 Y165.47 E14.61983
G1 X163.132 Y165.851 E14.63944
G1 X163.063 Y165.97 E14.6463
G1 X162.807 Y166.221 E14.66418
G0 F3600 X162.622 Y166.295
G1 F1500 E12.66418
G0 F3600 X165.921 Y163.111
G1 F1500 E14.66418
G1 F1800 X165.474 Y163.224 E14.68719
G1 X164.999 Y163.09 E14.71181
G1 X155.384 Y153.472 E15.39031
G1 X155.122 Y153.14 E15.41141
G1 X154.97 Y152.83 E15.42863
G1 X154.872 Y152.403 E15.45049
G1 X154.874 Y152.002 E15.47049
G1 X154.949 Y151.674 E15.48728
G1 X155.105 Y151.108 E15.51657
G1 X155.193 Y150.564 E15.54406
G1 X155.223 Y150 E15.57224
G1 X155.193 Y149.433 E15.60057
G1 X155.101 Y148.884 E15.62834
G1 X154.95 Y148.327 E15.65713
G1 X154.868 Y147.948 E15.67648
G1 X154.873 Y147.576 E15.69504
G1 X154.954 Y147.216 E15.71345
G1 X155.122 Y146.86 E15.73309
G1 X155.369 Y146.544 E15.7531
G1 X165.004 Y136.904 E16.43308
G1 X165.476 Y136.772 E16.45753
G1 X165.922 Y136.89 E16.48054
G1 X166.192 Y137.16 E16.49959
G1 X166.348 Y137.48 E16.51736
G1 X166.345 Y162.397 E17.76047
G1 X166.243 Y162.789 E17.78068
G1 X165.921 Y163.111 E17.8034
G0 F3600 X165.728 Y163.16
G1 F1500 E15.8034
G0 F3600 X135.006 Y163.094
G1 F1500 E17.8034
G1 F1800 X134.533 Y163.224 E17.82787
G1 X134.086 Y163.106 E17.85093
G1 X133.776 Y162.796 E17.87281
G1 X133.663 Y162.501 E17.88857
G1 X133.66 Y137.612 E19.13028
G1 X133.771 Y137.205 E19.15133
G1 X134.088 Y136.888 E19.1737
G1 X134.531 Y136.777 E19.19648
G1 X135.016 Y136.915 E19.22164
G1 X144.649 Y146.551 E19.90141
G1 X144.886 Y146.86 E19.92083
G1 X145.038 Y147.169 E19.93801
G1 X145.13 Y147.54 E19.95708
G1 X145.141 Y147.924 E19.97625
G1 X145.059 Y148.338 E19.99731
G1 X144.911 Y148.872 E20.02495
G1 X144.82 Y149.436 E20.05345
G1 X144.789 Y150 E20.08163
G1 X144.819 Y150.56 E20.10961
G1 X144.907 Y151.12 E20.13789
G1 X145.054 Y151.646 E20.16514
G1 X145.14 Y152.048 E20.18565
G1 X145.136 Y152.421 E20.20426
G1 X145.046 Y152.811 E20.22423
G1 X144.886 Y153.14 E20.24248
G1 X144.649 Y153.449 E20.26191
G1 X135.006 Y163.094 E20.94235
G0 F3600 X134.814 Y163.146
G0 X135.234 Y163.348
;TYPE:WALL-INNER
G1 F1800 X135.042 Y163.439 E20.95295
G1 X134.62 Y163.549 E20.9747
G1 X134.437 Y163.555 E20.98384
G1 X134.06 Y163.451 E21.00335
G1 X133.795 Y163.297 E21.01864
G1 X133.575 Y163.077 E21.03416
G1 X133.444 Y162.879 E21.04601
G1 X133.32 Y162.533 E21.06434
G1 X133.32 Y137.567 E22.3099
G1 X133.425 Y137.182 E22.32981
G1 X133.579 Y136.915 E22.34519
G1 X133.795 Y136.699 E22.36043
G1 X134.067 Y136.543 E22.37607
G1 X134.371 Y136.463 E22.39176
G1 X134.605 Y136.441 E22.40348
G1 X135.11 Y136.591 E22.42977
G1 X135.302 Y136.721 E22.44133
G1 X144.869 Y146.287 E23.1163
G1 X145.163 Y146.652 E23.13968
G1 X145.37 Y147.077 E23.16327
G1 X145.475 Y147.521 E23.18603
G1 X145.482 Y147.982 E23.20903
G1 X145.393 Y148.404 E23.23055
G1 X145.244 Y148.945 E23.25855
G1 X145.159 Y149.473 E23.28523
G1 X145.129 Y150 E23.31156
G1 X145.158 Y150.525 E23.33779
G1 X145.24 Y151.048 E23.3642
G1 X145.386 Y151.572 E23.39134
G1 X145.479 Y151.988 E23.41261
G1 X145.474 Y152.487 E23.43751
G1 X145.366 Y152.924 E23.45996
G1 X145.164 Y153.346 E23.48331
G1 X144.869 Y153.713 E23.5068
G1 X135.234 Y163.348 E24.1866
G0 F3600 X135.576 Y163.572
G1 F1800 X135.228 Y163.803 E24.20744
G1 X134.662 Y163.954 E24.23666
G1 X134.376 Y163.953 E24.25093
G1 X133.953 Y163.837 E24.27281
G1 X133.512 Y163.58 E24.29828
G1 X133.292 Y163.36 E24.3138
G1 X133.074 Y163.03 E24.33353
G1 F1782.2 X132.917 Y162.603 E24.35646
G1 X132.92 Y155.597 E24.70948
G1 F1764.7 X132.913 Y155.165 E24.73147
G1 X132.92 Y143.074 E25.34676
G1 X132.913 Y142.609 E25.37042
G1 F1756.1 X132.917 Y137.648 E25.62412
G1 F1730.8 X132.942 Y137.381 E25.63803
G1 X133.037 Y137.076 E25.6546
G1 F1791 X133.296 Y136.632 E25.68038
G1 F1800 X133.512 Y136.416 E25.69562
G1 X133.965 Y136.156 E25.72168
G1 X134.378 Y136.047 E25.74299
G1 X134.681 Y136.046 E25.7581
G1 X135.265 Y136.222 E25.78853
G1 X135.487 Y136.34 E25.80108
G1 X145.21 Y146.067 E26.48723
G1 X145.506 Y146.443 E26.5111
G1 X145.745 Y146.929 E26.53812
G1 F1795.5 X145.874 Y147.474 E26.56613
G1 F1782.2 X145.882 Y148.008 E26.59304
G1 F1764.7 X145.792 Y148.477 E26.61735
G1 F1760.4 X145.645 Y148.996 E26.64486
G1 F1764.7 X145.561 Y149.517 E26.67172
G1 X145.533 Y150 E26.69634
G1 F1769 X145.559 Y150.483 E26.72089
G1 F1760.4 X145.64 Y150.973 E26.74623
G1 F1730.8 X145.892 Y151.895 E26.79582
G1 F1756.1 X145.871 Y152.55 E26.82933
G1 F1800 X145.744 Y153.057 E26.85541
G1 X145.506 Y153.559 E26.88313
G1 X145.151 Y153.995 E26.91118
G1 X135.576 Y163.572 E27.58681
G1 F1500 E25.58681
G0 F3600 X136.666 Y164.764
G1 F1500 E27.58681
G1 F1800 X146.291 Y155.135 E28.26605
G1 X146.655 Y154.842 E28.28936
G1 X147.08 Y154.633 E28.31299
G1 X147.56 Y154.529 E28.3375
G1 X147.965 Y154.524 E28.3577
G1 X148.401 Y154.608 E28.37985
G1 X148.957 Y154.76 E28.40861
G1 X149.481 Y154.846 E28.4351
G1 X150.004 Y154.875 E28.46124
G1 X150.527 Y154.846 E28.48737
G1 X151.052 Y154.76 E28.51391
G1 X151.61 Y154.609 E28.54275
G1 X152.011 Y154.523 E28.56321
G1 X152.482 Y154.529 E28.58671
G1 X152.938 Y154.637 E28.61009
G1 X153.35 Y154.841 E28.63303
G1 X153.669 Y155.092 E28.65328
G1 X163.32 Y164.741 E29.33414
G1 X163.438 Y164.963 E29.34668
G1 X163.559 Y165.391 E29.36887
G1 X163.558 Y165.57 E29.3778
G1 X163.461 Y165.937 E29.39674
G1 X163.301 Y166.212 E29.41261
G1 X162.992 Y166.517 E29.43427
G1 X162.541 Y166.684 E29.45827
G1 X137.544 Y166.684 E30.70537
G1 X137.249 Y166.607 E30.72058
G1 X136.929 Y166.427 E30.7389
G1 X136.705 Y166.207 E30.75456
G1 X136.549 Y165.938 E30.77008
G1 X136.468 Y165.655 E30.78476
G1 X136.47 Y165.189 E30.80801
G1 X136.666 Y164.764 E30.83136
G0 F3600 X136.383 Y164.487
G1 F1800 X146.009 Y154.853 E31.51081
G1 X146.441 Y154.501 E31.53861
G1 X146.948 Y154.254 E31.56675
G1 X147.473 Y154.132 E31.59364
G1 F1756.1 X148.094 Y154.111 E31.62541
G1 F1730.8 X149.054 Y154.366 E31.67695
G1 F1764.7 X149.548 Y154.448 E31.70243
G1 X150.004 Y154.47 E31.72567
G1 F1756.1 X150.493 Y154.442 E31.75071
G1 F1764.7 X150.966 Y154.367 E31.77508
G1 F1730.8 X151.697 Y154.168 E31.81439
G1 F1739.1 X152.085 Y154.124 E31.83456
G1 F1800 X152.531 Y154.129 E31.85681
G1 X153.074 Y154.26 E31.88468
G1 X153.567 Y154.501 E31.91205
G1 X154.001 Y154.854 E31.93996
G1 X163.626 Y164.484 E32.61924
G1 X163.781 Y164.708 E32.63283
G1 X163.958 Y165.335 E32.66533
G1 X163.957 Y165.626 E32.67985
G1 X163.848 Y166.039 E32.70116
G1 X163.581 Y166.498 E32.72765
G1 X163.361 Y166.714 E32.74303
G1 X163.054 Y166.92 E32.76148
G1 F1764.7 X162.612 Y167.087 E32.78552
G1 F1734.9 X157.399 Y167.091 E33.05535
G1 F1764.7 X156.959 Y167.084 E33.07775
G1 X144.831 Y167.091 E33.69492
G1 X144.381 Y167.084 E33.71782
G1 F1786.6 X137.544 Y167.087 E34.06148
G1 X137.053 Y166.956 E34.08702
G1 F1800 X136.733 Y166.776 E34.10534
G1 X136.359 Y166.408 E34.13151
G1 X136.203 Y166.14 E34.14698
G1 X136.068 Y165.667 E34.17152
G1 X136.072 Y165.235 E34.19308
G1 X136.161 Y164.849 E34.21284
G1 X136.383 Y164.487 E34.23403
G1 F1500 E32.23403
G0 F3600 X133.435 Y167.896
G1 F1500 E34.23403
G1 F1800 X142.404 Y167.896 E34.68149
G1 X142.751 Y167.97 E34.69919
G1 X143.037 Y168.186 E34.71707
G1 X143.262 Y168.496 E34.73618
G1 X144.198 Y168.5 E34.78288
G1 X144.388 Y168.184 E34.80128
G1 X144.734 Y167.979 E34.82134
G1 X144.958 Y167.896 E34.83326
G1 X154.972 Y167.896 E35.33286
G1 X155.319 Y167.97 E35.35056
G1 X155.605 Y168.186 E35.36844
G1 X155.829 Y168.496 E35.38752
G1 X156.764 Y168.499 E35.43417
G1 X156.953 Y168.182 E35.45258
G1 X157.307 Y167.977 E35.47299
G1 X157.526 Y167.896 E35.48464
G1 X166.566 Y167.896 E35.93565
G1 X166.84 Y167.868 E35.94939
G1 X167.088 Y167.791 E35.96234
G1 X167.319 Y167.669 E35.97538
G1 X167.519 Y167.507 E35.98822
G1 X167.682 Y167.309 E36.00101
G1 X167.798 Y167.089 E36.01342
G1 X167.875 Y166.836 E36.02662
G1 X167.9 Y166.568 E36.04004
G1 X167.904 Y157.619 E36.48651
G1 X168.056 Y157.151 E36.51106
G1 X168.204 Y156.948 E36.52359
G1 X168.504 Y156.767 E36.54107
G1 X168.504 Y155.8 E36.58932
G1 X168.21 Y155.619 E36.60654
G1 X168.079 Y155.442 E36.61753
G1 X167.904 Y155.078 E36.63768
G1 X167.9 Y145.032 E37.13888
G1 X167.974 Y144.685 E37.15658
G1 X168.19 Y144.399 E37.17446
G1 X168.504 Y144.172 E37.19379
G1 X168.504 Y143.209 E37.24183
G1 X168.21 Y143.031 E37.25898
G1 X168.048 Y142.815 E37.27245
G1 X167.904 Y142.451 E37.29198
G1 X167.9 Y133.435 E37.74179
G1 X167.875 Y133.159 E37.75562
G1 X167.763 Y132.789 E37.7749
G1 X167.517 Y132.49 E37.79422
G1 X167.317 Y132.326 E37.80712
G1 X167.088 Y132.205 E37.82004
